;Generated with Cura_SteamEngine 13.11.2
M140 S60.000000
M109 T0 S185.000000
T0
M190 S60.000000
;Sliced at: Sat 05-04-2014 11:41:26
;Basic settings: Layer height: 0.1 Walls: 1 Fill: 20
;Print time: #P_TIME#
;Filament used: #F_AMNT#m #F_WGHT#g
;Filament cost: #F_COST#
;M190 S60 ;Uncomment to add your own bed temperature line
;M109 S185 ;Uncomment to add your own temperature line
G21        ;metric values
G90        ;absolute positioning
M107       ;start with the fan off
G28 X0 Y0  ;move X/Y to min endstops
G28 Z0     ;move Z to min endstops
G1 Z15.0 F9000 ;move the platform down 15mm
G92 E0                  ;zero the extruded length
G1 F200 E3              ;extrude 3mm of feed stock
G92 E0                  ;zero the extruded length again
G1 F9000
;Put printing message on LCD screen
M117 Printing...

;Layer count: 39
;LAYER:0
M107
G0 F3600 X63.05 Y59.45 Z0.30
;TYPE:SKIRT
G1 F2400 E0.00000
G1 F1200 X65.25 Y57.25 E0.07302
G1 X74.75 Y57.25 E0.29656
G1 X76.95 Y59.45 E0.36960
G1 X76.95 Y65.25 E0.50607
G1 X80.55 Y65.25 E0.59079
G1 X82.75 Y67.45 E0.66383
G1 X82.75 Y80.55 E0.97202
G1 X80.55 Y82.75 E1.04507
G1 X59.45 Y82.75 E1.54137
G1 X57.25 Y80.55 E1.61441
G1 X57.25 Y67.45 E1.92259
G1 X59.45 Y65.25 E1.99562
G1 X63.05 Y65.25 E2.08036
G1 X63.05 Y59.45 E2.21683
G0 F3600 X63.55 Y59.65
G1 F1200 X65.45 Y57.75 E2.28011
G1 X74.55 Y57.75 E2.49391
G1 X76.45 Y59.65 E2.55721
G1 X76.45 Y65.75 E2.70057
G1 X80.35 Y65.75 E2.79218
G1 X82.25 Y67.65 E2.85547
G1 X82.25 Y80.35 E3.15393
G1 X80.35 Y82.25 E3.21724
G1 X59.65 Y82.25 E3.70380
G1 X57.75 Y80.35 E3.76710
G1 X57.75 Y67.65 E4.06555
G1 X59.65 Y65.75 E4.12883
G1 X63.55 Y65.75 E4.22046
G1 X63.55 Y59.65 E4.36382
G0 F3600 X67.40 Y61.51
G0 X67.55 Y61.75
;TYPE:WALL-INNER
G1 F1200 X72.45 Y61.75 E4.47903
G1 X72.45 Y69.31 E4.65679
G1 X72.89 Y69.75 E4.67141
G1 X78.25 Y69.75 E4.79746
G1 X78.25 Y78.25 E4.99733
G1 X61.75 Y78.25 E5.38529
G1 X61.75 Y69.75 E5.58515
G1 X67.11 Y69.75 E5.71119
G1 X67.55 Y69.31 E5.72582
G1 X67.55 Y61.75 E5.90358
G0 F3600 X69.27 Y71.09
G1 F1200 X69.17 Y71.11 E5.90592
G1 X68.54 Y71.38 E5.92202
G1 X68.46 Y71.43 E5.92434
G1 X67.84 Y71.91 E5.94275
G1 X67.43 Y72.46 E5.95885
G1 X67.38 Y72.54 E5.96117
G1 X67.11 Y73.17 E5.97728
G1 X67.09 Y73.27 E5.97961
G1 X67.00 Y73.95 E5.99576
G1 X67.00 Y74.05 E5.99804
G1 X67.09 Y74.73 E6.01415
G1 X67.11 Y74.82 E6.01648
G1 X67.38 Y75.46 E6.03261
G1 X67.43 Y75.54 E6.03493
G1 X67.84 Y76.09 E6.05107
G1 X67.91 Y76.16 E6.05338
G1 X68.54 Y76.62 E6.07177
G1 X69.17 Y76.88 E6.08788
G1 X69.27 Y76.91 E6.09021
G1 X69.95 Y77.00 E6.10634
G1 X70.05 Y77.00 E6.10867
G1 X70.73 Y76.91 E6.12478
G1 X70.82 Y76.88 E6.12709
G1 X71.46 Y76.62 E6.14322
G1 X71.54 Y76.57 E6.14554
G1 X72.09 Y76.15 E6.16166
G1 X72.15 Y76.09 E6.16395
G1 X72.57 Y75.54 E6.18007
G1 X72.62 Y75.46 E6.18239
G1 X72.88 Y74.82 E6.19852
G1 X72.91 Y74.73 E6.20083
G1 X73.00 Y74.05 E6.21694
G1 X73.00 Y73.95 E6.21927
G1 X72.91 Y73.27 E6.23540
G1 X72.88 Y73.17 E6.23773
G1 X72.62 Y72.54 E6.25384
G1 X72.16 Y71.91 E6.27223
G1 X72.09 Y71.84 E6.27454
G1 X71.54 Y71.43 E6.29068
G1 X71.46 Y71.38 E6.29300
G1 X70.82 Y71.11 E6.30913
G1 X70.73 Y71.09 E6.31146
G1 X70.05 Y71.00 E6.32757
G1 X69.95 Y71.00 E6.32985
G1 X69.27 Y71.09 E6.34600
G0 F3600 X69.34 Y71.59
;TYPE:WALL-OUTER
G1 F1200 X68.74 Y71.84 E6.36135
G1 X68.22 Y72.24 E6.37669
G1 X67.83 Y72.76 E6.39201
G1 X67.58 Y73.37 E6.40737
G1 X67.50 Y73.98 E6.42198
G1 X67.50 Y74.01 E6.42271
G1 X67.59 Y74.66 E6.43807
G1 X67.84 Y75.26 E6.45342
G1 X68.24 Y75.78 E6.46877
G1 X68.76 Y76.17 E6.48409
G1 X69.34 Y76.41 E6.49868
G1 X69.37 Y76.42 E6.49944
G1 X69.98 Y76.50 E6.51405
G1 X70.02 Y76.50 E6.51482
G1 X70.63 Y76.42 E6.52941
G1 X70.66 Y76.41 E6.53016
G1 X71.26 Y76.15 E6.54554
G1 X71.76 Y75.78 E6.56011
G1 X71.78 Y75.76 E6.56084
G1 X72.17 Y75.24 E6.57618
G1 X72.41 Y74.66 E6.59079
G1 X72.42 Y74.63 E6.59155
G1 X72.50 Y74.02 E6.60614
G1 X72.50 Y73.98 E6.60691
G1 X72.42 Y73.37 E6.62152
G1 X72.41 Y73.34 E6.62228
G1 X72.15 Y72.74 E6.63763
G1 X71.76 Y72.22 E6.65294
G1 X71.24 Y71.83 E6.66829
G1 X70.63 Y71.58 E6.68366
G1 X70.01 Y71.50 E6.69825
G1 X69.98 Y71.50 E6.69898
G1 X69.34 Y71.59 E6.71436
G0 F3600 X69.25 Y71.25
G0 X66.90 Y69.60
G0 X66.90 Y69.25
G1 F1200 X67.05 Y69.10 E6.71925
G1 X67.05 Y61.25 E6.90389
G1 X72.95 Y61.25 E7.04262
G1 X72.95 Y69.10 E7.22727
G1 X73.10 Y69.25 E7.23214
G1 X78.75 Y69.25 E7.36509
G1 X78.75 Y78.75 E7.58846
G1 X61.25 Y78.75 E7.99994
G1 X61.25 Y69.25 E8.22332
G1 X66.90 Y69.25 E8.35624
G0 F3600 X67.32 Y69.79
;TYPE:FILL
G1 F1200 X68.66 Y71.13 E8.40095
G0 F3600 X68.21 Y71.39
G1 F1200 X66.74 Y69.92 E8.44979
G0 F3600 X66.04 Y69.92
G1 F1200 X67.82 Y71.71 E8.50905
G0 F3600 X67.49 Y72.09
G1 F1200 X65.33 Y69.92 E8.58093
G0 F3600 X64.62 Y69.92
G1 F1200 X67.20 Y72.50 E8.66672
G0 F3600 X66.99 Y73.00
G1 F1200 X63.91 Y69.92 E8.76912
G0 F3600 X63.21 Y69.92
G1 F1200 X66.87 Y73.59 E8.89089
G0 F3600 X66.85 Y74.28
G1 F1200 X62.50 Y69.92 E9.03559
G0 F3600 X61.92 Y70.06
G1 F1200 X67.09 Y75.22 E9.20734
G0 F3600 X68.78 Y76.91
G1 F1200 X69.94 Y78.07 E9.24605
G0 F3600 X69.24 Y78.07
G1 F1200 X61.92 Y70.76 E9.48916
G0 F3600 X61.92 Y71.47
G1 F1200 X68.53 Y78.07 E9.70876
G0 F3600 X67.82 Y78.07
G1 F1200 X61.92 Y72.18 E9.90485
G0 F3600 X61.92 Y72.89
G1 F1200 X67.11 Y78.07 E10.07741
G0 F3600 X66.41 Y78.07
G1 F1200 X61.92 Y73.59 E10.22647
G0 F3600 X61.92 Y74.30
G1 F1200 X65.70 Y78.07 E10.35201
G0 F3600 X64.99 Y78.07
G1 F1200 X61.92 Y75.01 E10.45405
G0 F3600 X61.92 Y75.71
G1 F1200 X64.29 Y78.07 E10.53256
G0 F3600 X63.58 Y78.07
G1 F1200 X61.92 Y76.42 E10.58756
G0 F3600 X61.92 Y77.13
G1 F1200 X62.87 Y78.07 E10.61905
G0 F3600 X62.16 Y78.07
G1 F1200 X61.92 Y77.83 E10.62703
G0 F3600 X69.72 Y77.15
G1 F1200 X70.65 Y78.07 E10.65789
G0 F3600 X71.36 Y78.07
G1 F1200 X70.41 Y77.13 E10.68935
G0 F3600 X70.99 Y77.00
G1 F1200 X72.06 Y78.07 E10.72503
G0 F3600 X72.77 Y78.07
G1 F1200 X71.49 Y76.79 E10.76756
G0 F3600 X71.91 Y76.51
G1 F1200 X73.48 Y78.07 E10.81966
G0 F3600 X74.18 Y78.07
G1 F1200 X72.30 Y76.18 E10.88248
G0 F3600 X72.60 Y75.78
G1 F1200 X74.89 Y78.07 E10.95863
G0 F3600 X75.60 Y78.07
G1 F1200 X72.86 Y75.33 E11.04971
G0 F3600 X73.06 Y74.83
G1 F1200 X76.31 Y78.07 E11.15761
G0 F3600 X77.01 Y78.07
G1 F1200 X73.15 Y74.21 E11.28597
G0 F3600 X73.11 Y73.46
G1 F1200 X77.72 Y78.07 E11.43921
G0 F3600 X78.07 Y77.72
G1 F1200 X72.68 Y72.33 E11.61854
G0 F3600 X71.62 Y71.27
G1 F1200 X67.72 Y67.37 E11.74826
G0 F3600 X67.72 Y68.08
G1 F1200 X70.53 Y70.88 E11.84154
G0 F3600 X69.78 Y70.84
G1 F1200 X67.72 Y68.79 E11.90994
G0 F3600 X67.67 Y69.44
G1 F1200 X69.17 Y70.93 E11.95968
G0 F3600 X72.27 Y69.09
G1 F1200 X67.72 Y64.54 E12.11101
G0 F3600 X67.72 Y65.25
G1 F1200 X78.07 Y75.60 E12.45521
G0 F3600 X78.07 Y76.31
G1 F1200 X67.72 Y65.96 E12.79938
G0 F3600 X67.72 Y66.66
G1 F1200 X78.07 Y77.01 E13.14354
G0 F3600 X78.07 Y74.89
G1 F1200 X73.11 Y69.93 E13.30871
G0 F3600 X73.81 Y69.93
G1 F1200 X78.07 Y74.18 E13.45037
G0 F3600 X78.07 Y73.48
G1 F1200 X74.52 Y69.93 E13.56851
G0 F3600 X75.23 Y69.93
G1 F1200 X78.07 Y72.77 E13.66315
G0 F3600 X78.07 Y72.06
G1 F1200 X75.93 Y69.93 E13.73428
G0 F3600 X76.64 Y69.93
G1 F1200 X78.07 Y71.36 E13.78188
G0 F3600 X78.07 Y70.65
G1 F1200 X77.35 Y69.93 E13.80597
G0 F3600 X72.92 Y69.68
G0 X72.52 Y69.28
G0 X72.27 Y68.39
G1 F1200 X67.72 Y63.83 E13.95730
G0 F3600 X67.72 Y63.13
G1 F1200 X72.27 Y67.68 E14.10864
G0 F3600 X72.27 Y66.97
G1 F1200 X67.72 Y62.42 E14.25997
G0 F3600 X67.93 Y61.92
G1 F1200 X72.27 Y66.26 E14.40427
G0 F3600 X72.27 Y65.56
G1 F1200 X68.64 Y61.92 E14.52506
G0 F3600 X69.35 Y61.92
G1 F1200 X72.27 Y64.85 E14.62234
G0 F3600 X72.27 Y64.14
G1 F1200 X70.06 Y61.92 E14.69611
G0 F3600 X70.76 Y61.92
G1 F1200 X72.27 Y63.44 E14.74636
G0 F3600 X72.27 Y62.73
G1 F1200 X71.47 Y61.92 E14.77309
G0 F3600 X72.18 Y61.92
G1 F1200 X72.27 Y62.02 E14.77632
;LAYER:1
M106 S127
G0 F9000 X72.45 Y61.75 Z0.40
;TYPE:WALL-INNER
G1 F1620 X72.45 Y69.31 E14.83557
G1 X72.89 Y69.75 E14.84044
G1 X78.25 Y69.75 E14.88246
G1 X78.25 Y78.25 E14.94908
G1 X61.75 Y78.25 E15.07840
G1 X61.75 Y69.75 E15.14502
G1 X67.11 Y69.75 E15.18703
G1 X67.55 Y69.31 E15.19191
G1 X67.55 Y61.75 E15.25116
G1 X72.45 Y61.75 E15.28957
G0 F9000 X70.73 Y71.09
G1 F1620 X70.05 Y71.00 E15.29494
G1 X69.95 Y71.00 E15.29570
G1 X69.27 Y71.09 E15.30108
G1 X69.17 Y71.11 E15.30186
G1 X68.54 Y71.38 E15.30723
G1 X68.46 Y71.43 E15.30800
G1 X67.84 Y71.91 E15.31414
G1 X67.43 Y72.46 E15.31950
G1 X67.38 Y72.54 E15.32028
G1 X67.11 Y73.17 E15.32565
G1 X67.09 Y73.27 E15.32643
G1 X67.00 Y73.95 E15.33181
G1 X67.00 Y74.05 E15.33257
G1 X67.09 Y74.73 E15.33794
G1 X67.11 Y74.82 E15.33872
G1 X67.38 Y75.46 E15.34409
G1 X67.43 Y75.54 E15.34487
G1 X67.84 Y76.09 E15.35024
G1 X67.91 Y76.16 E15.35101
G1 X68.54 Y76.62 E15.35714
G1 X69.17 Y76.88 E15.36251
G1 X69.27 Y76.91 E15.36329
G1 X69.95 Y77.00 E15.36867
G1 X70.05 Y77.00 E15.36944
G1 X70.73 Y76.91 E15.37481
G1 X70.82 Y76.88 E15.37558
G1 X71.46 Y76.62 E15.38096
G1 X71.54 Y76.57 E15.38173
G1 X72.09 Y76.15 E15.38711
G1 X72.15 Y76.09 E15.38787
G1 X72.57 Y75.54 E15.39324
G1 X72.62 Y75.46 E15.39402
G1 X72.88 Y74.82 E15.39939
G1 X72.91 Y74.73 E15.40017
G1 X73.00 Y74.05 E15.40553
G1 X73.00 Y73.95 E15.40631
G1 X72.91 Y73.27 E15.41169
G1 X72.88 Y73.17 E15.41247
G1 X72.62 Y72.54 E15.41783
G1 X72.16 Y71.91 E15.42396
G1 X72.09 Y71.84 E15.42473
G1 X71.54 Y71.43 E15.43011
G1 X71.46 Y71.38 E15.43089
G1 X70.82 Y71.11 E15.43626
G1 X70.73 Y71.09 E15.43704
G0 F9000 X70.63 Y71.58
;TYPE:WALL-OUTER
G1 F1620 X70.01 Y71.50 E15.44190
G1 X69.98 Y71.50 E15.44215
G1 X69.34 Y71.59 E15.44727
G1 X68.74 Y71.84 E15.45239
G1 X68.22 Y72.24 E15.45751
G1 X67.83 Y72.76 E15.46261
G1 X67.58 Y73.37 E15.46773
G1 X67.50 Y73.98 E15.47260
G1 X67.50 Y74.01 E15.47284
G1 X67.59 Y74.66 E15.47796
G1 X67.84 Y75.26 E15.48308
G1 X68.24 Y75.78 E15.48820
G1 X68.76 Y76.17 E15.49331
G1 X69.34 Y76.41 E15.49817
G1 X69.37 Y76.42 E15.49842
G1 X69.98 Y76.50 E15.50329
G1 X70.02 Y76.50 E15.50355
G1 X70.63 Y76.42 E15.50841
G1 X70.66 Y76.41 E15.50866
G1 X71.26 Y76.15 E15.51379
G1 X71.76 Y75.78 E15.51865
G1 X71.78 Y75.76 E15.51889
G1 X72.17 Y75.24 E15.52400
G1 X72.41 Y74.66 E15.52887
G1 X72.42 Y74.63 E15.52912
G1 X72.50 Y74.02 E15.53399
G1 X72.50 Y73.98 E15.53425
G1 X72.42 Y73.37 E15.53912
G1 X72.41 Y73.34 E15.53937
G1 X72.15 Y72.74 E15.54448
G1 X71.76 Y72.22 E15.54959
G1 X71.24 Y71.83 E15.55470
G1 X70.63 Y71.58 E15.55983
G0 F9000 X70.72 Y71.24
G0 X72.85 Y69.50
G0 X73.10 Y69.25
G1 F1620 X78.75 Y69.25 E15.60414
G1 X78.75 Y78.75 E15.67860
G1 X61.25 Y78.75 E15.81576
G1 X61.25 Y69.25 E15.89022
G1 X66.90 Y69.25 E15.93453
G1 X67.05 Y69.10 E15.93616
G1 X67.05 Y61.25 E15.99771
G1 X72.95 Y61.25 E16.04395
G1 X72.95 Y69.10 E16.10550
G1 X73.10 Y69.25 E16.10712
G0 F9000 X72.69 Y69.79
;TYPE:FILL
G1 F1620 X71.34 Y71.14 E16.12202
G0 F9000 X71.79 Y71.40
G1 F1620 X73.26 Y69.93 E16.13834
G0 F9000 X73.97 Y69.93
G1 F1620 X72.19 Y71.70 E16.15807
G0 F9000 X72.51 Y72.09
G1 F1620 X74.68 Y69.93 E16.18211
G0 F9000 X75.39 Y69.93
G1 F1620 X72.80 Y72.51 E16.21077
G0 F9000 X73.01 Y73.01
G1 F1620 X76.09 Y69.93 E16.24496
G0 F9000 X76.80 Y69.93
G1 F1620 X73.13 Y73.59 E16.28563
G0 F9000 X73.14 Y74.29
G1 F1620 X77.51 Y69.93 E16.33397
G0 F9000 X78.07 Y70.06
G1 F1620 X72.90 Y75.24 E16.39132
G0 F9000 X71.24 Y76.90
G1 F1620 X70.06 Y78.07 E16.40435
G0 F9000 X70.77 Y78.07
G1 F1620 X78.07 Y70.77 E16.48530
G0 F9000 X78.07 Y71.48
G1 F1620 X71.48 Y78.07 E16.55841
G0 F9000 X72.18 Y78.07
G1 F1620 X78.07 Y72.18 E16.62369
G0 F9000 X78.07 Y72.89
G1 F1620 X72.89 Y78.07 E16.68113
G0 F9000 X73.60 Y78.07
G1 F1620 X78.07 Y73.60 E16.73073
G0 F9000 X78.07 Y74.31
G1 F1620 X74.31 Y78.07 E16.77248
G0 F9000 X75.01 Y78.07
G1 F1620 X78.07 Y75.01 E16.80640
G0 F9000 X78.07 Y75.72
G1 F1620 X75.72 Y78.07 E16.83248
G0 F9000 X76.43 Y78.07
G1 F1620 X78.07 Y76.43 E16.85073
G0 F9000 X78.07 Y77.14
G1 F1620 X77.14 Y78.07 E16.86113
G0 F9000 X77.84 Y78.07
G1 F1620 X78.07 Y77.84 E16.86370
G0 F9000 X70.29 Y77.14
G1 F1620 X69.36 Y78.07 E16.87402
G0 F9000 X68.65 Y78.07
G1 F1620 X69.60 Y77.13 E16.88449
G0 F9000 X69.01 Y77.01
G1 F1620 X67.94 Y78.07 E16.89633
G0 F9000 X67.24 Y78.07
G1 F1620 X68.51 Y76.80 E16.91046
G0 F9000 X68.10 Y76.51
G1 F1620 X66.53 Y78.07 E16.92783
G0 F9000 X65.82 Y78.07
G1 F1620 X67.70 Y76.19 E16.94869
G0 F9000 X67.40 Y75.79
G1 F1620 X65.11 Y78.07 E16.97400
G0 F9000 X64.41 Y78.07
G1 F1620 X67.14 Y75.34 E17.00428
G0 F9000 X66.94 Y74.84
G1 F1620 X63.70 Y78.07 E17.04015
G0 F9000 X62.99 Y78.07
G1 F1620 X66.84 Y74.22 E17.08282
G0 F9000 X66.88 Y73.48
G1 F1620 X62.29 Y78.07 E17.13377
G0 F9000 X61.92 Y77.73
G1 F1620 X67.26 Y72.40 E17.19286
G0 F9000 X68.40 Y71.26
G1 F1620 X72.27 Y67.38 E17.23585
G0 F9000 X72.27 Y68.08
G1 F1620 X69.48 Y70.88 E17.26685
G0 F9000 X70.22 Y70.84
G1 F1620 X72.27 Y68.79 E17.28957
G0 F9000 X72.33 Y69.44
G1 F1620 X70.84 Y70.94 E17.30613
G0 F9000 X67.72 Y69.10
G1 F1620 X72.27 Y64.55 E17.35655
G0 F9000 X72.27 Y65.26
G1 F1620 X61.92 Y75.61 E17.47128
G0 F9000 X61.92 Y76.31
G1 F1620 X72.27 Y65.96 E17.58600
G0 F9000 X72.27 Y66.67
G1 F1620 X61.92 Y77.02 E17.70072
G0 F9000 X61.92 Y74.90
G1 F1620 X66.90 Y69.92 E17.75587
G0 F9000 X66.19 Y69.92
G1 F1620 X61.92 Y74.19 E17.80319
G0 F9000 X61.92 Y73.49
G1 F1620 X65.49 Y69.92 E17.84267
G0 F9000 X64.78 Y69.92
G1 F1620 X61.92 Y72.78 E17.87431
G0 F9000 X61.92 Y72.07
G1 F1620 X64.07 Y69.92 E17.89812
G0 F9000 X63.37 Y69.92
G1 F1620 X61.92 Y71.36 E17.91408
G0 F9000 X61.92 Y70.66
G1 F1620 X62.66 Y69.92 E17.92222
G0 F9000 X67.08 Y69.68
G0 X67.48 Y69.28
G0 X67.72 Y68.39
G1 F1620 X72.27 Y63.84 E17.97264
G0 F9000 X72.27 Y63.14
G1 F1620 X67.72 Y67.68 E18.02306
G0 F9000 X67.72 Y66.98
G1 F1620 X72.27 Y62.43 E18.07348
G0 F9000 X72.07 Y61.92
G1 F1620 X67.72 Y66.27 E18.12166
G0 F9000 X67.72 Y65.57
G1 F1620 X71.36 Y61.92 E18.16201
G0 F9000 X70.66 Y61.92
G1 F1620 X67.72 Y64.86 E18.19452
G0 F9000 X67.72 Y64.15
G1 F1620 X69.95 Y61.92 E18.21919
G0 F9000 X69.24 Y61.92
G1 F1620 X67.72 Y63.44 E18.23603
G0 F9000 X67.72 Y62.74
G1 F1620 X68.54 Y61.92 E18.24503
G0 F9000 X67.83 Y61.92
G1 F1620 X67.72 Y62.03 E18.24620
;LAYER:2
M106 S255
G0 F9000 X67.55 Y61.75 Z0.50
;TYPE:WALL-INNER
G1 F2100 X72.45 Y61.75 E18.28460
G1 X72.45 Y69.31 E18.34385
G1 X72.89 Y69.75 E18.34873
G1 X78.25 Y69.75 E18.39074
G1 X78.25 Y78.25 E18.45736
G1 X61.75 Y78.25 E18.58669
G1 X61.75 Y69.75 E18.65331
G1 X67.11 Y69.75 E18.69532
G1 X67.55 Y69.31 E18.70020
G1 X67.55 Y61.75 E18.75945
G0 F9000 X69.27 Y71.09
G1 F2100 X69.17 Y71.11 E18.76023
G1 X68.54 Y71.38 E18.76560
G1 X68.46 Y71.43 E18.76637
G1 X67.84 Y71.91 E18.77251
G1 X67.43 Y72.46 E18.77787
G1 X67.38 Y72.54 E18.77865
G1 X67.11 Y73.17 E18.78401
G1 X67.09 Y73.27 E18.78479
G1 X67.00 Y73.95 E18.79018
G1 X67.00 Y74.05 E18.79094
G1 X67.09 Y74.73 E18.79630
G1 X67.11 Y74.82 E18.79708
G1 X67.38 Y75.46 E18.80246
G1 X67.43 Y75.54 E18.80323
G1 X67.84 Y76.09 E18.80861
G1 X67.91 Y76.16 E18.80938
G1 X68.54 Y76.62 E18.81551
G1 X69.17 Y76.88 E18.82088
G1 X69.27 Y76.91 E18.82166
G1 X69.95 Y77.00 E18.82704
G1 X70.05 Y77.00 E18.82781
G1 X70.73 Y76.91 E18.83318
G1 X70.82 Y76.88 E18.83395
G1 X71.46 Y76.62 E18.83933
G1 X71.54 Y76.57 E18.84010
G1 X72.09 Y76.15 E18.84548
G1 X72.15 Y76.09 E18.84624
G1 X72.57 Y75.54 E18.85161
G1 X72.62 Y75.46 E18.85239
G1 X72.88 Y74.82 E18.85776
G1 X72.91 Y74.73 E18.85853
G1 X73.00 Y74.05 E18.86390
G1 X73.00 Y73.95 E18.86468
G1 X72.91 Y73.27 E18.87005
G1 X72.88 Y73.17 E18.87083
G1 X72.62 Y72.54 E18.87620
G1 X72.16 Y71.91 E18.88233
G1 X72.09 Y71.84 E18.88310
G1 X71.54 Y71.43 E18.88848
G1 X71.46 Y71.38 E18.88925
G1 X70.82 Y71.11 E18.89463
G1 X70.73 Y71.09 E18.89541
G1 X70.05 Y71.00 E18.90078
G1 X69.95 Y71.00 E18.90154
G1 X69.27 Y71.09 E18.90692
G0 F9000 X69.34 Y71.59
;TYPE:WALL-OUTER
G1 F2100 X68.74 Y71.84 E18.91204
G1 X68.22 Y72.24 E18.91715
G1 X67.83 Y72.76 E18.92226
G1 X67.58 Y73.37 E18.92738
G1 X67.50 Y73.98 E18.93225
G1 X67.50 Y74.01 E18.93249
G1 X67.59 Y74.66 E18.93761
G1 X67.84 Y75.26 E18.94273
G1 X68.24 Y75.78 E18.94785
G1 X68.76 Y76.17 E18.95295
G1 X69.34 Y76.41 E18.95782
G1 X69.37 Y76.42 E18.95807
G1 X69.98 Y76.50 E18.96294
G1 X70.02 Y76.50 E18.96320
G1 X70.63 Y76.42 E18.96806
G1 X70.66 Y76.41 E18.96831
G1 X71.26 Y76.15 E18.97344
G1 X71.76 Y75.78 E18.97829
G1 X71.78 Y75.76 E18.97854
