; generated by Slic3r 1.0.0RC1 on 2014-04-07 at 12:52:41

; layer_height = 0.22
; perimeters = 2
; top_solid_layers = 3
; bottom_solid_layers = 2
; fill_density = 0.25
; perimeter_speed = 40
; infill_speed = 40
; travel_speed = 150
; nozzle_diameter = 0.3
; filament_diameter = 1.73
; extrusion_multiplier = 1
; perimeters extrusion width = 0.30mm
; infill extrusion width = 0.33mm
; solid infill extrusion width = 0.33mm
; top infill extrusion width = 0.33mm

G21 ; set units to millimeters
M107
G21           ;metric is good!
G90           ;absolute positioning
G28           ;go home
G92 E0        ;reset extruder
G90 ; use absolute coordinates
G92 E0
M82 ; use absolute distances for extrusion
G1 F2400.000 E-2.70000
G92 E0
G1 Z0.240 F9000.000
G1 X66.680 Y65.480 F9000.000
G1 E2.75000 F2400.000
G1 X67.260 Y64.900 E2.77512 F960.000
G1 X67.990 Y64.530 E2.80019
G1 X68.790 Y64.400 E2.82502
G1 X75.200 Y64.400 E3.02136
G1 X76.000 Y64.530 E3.04618
G1 X76.730 Y64.900 E3.07125
G1 X77.300 Y65.470 E3.09594
G1 X83.100 Y73.470 E3.39861
G1 X83.470 Y74.200 E3.42368
G1 X83.600 Y75.000 E3.44850
G1 X83.600 Y85.000 E3.75481
G1 X83.470 Y85.800 E3.77963
G1 X83.100 Y86.530 E3.80470
G1 X82.530 Y87.100 E3.82939
G1 X81.800 Y87.470 E3.85446
G1 X81.000 Y87.600 E3.87928
G1 X63.000 Y87.600 E4.43063
G1 X62.200 Y87.470 E4.45545
G1 X61.470 Y87.100 E4.48052
G1 X60.900 Y86.530 E4.50521
G1 X60.530 Y85.800 E4.53028
G1 X60.400 Y85.000 E4.55511
G1 X60.400 Y75.000 E4.86141
G1 X60.530 Y74.200 E4.88624
G1 X60.890 Y73.480 E4.91089
G1 X66.654 Y65.516 E5.21200
G1 X66.930 Y65.650 F9000.000
G1 X67.740 Y64.950 E5.24479 F960.000
G1 X68.790 Y64.700 E5.27785
G1 X75.200 Y64.700 E5.47419
G1 X76.250 Y64.950 E5.50725
G1 X77.060 Y65.650 E5.54004
G1 X82.860 Y73.650 E5.84271
G1 X83.190 Y74.290 E5.86477
G1 X83.300 Y75.000 E5.88677
G1 X83.300 Y85.000 E6.19308
G1 X83.120 Y85.880 E6.22059
G1 X82.630 Y86.630 E6.24803
G1 X81.880 Y87.120 E6.27547
G1 X81.000 Y87.300 E6.30298
G1 X63.000 Y87.300 E6.85433
G1 X62.120 Y87.120 E6.88184
G1 X61.370 Y86.630 E6.90928
G1 X60.880 Y85.880 E6.93672
G1 X60.700 Y85.000 E6.96424
G1 X60.700 Y75.000 E7.27054
G1 X60.810 Y74.290 E7.29255
G1 X61.140 Y73.650 E7.31460
G1 X66.904 Y65.686 E7.61571
G1 F2400.000 E4.91571
G92 E0
G1 X71.300 Y77.388 F9000.000
G1 E2.75000 F2400.000
G1 X72.000 Y77.296 E2.77162 F480.000
G1 X72.076 Y77.306 E2.77397
G1 X72.700 Y77.388 E2.79324
G1 X73.352 Y77.658 E2.81486
G1 X73.912 Y78.088 E2.83648
G1 X74.342 Y78.648 E2.85810
G1 X74.612 Y79.300 E2.87972
G1 X74.704 Y80.000 E2.90134
G1 X74.612 Y80.700 E2.92296
G1 X74.342 Y81.352 E2.94458
G1 X73.912 Y81.912 E2.96621
G1 X73.352 Y82.342 E2.98783
G1 X72.700 Y82.612 E3.00945
G1 X72.000 Y82.704 E3.03107
G1 X71.300 Y82.612 E3.05269
G1 X70.648 Y82.342 E3.07431
G1 X70.088 Y81.912 E3.09593
G1 X69.658 Y81.352 E3.11755
G1 X69.343 Y80.590 E3.14282
G1 X69.374 Y80.590 E3.14377
G1 X69.296 Y80.000 E3.16199
G1 X69.388 Y79.300 E3.18361
G1 X69.659 Y78.648 E3.20524
G1 X70.088 Y78.088 E3.22685
G1 X70.648 Y77.658 E3.24847
G1 X71.259 Y77.405 E3.26872
G1 X71.378 Y77.681 F9000.000
G1 X72.037 Y77.604 E3.28902 F480.000
G1 X72.621 Y77.681 E3.30708
G1 X73.201 Y77.920 E3.32628
G1 X73.698 Y78.302 E3.34548
G1 X74.080 Y78.799 E3.36468
G1 X74.319 Y79.378 E3.38389
G1 X74.401 Y80.000 E3.40309
G1 X74.319 Y80.622 E3.42229
G1 X74.080 Y81.201 E3.44149
G1 X73.698 Y81.698 E3.46069
G1 X73.201 Y82.080 E3.47989
G1 X72.621 Y82.319 E3.49909
G1 X72.000 Y82.401 E3.51829
G1 X71.378 Y82.319 E3.53749
G1 X70.799 Y82.080 E3.55669
G1 X70.302 Y81.698 E3.57590
G1 X69.920 Y81.201 E3.59510
G1 X69.681 Y80.622 E3.61430
G1 X69.599 Y80.000 E3.63350
G1 X69.681 Y79.379 E3.65270
G1 X69.920 Y78.799 E3.67190
G1 X70.302 Y78.302 E3.69110
G1 X70.799 Y77.920 E3.71030
G1 X71.337 Y77.698 E3.72812
G1 X71.471 Y77.395 F9000.000
G1 X69.250 Y75.450 F9000.000
G1 X69.250 Y67.450 E3.97317 F960.000
G1 X74.750 Y67.450 E4.14163
G1 X74.750 Y75.450 E4.38668
G1 X80.550 Y75.450 E4.56433
G1 X80.550 Y84.550 E4.84307
G1 X63.450 Y84.550 E5.36684
G1 X63.450 Y75.450 E5.64558
G1 X69.205 Y75.450 E5.82185
G1 X68.950 Y75.150 F9000.000
G1 X68.950 Y67.150 E6.06690 F840.000
G1 X75.050 Y67.150 E6.25374
G1 X75.050 Y75.150 E6.49878
G1 X80.850 Y75.150 E6.67644
G1 X80.850 Y84.850 E6.97355
G1 X63.150 Y84.850 E7.51571
G1 X63.150 Y75.150 E7.81282
G1 X68.905 Y75.150 E7.98910
G1 X69.250 Y75.150 F9000.000
G1 X74.544 Y75.025 F9000.000
G1 X69.456 Y69.937 E8.22729 F960.000
G1 X69.456 Y69.478 E8.24246
G1 X74.544 Y74.566 E8.48065
G1 X74.544 Y74.108 E8.49583
G1 X69.456 Y69.020 E8.73402
G1 X69.456 Y68.561 E8.74920
G1 X74.544 Y73.649 E8.98739
G1 X74.544 Y73.191 E9.00257
G1 X69.456 Y68.103 E9.24076
G1 X69.478 Y67.666 E9.25522
G1 X74.544 Y72.732 E9.49237
G1 X74.544 Y72.274 E9.50755
G1 X69.926 Y67.656 E9.72372
G1 X70.385 Y67.656 E9.73890
G1 X74.544 Y71.815 E9.93361
G1 X74.544 Y71.357 E9.94878
G1 X70.843 Y67.656 E10.12202
G1 X71.302 Y67.656 E10.13720
G1 X74.544 Y70.898 E10.28898
G1 X74.544 Y70.440 E10.30415
G1 X71.760 Y67.656 E10.43446
G1 X72.219 Y67.656 E10.44964
G1 X74.544 Y69.981 E10.55848
G1 X74.544 Y69.523 E10.57366
G1 X72.677 Y67.656 E10.66104
G1 X73.136 Y67.656 E10.67622
G1 X74.544 Y69.064 E10.74213
G1 X74.544 Y68.605 E10.75731
G1 X73.595 Y67.656 E10.80176
G1 X74.053 Y67.656 E10.81694
G1 X74.544 Y68.147 E10.83992
G1 X74.544 Y67.688 E10.85510
G1 X74.512 Y67.656 E10.85661
G1 F2400.000 E8.15661
G92 E0
G1 X80.344 Y75.781 F9000.000
G1 E2.75000 F2400.000
G1 X80.219 Y75.656 E2.75585 F960.000
G1 X79.760 Y75.656 E2.77103
G1 X80.344 Y76.240 E2.79834
G1 X80.344 Y76.698 E2.81352
G1 X79.302 Y75.656 E2.86230
G1 X78.843 Y75.656 E2.87748
G1 X80.344 Y77.157 E2.94773
G1 X80.344 Y77.615 E2.96291
G1 X78.385 Y75.656 E3.05462
G1 X77.926 Y75.656 E3.06980
G1 X80.344 Y78.074 E3.18297
G1 X80.344 Y78.532 E3.19815
G1 X77.468 Y75.656 E3.33279
G1 X77.009 Y75.656 E3.34797
G1 X80.344 Y78.991 E3.50408
G1 X80.344 Y79.449 E3.51926
G1 X76.551 Y75.656 E3.69683
G1 X76.092 Y75.656 E3.71201
G1 X80.344 Y79.908 E3.91105
G1 X80.344 Y80.366 E3.92623
G1 X75.634 Y75.656 E4.14673
G1 X75.175 Y75.656 E4.16191
G1 X80.344 Y80.825 E4.40388
G1 X80.344 Y81.283 E4.41905
G1 X69.456 Y70.395 E4.92877
G1 X69.456 Y70.854 E4.94395
G1 X80.344 Y81.742 E5.45366
G1 X80.344 Y82.200 E5.46884
G1 X69.456 Y71.312 E5.97855
G1 X69.456 Y71.771 E5.99373
G1 X80.344 Y82.659 E6.50345
G1 X80.344 Y83.117 E6.51863
G1 X69.456 Y72.229 E7.02834
G1 X69.456 Y72.688 E7.04352
G1 X80.344 Y83.576 E7.55323
G1 X72.400 Y84.344 F9000.000
G1 X70.602 Y82.546 E7.63742 F960.000
G1 X71.340 Y82.825 F9000.000
G1 X72.859 Y84.344 E7.70854 F960.000
G1 X73.317 Y84.344 E7.72372
G1 X71.868 Y82.894 E7.79159
G1 X72.304 Y82.872 E7.80604
G1 X73.776 Y84.344 E7.87496
G1 X74.234 Y84.344 E7.89014
G1 X72.709 Y82.818 E7.96155
G1 X73.042 Y82.693 E7.97334
G1 X74.693 Y84.344 E8.05062
G1 X75.151 Y84.344 E8.06580
G1 X73.366 Y82.559 E8.14937
G1 X73.644 Y82.378 E8.16034
G1 X75.610 Y84.344 E8.25239
G1 X76.068 Y84.344 E8.26757
G1 X73.903 Y82.179 E8.36895
G1 X74.138 Y81.955 E8.37968
G1 X76.527 Y84.344 E8.49150
G1 X76.985 Y84.344 E8.50668
G1 X74.337 Y81.696 E8.63065
G1 X74.532 Y81.432 E8.64151
G1 X77.444 Y84.344 E8.77784
G1 X77.902 Y84.344 E8.79302
G1 X74.666 Y81.107 E8.94454
G1 X74.800 Y80.783 E8.95616
G1 X78.361 Y84.344 E9.12285
G1 X78.820 Y84.344 E9.13803
G1 X74.861 Y80.385 E9.32335
G1 X74.908 Y79.974 E9.33705
G1 X79.278 Y84.344 E9.54161
G1 X79.737 Y84.344 E9.55679
G1 X74.839 Y79.446 E9.78608
G1 X74.611 Y78.760 E9.81002
G1 X80.195 Y84.344 E10.07143
G1 X80.344 Y84.034 E10.08281
G1 X69.456 Y73.146 E10.59252
G1 X69.456 Y73.605 E10.60770
G1 X73.240 Y77.389 E10.78485
G1 X72.554 Y77.161 E10.80879
G1 X69.456 Y74.063 E10.95381
G1 X69.456 Y74.522 E10.96899
G1 X72.026 Y77.092 E11.08929
G1 X71.615 Y77.139 E11.10299
G1 X69.456 Y74.980 E11.20404
G1 X69.456 Y75.439 E11.21922
G1 X71.217 Y77.200 E11.30165
G1 X70.893 Y77.334 E11.31326
G1 X69.215 Y75.656 E11.39182
G1 X68.756 Y75.656 E11.40700
G1 X70.568 Y77.468 E11.49184
G1 X70.304 Y77.663 E11.50269
G1 X68.298 Y75.656 E11.59663
G1 X67.839 Y75.656 E11.61181
G1 X70.045 Y77.862 E11.71506
G1 X69.821 Y78.097 E11.72580
G1 X67.381 Y75.656 E11.84007
G1 X66.922 Y75.656 E11.85525
G1 X69.622 Y78.356 E11.98167
G1 X69.441 Y78.634 E11.99263
G1 X66.463 Y75.656 E12.13203
G1 X66.005 Y75.656 E12.14721
G1 X69.307 Y78.958 E12.30179
G1 X69.182 Y79.291 E12.31358
G1 X65.546 Y75.656 E12.48375
G1 X65.088 Y75.656 E12.49893
G1 X69.128 Y79.696 E12.68808
G1 X69.106 Y80.132 E12.70253
G1 X64.629 Y75.656 E12.91208
G1 X64.171 Y75.656 E12.92726
G1 X69.130 Y80.615 E13.15943
G1 X69.454 Y81.398 F9000.000
G1 X63.712 Y75.656 E13.42824 F960.000
G1 X63.656 Y76.058 E13.44169
G1 X71.942 Y84.344 E13.82958
G1 X71.483 Y84.344 E13.84476
G1 X63.656 Y76.517 E14.21119
G1 X63.656 Y76.975 E14.22636
G1 X71.025 Y84.344 E14.57133
G1 X70.566 Y84.344 E14.58651
G1 X63.656 Y77.434 E14.91000
G1 X63.656 Y77.892 E14.92518
G1 X70.108 Y84.344 E15.22721
G1 X69.649 Y84.344 E15.24239
G1 X63.656 Y78.351 E15.52296
G1 X63.656 Y78.809 E15.53814
G1 X69.191 Y84.344 E15.79724
G1 X68.732 Y84.344 E15.81242
G1 X63.656 Y79.268 E16.05006
G1 X63.656 Y79.726 E16.06523
G1 X68.274 Y84.344 E16.28140
G1 X67.815 Y84.344 E16.29658
G1 X63.656 Y80.185 E16.49129
G1 X63.656 Y80.643 E16.50647
G1 X67.357 Y84.344 E16.67971
G1 X66.898 Y84.344 E16.69489
G1 X63.656 Y81.102 E16.84666
G1 X63.656 Y81.560 E16.86184
G1 X66.440 Y84.344 E16.99215
G1 X65.981 Y84.344 E17.00733
G1 X63.656 Y82.019 E17.11617
G1 X63.656 Y82.477 E17.13135
G1 X65.523 Y84.344 E17.21873
G1 X65.064 Y84.344 E17.23391
G1 X63.656 Y82.936 E17.29982
G1 X63.656 Y83.394 E17.31500
G1 X64.606 Y84.344 E17.35945
G1 X64.147 Y84.344 E17.37463
G1 X63.656 Y83.853 E17.39761
G1 X63.656 Y84.312 E17.41279
G1 X63.688 Y84.344 E17.41431
G1 F2400.000 E14.71431
G92 E0
G1 Z0.460 F9000.000
G1 X69.658 Y81.352 F9000.000
G1 E2.75000 F2400.000
G1 X69.388 Y80.700 E2.76982 F1200
G1 X69.296 Y80.000 E2.78964
G1 X69.388 Y79.300 E2.80946
G1 X69.659 Y78.648 E2.82928
G1 X70.088 Y78.088 E2.84909
G1 X70.648 Y77.658 E2.86891
G1 X71.300 Y77.388 E2.88873
G1 X71.545 Y77.356 E2.89565
G1 X71.545 Y77.236 E2.89902
G1 X72.700 Y77.388 E2.93174
G1 X73.352 Y77.658 E2.95155
G1 X73.912 Y78.088 E2.97137
G1 X74.342 Y78.648 E2.99119
G1 X74.612 Y79.300 E3.01101
G1 X74.704 Y80.000 E3.03083
G1 X74.612 Y80.700 E3.05065
G1 X74.342 Y81.352 E3.07047
G1 X73.912 Y81.912 E3.09029
G1 X73.352 Y82.342 E3.11011
G1 X72.700 Y82.612 E3.12992
G1 X72.000 Y82.704 E3.14974
G1 X71.300 Y82.612 E3.16956
G1 X70.648 Y82.342 E3.18938
G1 X70.088 Y81.912 E3.20920
G1 X69.686 Y81.388 E3.22776
G1 X69.920 Y81.201 F9000.000
G1 X69.681 Y80.622 E3.24536 F1200
G1 X69.599 Y80.000 E3.26296
G1 X69.681 Y79.379 E3.28056
G1 X69.920 Y78.799 E3.29816
G1 X70.302 Y78.302 E3.31576
G1 X70.799 Y77.920 E3.33336
G1 X71.379 Y77.681 E3.35096
G1 X71.845 Y77.619 E3.36416
G1 X71.845 Y77.578 E3.36531
G1 X72.621 Y77.681 E3.38731
G1 X73.201 Y77.920 E3.40491
G1 X73.698 Y78.302 E3.42251
G1 X74.080 Y78.799 E3.44012
G1 X74.319 Y79.378 E3.45772
G1 X74.401 Y80.000 E3.47532
G1 X74.319 Y80.622 E3.49292
G1 X74.080 Y81.201 E3.51052
G1 X73.698 Y81.698 E3.52812
G1 X73.201 Y82.080 E3.54572
G1 X72.621 Y82.319 E3.56332
G1 X72.000 Y82.401 E3.58092
G1 X71.379 Y82.319 E3.59852
G1 X70.799 Y82.080 E3.61612
G1 X70.302 Y81.698 E3.63373
G1 X69.948 Y81.236 E3.65006
G1 X69.621 Y81.188 F9000.000
G1 X69.250 Y75.450 F9000.000
G1 X69.250 Y67.450 E3.87468 F2400
G1 X74.750 Y67.450 E4.02911
G1 X74.750 Y75.450 E4.25373
G1 X80.550 Y75.450 E4.41658
G1 X80.550 Y84.550 E4.67209
G1 X63.450 Y84.550 E5.15222
G1 X63.450 Y75.450 E5.40773
G1 X69.205 Y75.450 E5.56932
G1 X68.950 Y75.150 F9000.000
G1 X68.950 Y67.150 E5.79394 F2100
G1 X75.050 Y67.150 E5.96521
G1 X75.050 Y75.150 E6.18983
G1 X80.850 Y75.150 E6.35268
G1 X80.850 Y84.850 E6.62504
G1 X63.150 Y84.850 E7.12201
G1 X63.150 Y75.150 E7.39437
G1 X68.905 Y75.150 E7.55595
G1 X69.250 Y75.150 F9000.000
G1 X68.825 Y75.656 F9000.000
G1 X63.656 Y80.825 E7.77776 F2400
G1 X63.656 Y80.366 E7.79167
G1 X68.366 Y75.656 E7.99380
G1 X67.908 Y75.656 E8.00771
G1 X63.656 Y79.908 E8.19017
G1 X63.656 Y79.449 E8.20408
G1 X67.449 Y75.656 E8.36685
G1 X66.991 Y75.656 E8.38077
G1 X63.656 Y78.991 E8.52387
G1 X63.656 Y78.532 E8.53778
G1 X66.532 Y75.656 E8.66120
G1 X66.074 Y75.656 E8.67512
G1 X63.656 Y78.074 E8.77886
G1 X63.656 Y77.615 E8.79277
G1 X65.615 Y75.656 E8.87684
G1 X65.157 Y75.656 E8.89076
G1 X63.656 Y77.157 E8.95515
G1 X63.656 Y76.698 E8.96906
G1 X64.698 Y75.656 E9.01378
G1 X64.240 Y75.656 E9.02769
G1 X63.656 Y76.240 E9.05273
G1 X63.656 Y75.781 E9.06665
G1 X63.781 Y75.656 E9.07201
G1 X70.760 Y77.389 F9000.000
G1 X74.544 Y73.605 E9.23440 F2400
G1 X71.575 Y77.032 F9000.000
G1 X74.544 Y74.063 E9.36180 F2400
G1 X74.544 Y74.522 E9.37571
G1 X71.980 Y77.086 E9.48573
G1 X72.385 Y77.139 E9.49813
G1 X74.544 Y74.980 E9.59076
G1 X74.544 Y75.439 E9.60468
G1 X72.783 Y77.200 E9.68024
G1 X73.107 Y77.334 E9.69089
G1 X74.785 Y75.656 E9.76289
G1 X75.244 Y75.656 E9.77681
G1 X73.432 Y77.468 E9.85458
G1 X73.696 Y77.663 E9.86453
G1 X75.702 Y75.656 E9.95064
G1 X76.161 Y75.656 E9.96455
G1 X73.955 Y77.862 E10.05920
G1 X74.179 Y78.097 E10.06904
G1 X76.619 Y75.656 E10.17379
G1 X77.078 Y75.656 E10.18771
G1 X74.378 Y78.356 E10.30359
G1 X74.559 Y78.634 E10.31364
G1 X77.536 Y75.656 E10.44143
G1 X77.995 Y75.656 E10.45534
G1 X74.693 Y78.958 E10.59704
G1 X74.818 Y79.291 E10.60784
G1 X78.454 Y75.656 E10.76384
G1 X78.912 Y75.656 E10.77775
G1 X74.872 Y79.696 E10.95113
G1 X74.894 Y80.132 E10.96438
G1 X79.371 Y75.656 E11.15647
G1 X79.829 Y75.656 E11.17039
G1 X74.825 Y80.660 E11.38514
G1 X74.546 Y81.398 F9000.000
G1 X80.288 Y75.656 E11.63155 F2400
G1 X80.344 Y84.312 F9000.000
G1 X80.312 Y84.344 E11.63294 F2400
G1 X79.853 Y84.344 E11.64685
G1 X80.344 Y83.853 E11.66792
G1 X80.344 Y83.394 E11.68183
G1 X79.394 Y84.344 E11.72258
G1 X78.936 Y84.344 E11.73649
G1 X80.344 Y82.936 E11.79691
G1 X80.344 Y82.477 E11.81083
G1 X78.477 Y84.344 E11.89092
G1 X78.019 Y84.344 E11.90484
G1 X80.344 Y82.019 E12.00461
G1 X80.344 Y81.560 E12.01853
G1 X77.560 Y84.344 E12.13798
G1 X77.102 Y84.344 E12.15189
G1 X80.344 Y81.102 E12.29102
G1 X80.344 Y80.643 E12.30493
G1 X76.643 Y84.344 E12.46373
G1 X76.185 Y84.344 E12.47765
G1 X80.344 Y80.185 E12.65613
G1 X80.344 Y79.726 E12.67004
G1 X75.726 Y84.344 E12.86820
G1 X75.268 Y84.344 E12.88211
G1 X80.344 Y79.268 E13.09995
G1 X80.344 Y78.809 E13.11386
G1 X74.809 Y84.344 E13.35137
G1 X74.351 Y84.344 E13.36528
G1 X80.344 Y78.351 E13.62247
G1 X80.344 Y77.892 E13.63638
G1 X73.892 Y84.344 E13.91325
G1 X73.434 Y84.344 E13.92716
G1 X80.344 Y77.434 E14.22370
G1 X80.344 Y76.975 E14.23761
G1 X72.975 Y84.344 E14.55383
G1 X72.517 Y84.344 E14.56774
G1 X80.344 Y76.517 E14.90363
G1 X80.344 Y76.058 E14.91755
G1 X72.058 Y84.344 E15.27312
G1 X71.600 Y84.344 E15.28703
G1 X73.398 Y82.546 E15.36421
G1 X72.660 Y82.825 F9000.000
G1 X71.141 Y84.344 E15.42940 F2400
G1 X70.683 Y84.344 E15.44331
G1 X72.132 Y82.894 E15.50552
G1 X71.696 Y82.872 E15.51877
G1 X70.224 Y84.344 E15.58195
G1 X69.766 Y84.344 E15.59586
G1 X71.291 Y82.818 E15.66133
G1 X70.958 Y82.693 E15.67213
G1 X69.307 Y84.344 E15.74297
G1 X68.849 Y84.344 E15.75689
G1 X70.634 Y82.559 E15.83349
G1 X70.356 Y82.378 E15.84355
G1 X68.390 Y84.344 E15.92793
G1 X67.932 Y84.344 E15.94184
G1 X70.097 Y82.179 E16.03477
G1 X69.862 Y81.955 E16.04461
G1 X67.473 Y84.344 E16.14711
G1 X67.015 Y84.344 E16.16103
G1 X69.663 Y81.696 E16.27466
G1 X69.468 Y81.432 E16.28461
G1 X66.556 Y84.344 E16.40959
G1 X66.098 Y84.344 E16.42350
G1 X69.334 Y81.107 E16.56239
G1 X69.200 Y80.783 E16.57304
G1 X65.639 Y84.344 E16.72585
G1 X65.180 Y84.344 E16.73976
G1 X69.139 Y80.385 E16.90963
G1 X69.092 Y79.974 E16.92219
G1 X64.722 Y84.344 E17.10971
G1 X64.263 Y84.344 E17.12363
G1 X69.161 Y79.446 E17.33380
G1 X69.389 Y78.760 E17.35575
G1 X63.805 Y84.344 E17.59538
G1 X63.656 Y84.034 E17.60580
G1 X74.544 Y73.146 E18.07304
G1 X74.544 Y72.688 E18.08695
G1 X63.656 Y83.576 E18.55419
G1 X63.656 Y83.117 E18.56811
G1 X74.544 Y72.229 E19.03534
G1 X74.544 Y71.771 E19.04926
G1 X63.656 Y82.659 E19.51650
G1 X63.656 Y82.200 E19.53041
G1 X74.544 Y71.312 E19.99765
G1 X74.544 Y70.854 E20.01156
G1 X63.656 Y81.742 E20.47880
G1 X63.656 Y81.283 E20.49271
G1 X74.544 Y70.395 E20.95995
