; generated by Slic3r 1.0.1 on 2014-05-27 at 11:26:06

; layer_height = 0.24
; perimeters = 2
; top_solid_layers = 2
; bottom_solid_layers = 2
; fill_density = 0.25
; perimeter_speed = 50
; infill_speed = 50
; travel_speed = 200
; nozzle_diameter = 0.5
; filament_diameter = 1.70
; extrusion_multiplier = 1
; perimeters extrusion width = 0.48mm
; infill extrusion width = 0.49mm
; solid infill extrusion width = 0.46mm
; top infill extrusion width = 0.41mm
; first layer extrusion width = 0.50mm

G21 ; set units to millimeters
M107
M190 S20 ; wait for bed temperature to be reached
G21           ;metric is good!
G90           ;absolute positioning
G28           ;go home
G92 E0        ;reset extruder
G90 ; use absolute coordinates
G92 E0
M82 ; use absolute distances for extrusion
G1 F2400.000 E-2.70000
G92 E0
G1 Z0.240 F12000.000
G1 X33.070 Y37.610 F12000.000
G1 E2.70000 F2400.000
G1 X33.970 Y37.080 E2.75522 F900.000
G1 X35.000 Y36.900 E2.81050
G1 X105.000 Y36.900 E6.51126
G1 X106.030 Y37.080 E6.56654
G1 X106.930 Y37.610 E6.62176
G1 X107.600 Y38.410 E6.67693
G1 X130.600 Y78.600 E9.12503
G1 X130.900 Y79.320 E9.16627
G1 X131.000 Y80.090 E9.20732
G1 X131.000 Y100.090 E10.26468
G1 X130.850 Y101.020 E10.31449
G1 X130.430 Y101.850 E10.36366
G1 X129.760 Y102.520 E10.41376
G1 X128.930 Y102.940 E10.46294
G1 X128.000 Y103.090 E10.51274
G1 X12.000 Y103.090 E16.64544
G1 X11.070 Y102.940 E16.69524
G1 X10.240 Y102.520 E16.74442
G1 X9.570 Y101.850 E16.79451
G1 X9.150 Y101.020 E16.84369
G1 X9.000 Y100.090 E16.89349
G1 X9.000 Y80.090 E17.95085
G1 X9.100 Y79.320 E17.99190
G1 X9.400 Y78.600 E18.03314
G1 X32.400 Y38.410 E20.48125
G1 X33.022 Y37.668 E20.53245
G1 X33.390 Y37.990 F12000.000
G1 X34.140 Y37.550 E20.57842 F900.000
G1 X35.000 Y37.400 E20.62457
G1 X105.000 Y37.400 E24.32534
G1 X105.860 Y37.550 E24.37149
G1 X106.610 Y37.990 E24.41746
G1 X107.170 Y38.660 E24.46363
G1 X130.170 Y78.850 E26.91173
G1 X130.420 Y79.450 E26.94609
G1 X130.500 Y80.090 E26.98019
G1 X130.500 Y100.090 E28.03755
G1 X130.380 Y100.860 E28.07875
G1 X130.020 Y101.560 E28.12037
G1 X129.470 Y102.110 E28.16149
G1 X128.770 Y102.470 E28.20311
G1 X128.000 Y102.590 E28.24431
G1 X12.000 Y102.590 E34.37700
G1 X11.230 Y102.470 E34.41820
G1 X10.530 Y102.110 E34.45982
G1 X9.980 Y101.560 E34.50094
G1 X9.620 Y100.860 E34.54255
G1 X9.500 Y100.090 E34.58375
G1 X9.500 Y80.090 E35.64112
G1 X9.580 Y79.450 E35.67521
G1 X9.830 Y78.850 E35.70958
G1 X32.830 Y38.660 E38.15768
G1 X33.342 Y38.048 E38.19988
G1 F2400.000 E35.49988
G92 E0
G1 X42.250 Y51.150 F12000.000
G1 E2.70000 F2400.000
G1 X97.750 Y51.150 E5.63418 F900.000
G1 X97.750 Y85.850 E7.46870
G1 X42.250 Y85.850 E10.40288
G1 X42.250 Y51.225 E12.23344
G1 X42.750 Y51.650 F12000.000
G1 X97.250 Y51.650 E15.11475 F720.000
G1 X97.250 Y85.350 E16.89640
G1 X42.750 Y85.350 E19.77771
G1 X42.750 Y51.725 E21.55540
G1 X42.750 Y51.150 F12000.000
G1 X35.750 Y40.650 F12000.000
G1 X104.250 Y40.650 E25.17686 F900.000
G1 X104.250 Y80.850 E27.30216
G1 X127.250 Y80.850 E28.51812
G1 X127.250 Y99.350 E29.49618
G1 X12.750 Y99.350 E35.54958
G1 X12.750 Y80.850 E36.52764
G1 X35.750 Y80.850 E37.74360
G1 X35.750 Y40.725 E39.86494
G1 X35.250 Y40.150 F12000.000
G1 X104.750 Y40.150 E43.53927 F720.000
G1 X104.750 Y80.350 E45.66456
G1 X127.750 Y80.350 E46.88053
G1 X127.750 Y99.850 E47.91146
G1 X12.250 Y99.850 E54.01772
G1 X12.250 Y80.350 E55.04865
G1 X35.250 Y80.350 E56.26461
G1 X35.250 Y40.225 E58.38594
G1 X35.683 Y40.400 F12000.000
G1 X41.898 Y85.273 F12000.000
G1 X36.102 Y79.477 E58.81997 F900.000
G1 X36.102 Y78.769 E58.85749
G1 X41.898 Y84.564 E59.29151
G1 X41.898 Y83.856 E59.32903
G1 X36.102 Y78.061 E59.76306
G1 X36.102 Y77.352 E59.80057
G1 X41.898 Y83.148 E60.23460
G1 X41.898 Y82.439 E60.27211
G1 X36.102 Y76.644 E60.70614
G1 X36.102 Y75.936 E60.74365
G1 X41.898 Y81.731 E61.17768
G1 X41.898 Y81.023 E61.21519
G1 X36.102 Y75.227 E61.64922
G1 X36.102 Y74.519 E61.68673
G1 X41.898 Y80.314 E62.12076
G1 X41.898 Y79.606 E62.15828
G1 X36.102 Y73.811 E62.59230
G1 X36.102 Y73.102 E62.62982
G1 X41.898 Y78.898 E63.06385
G1 X41.898 Y78.189 E63.10136
G1 X36.102 Y72.394 E63.53539
G1 X36.102 Y71.686 E63.57290
G1 X41.898 Y77.481 E64.00693
G1 X41.898 Y76.773 E64.04444
G1 X36.102 Y70.977 E64.47847
G1 X36.102 Y70.269 E64.51598
G1 X41.898 Y76.064 E64.95001
G1 X41.898 Y75.356 E64.98752
G1 X36.102 Y69.561 E65.42155
G1 X36.102 Y68.852 E65.45907
G1 X41.898 Y74.648 E65.89309
G1 X41.898 Y73.939 E65.93061
G1 X36.102 Y68.144 E66.36464
G1 X36.102 Y67.436 E66.40215
G1 X41.898 Y73.231 E66.83618
G1 X41.898 Y72.523 E66.87369
G1 X36.102 Y66.727 E67.30772
G1 X36.102 Y66.019 E67.34523
G1 X41.898 Y71.814 E67.77926
G1 X41.898 Y71.106 E67.81677
G1 X36.102 Y65.311 E68.25080
G1 X36.102 Y64.602 E68.28831
G1 X41.898 Y70.398 E68.72234
G1 X41.898 Y69.689 E68.75986
G1 X36.102 Y63.894 E69.19388
G1 X36.102 Y63.186 E69.23140
G1 X41.898 Y68.981 E69.66543
G1 X41.898 Y68.273 E69.70294
G1 X36.102 Y62.477 E70.13697
G1 X36.102 Y61.769 E70.17448
G1 X41.898 Y67.564 E70.60851
G1 X41.898 Y66.856 E70.64602
G1 X36.102 Y61.061 E71.08005
G1 X36.102 Y60.352 E71.11756
G1 X41.898 Y66.148 E71.55159
G1 X41.898 Y65.439 E71.58910
G1 X36.102 Y59.644 E72.02313
G1 X36.102 Y58.936 E72.06065
G1 X41.898 Y64.731 E72.49467
G1 X41.898 Y64.023 E72.53219
G1 X36.102 Y58.227 E72.96622
G1 X36.102 Y57.519 E73.00373
G1 X41.898 Y63.314 E73.43776
G1 X41.898 Y62.606 E73.47527
G1 X36.102 Y56.811 E73.90930
G1 X36.102 Y56.102 E73.94681
G1 X41.898 Y61.898 E74.38084
G1 X41.898 Y61.189 E74.41835
G1 X36.102 Y55.394 E74.85238
G1 X36.102 Y54.686 E74.88989
G1 X41.898 Y60.481 E75.32392
G1 X41.898 Y59.773 E75.36144
G1 X36.102 Y53.977 E75.79546
G1 X36.102 Y53.269 E75.83298
G1 X41.898 Y59.064 E76.26701
G1 X41.898 Y58.356 E76.30452
G1 X36.102 Y52.561 E76.73855
G1 X36.102 Y51.852 E76.77606
G1 X41.898 Y57.648 E77.21009
G1 X41.898 Y56.939 E77.24760
G1 X36.102 Y51.144 E77.68163
G1 X36.102 Y50.436 E77.71914
G1 X41.898 Y56.231 E78.15317
G1 X41.898 Y55.523 E78.19068
G1 X36.102 Y49.727 E78.62471
G1 X36.102 Y49.019 E78.66223
G1 X41.898 Y54.814 E79.09625
G1 X41.898 Y54.106 E79.13377
G1 X36.102 Y48.311 E79.56780
G1 X36.102 Y47.602 E79.60531
G1 X41.898 Y53.398 E80.03934
G1 X41.898 Y52.689 E80.07685
G1 X36.102 Y46.894 E80.51088
G1 X36.102 Y46.186 E80.54839
G1 X41.898 Y51.981 E80.98242
G1 X41.898 Y51.273 E81.01993
G1 X36.102 Y45.477 E81.45396
G1 X36.102 Y44.769 E81.49147
G1 X42.131 Y50.798 E81.94298
G1 X42.839 Y50.798 E81.98049
G1 X36.102 Y44.061 E82.48505
G1 X36.102 Y43.352 E82.52256
G1 X43.548 Y50.798 E83.08017
G1 X44.256 Y50.798 E83.11768
G1 X36.102 Y42.644 E83.72834
G1 X36.102 Y41.936 E83.76585
G1 X44.964 Y50.798 E84.42957
G1 X45.673 Y50.798 E84.46708
G1 X36.102 Y41.227 E85.18384
G1 X36.586 Y41.002 E85.21208
G1 X46.381 Y50.798 E85.94569
G1 X47.089 Y50.798 E85.98320
G1 X37.294 Y41.002 E86.71682
G1 X38.002 Y41.002 E86.75433
G1 X47.798 Y50.798 E87.48795
G1 X48.506 Y50.798 E87.52546
G1 X38.711 Y41.002 E88.25907
G1 X39.419 Y41.002 E88.29659
G1 X49.214 Y50.798 E89.03020
G1 X49.923 Y50.798 E89.06771
G1 X40.127 Y41.002 E89.80133
G1 X40.836 Y41.002 E89.83884
G1 X50.631 Y50.798 E90.57245
G1 X51.339 Y50.798 E90.60997
G1 X41.544 Y41.002 E91.34358
G1 X42.252 Y41.002 E91.38110
G1 X52.048 Y50.798 E92.11471
G1 X52.756 Y50.798 E92.15222
G1 X42.961 Y41.002 E92.88584
G1 X43.669 Y41.002 E92.92335
G1 X53.464 Y50.798 E93.65696
G1 X54.173 Y50.798 E93.69448
G1 X44.377 Y41.002 E94.42809
G1 X45.086 Y41.002 E94.46560
G1 X54.881 Y50.798 E95.19922
G1 X55.589 Y50.798 E95.23673
G1 X45.794 Y41.002 E95.97035
G1 X46.502 Y41.002 E96.00786
G1 X56.298 Y50.798 E96.74147
G1 X57.006 Y50.798 E96.77899
G1 X47.211 Y41.002 E97.51260
G1 X47.919 Y41.002 E97.55011
G1 X57.714 Y50.798 E98.28373
G1 X58.423 Y50.798 E98.32124
G1 X48.627 Y41.002 E99.05485
G1 X49.336 Y41.002 E99.09237
G1 X59.131 Y50.798 E99.82598
G1 X59.839 Y50.798 E99.86349
G1 X50.044 Y41.002 E100.59711
G1 X50.752 Y41.002 E100.63462
G1 X60.548 Y50.798 E101.36824
G1 X61.256 Y50.798 E101.40575
G1 X51.461 Y41.002 E102.13936
G1 X52.169 Y41.002 E102.17688
G1 X61.964 Y50.798 E102.91049
G1 X62.673 Y50.798 E102.94800
G1 X52.877 Y41.002 E103.68162
G1 X53.586 Y41.002 E103.71913
G1 X63.381 Y50.798 E104.45275
G1 X64.089 Y50.798 E104.49026
G1 X54.294 Y41.002 E105.22387
G1 X55.002 Y41.002 E105.26139
G1 X64.798 Y50.798 E105.99500
G1 X65.506 Y50.798 E106.03251
G1 X55.711 Y41.002 E106.76613
G1 X56.419 Y41.002 E106.80364
G1 X66.214 Y50.798 E107.53725
G1 X66.923 Y50.798 E107.57477
G1 X57.127 Y41.002 E108.30838
G1 X57.836 Y41.002 E108.34589
G1 X67.631 Y50.798 E109.07951
G1 X68.339 Y50.798 E109.11702
G1 X58.544 Y41.002 E109.85064
G1 X59.252 Y41.002 E109.88815
G1 X69.048 Y50.798 E110.62176
G1 X69.756 Y50.798 E110.65928
G1 X59.961 Y41.002 E111.39289
G1 X60.669 Y41.002 E111.43040
G1 X70.464 Y50.798 E112.16402
G1 X71.173 Y50.798 E112.20153
G1 X61.377 Y41.002 E112.93514
G1 X62.086 Y41.002 E112.97266
G1 X71.881 Y50.798 E113.70627
G1 X72.589 Y50.798 E113.74379
G1 X62.794 Y41.002 E114.47740
G1 X63.502 Y41.002 E114.51491
G1 X73.298 Y50.798 E115.24853
G1 X74.006 Y50.798 E115.28604
G1 X64.211 Y41.002 E116.01965
G1 X64.919 Y41.002 E116.05717
G1 X74.714 Y50.798 E116.79078
G1 X75.423 Y50.798 E116.82829
G1 X65.628 Y41.002 E117.56191
G1 X66.336 Y41.002 E117.59942
G1 X76.131 Y50.798 E118.33304
G1 X76.839 Y50.798 E118.37055
G1 X67.044 Y41.002 E119.10416
G1 X67.753 Y41.002 E119.14168
G1 X77.548 Y50.798 E119.87529
G1 X78.256 Y50.798 E119.91280
G1 X68.461 Y41.002 E120.64642
G1 X69.169 Y41.002 E120.68393
G1 X78.964 Y50.798 E121.41754
G1 X79.673 Y50.798 E121.45506
G1 X69.878 Y41.002 E122.18867
G1 X70.586 Y41.002 E122.22619
G1 X80.381 Y50.798 E122.95980
G1 X81.089 Y50.798 E122.99731
G1 X71.294 Y41.002 E123.73093
G1 X72.003 Y41.002 E123.76844
G1 X81.798 Y50.798 E124.50205
G1 X82.506 Y50.798 E124.53957
G1 X72.711 Y41.002 E125.27318
G1 X73.419 Y41.002 E125.31069
G1 X83.214 Y50.798 E126.04431
G1 X83.923 Y50.798 E126.08182
G1 X74.128 Y41.002 E126.81544
G1 X74.836 Y41.002 E126.85295
G1 X84.631 Y50.798 E127.58656
G1 X85.339 Y50.798 E127.62408
G1 X75.544 Y41.002 E128.35769
G1 X76.253 Y41.002 E128.39520
G1 X86.048 Y50.798 E129.12882
G1 X86.756 Y50.798 E129.16633
G1 X76.961 Y41.002 E129.89994
G1 X77.669 Y41.002 E129.93746
G1 X87.464 Y50.798 E130.67107
G1 X88.173 Y50.798 E130.70858
G1 X78.378 Y41.002 E131.44220
G1 X79.086 Y41.002 E131.47971
G1 X88.881 Y50.798 E132.21333
G1 X89.589 Y50.798 E132.25084
G1 X79.794 Y41.002 E132.98445
G1 X80.503 Y41.002 E133.02197
G1 X90.298 Y50.798 E133.75558
G1 X91.006 Y50.798 E133.79309
G1 X81.211 Y41.002 E134.52671
G1 X81.919 Y41.002 E134.56422
G1 X91.714 Y50.798 E135.29784
G1 X92.423 Y50.798 E135.33535
G1 X82.628 Y41.002 E136.06896
G1 X83.336 Y41.002 E136.10648
G1 X93.131 Y50.798 E136.84009
G1 X93.839 Y50.798 E136.87760
G1 X84.044 Y41.002 E137.61122
G1 X84.753 Y41.002 E137.64873
G1 X94.548 Y50.798 E138.38234
G1 X95.256 Y50.798 E138.41986
G1 X85.461 Y41.002 E139.15347
G1 X86.169 Y41.002 E139.19098
G1 X95.964 Y50.798 E139.92460
G1 X96.673 Y50.798 E139.96211
G1 X86.878 Y41.002 E140.69573
G1 X87.586 Y41.002 E140.73324
G1 X97.381 Y50.798 E141.46685
G1 X103.878 Y41.002 F12000.000
G1 X103.898 Y41.022 E141.46835 F900.000
G1 X103.898 Y41.731 E141.50586
G1 X103.169 Y41.002 E141.56041
G1 X102.461 Y41.002 E141.59793
G1 X103.898 Y42.439 E141.70553
G1 X103.898 Y43.147 E141.74304
G1 X101.753 Y41.002 E141.90369
G1 X101.044 Y41.002 E141.94121
G1 X103.898 Y43.856 E142.15491
G1 X103.898 Y44.564 E142.19243
G1 X100.336 Y41.002 E142.45918
G1 X99.628 Y41.002 E142.49670
G1 X103.898 Y45.272 E142.81650
G1 X103.898 Y45.981 E142.85402
G1 X98.919 Y41.002 E143.22688
G1 X98.211 Y41.002 E143.26439
G1 X103.898 Y46.689 E143.69030
G1 X103.898 Y47.397 E143.72781
G1 X97.503 Y41.002 E144.20678
G1 X96.794 Y41.002 E144.24429
G1 X103.898 Y48.106 E144.77631
G1 X103.898 Y48.814 E144.81382
G1 X96.086 Y41.002 E145.39889
G1 X95.378 Y41.002 E145.43640
G1 X103.898 Y49.522 E146.07452
G1 X103.898 Y50.231 E146.11203
G1 X94.669 Y41.002 E146.80320
G1 X93.961 Y41.002 E146.84071
G1 X103.898 Y50.939 E147.58494
G1 X103.898 Y51.647 E147.62245
G1 X93.253 Y41.002 E148.41972
G1 X92.544 Y41.002 E148.45724
G1 X103.898 Y52.356 E149.30756
G1 X103.898 Y53.064 E149.34507
G1 X91.836 Y41.002 E150.24845
G1 X91.128 Y41.002 E150.28596
G1 X103.898 Y53.772 E151.24239
G1 X103.898 Y54.481 E151.27991
G1 X90.419 Y41.002 E152.28939
G1 X89.711 Y41.002 E152.32690
G1 X103.898 Y55.189 E153.38943
G1 X103.898 Y55.897 E153.42694
G1 X89.003 Y41.002 E154.54253
G1 X88.294 Y41.002 E154.58004
G1 X103.898 Y56.606 E155.74868
G1 X103.898 Y57.314 E155.78619
G1 X98.102 Y51.519 E156.22022
G1 X98.102 Y52.227 E156.25773
G1 X103.898 Y58.022 E156.69176
G1 X103.898 Y58.731 E156.72927
G1 X98.102 Y52.936 E157.16330
G1 X98.102 Y53.644 E157.20081
G1 X103.898 Y59.439 E157.63484
G1 X103.898 Y60.147 E157.67236
G1 X98.102 Y54.352 E158.10638
G1 X98.102 Y55.061 E158.14390
G1 X103.898 Y60.856 E158.57792
G1 X103.898 Y61.564 E158.61544
G1 X98.102 Y55.769 E159.04947
G1 X98.102 Y56.477 E159.08698
G1 X103.898 Y62.272 E159.52101
G1 X103.898 Y62.981 E159.55852
G1 X98.102 Y57.186 E159.99255
G1 X98.102 Y57.894 E160.03006
G1 X103.898 Y63.689 E160.46409
G1 X103.898 Y64.397 E160.50160
G1 X98.102 Y58.602 E160.93563
G1 X98.102 Y59.311 E160.97315
G1 X103.898 Y65.106 E161.40717
G1 X103.898 Y65.814 E161.44469
G1 X98.102 Y60.019 E161.87871
G1 X98.102 Y60.727 E161.91623
G1 X103.898 Y66.522 E162.35026
G1 X103.898 Y67.231 E162.38777
G1 X98.102 Y61.436 E162.82180
G1 X98.102 Y62.144 E162.85931
G1 X103.898 Y67.939 E163.29334
G1 X103.898 Y68.647 E163.33085
G1 X98.102 Y62.852 E163.76488
G1 X98.102 Y63.561 E163.80239
G1 X103.898 Y69.356 E164.23642
G1 X103.898 Y70.064 E164.27393
G1 X98.102 Y64.269 E164.70796
G1 X98.102 Y64.977 E164.74548
G1 X103.898 Y70.772 E165.17950
G1 X103.898 Y71.481 E165.21702
G1 X98.102 Y65.686 E165.65105
G1 X98.102 Y66.394 E165.68856
G1 X103.898 Y72.189 E166.12259
G1 X103.898 Y72.897 E166.16010
G1 X98.102 Y67.102 E166.59413
G1 X98.102 Y67.811 E166.63164
G1 X103.898 Y73.606 E167.06567
G1 X103.898 Y74.314 E167.10318
G1 X98.102 Y68.519 E167.53721
G1 X98.102 Y69.227 E167.57472
G1 X103.898 Y75.022 E168.00875
G1 X103.898 Y75.731 E168.04627
G1 X98.102 Y69.936 E168.48029
G1 X98.102 Y70.644 E168.51781
G1 X103.898 Y76.439 E168.95184
G1 X103.898 Y77.148 E168.98935
G1 X98.102 Y71.352 E169.42338
G1 X98.102 Y72.061 E169.46089
G1 X103.898 Y77.856 E169.89492
G1 X103.898 Y78.564 E169.93243
G1 X98.102 Y72.769 E170.36646
G1 X98.102 Y73.477 E170.40397
G1 X103.898 Y79.273 E170.83800
G1 X103.898 Y79.981 E170.87551
G1 X98.102 Y74.186 E171.30954
G1 X98.102 Y74.894 E171.34706
G1 X103.898 Y80.689 E171.78108
G1 X126.898 Y81.731 F12000.000
G1 X126.369 Y81.202 E171.82065 F900.000
G1 X125.661 Y81.202 E171.85817
G1 X126.898 Y82.439 E171.95079
G1 X126.898 Y83.147 E171.98830
G1 X124.953 Y81.202 E172.13398
G1 X124.244 Y81.202 E172.17149
G1 X126.898 Y83.856 E172.37022
G1 X126.898 Y84.564 E172.40773
G1 X123.536 Y81.202 E172.65951
G1 X122.828 Y81.202 E172.69702
G1 X126.898 Y85.272 E173.00185
G1 X126.898 Y85.981 E173.03937
G1 X122.119 Y81.202 E173.39725
G1 X121.411 Y81.202 E173.43476
G1 X126.898 Y86.689 E173.84569
G1 X126.898 Y87.397 E173.88321
G1 X120.703 Y81.202 E174.34719
G1 X119.994 Y81.202 E174.38471
G1 X126.898 Y88.106 E174.90174
G1 X126.898 Y88.814 E174.93926
G1 X119.286 Y81.202 E175.50934
G1 X118.578 Y81.202 E175.54686
G1 X126.898 Y89.522 E176.17000
G1 X126.898 Y90.231 E176.20751
G1 X117.869 Y81.202 E176.88370
G1 X117.161 Y81.202 E176.92122
G1 X126.898 Y90.939 E177.65046
G1 X126.898 Y91.647 E177.68797
G1 X116.453 Y81.202 E178.47027
G1 X115.744 Y81.202 E178.50778
G1 X126.898 Y92.356 E179.34313
