; generated by Slic3r 1.0.1 on 2014-05-26 at 18:51:58

; layer_height = 0.24
; perimeters = 2
; top_solid_layers = 2
; bottom_solid_layers = 2
; fill_density = 0.25
; perimeter_speed = 50
; infill_speed = 50
; travel_speed = 200
; nozzle_diameter = 0.5
; filament_diameter = 1.70
; extrusion_multiplier = 1
; perimeters extrusion width = 0.48mm
; infill extrusion width = 0.49mm
; solid infill extrusion width = 0.46mm
; top infill extrusion width = 0.41mm
; first layer extrusion width = 0.50mm

G21 ; set units to millimeters
M107
M190 S20 ; wait for bed temperature to be reached
G21           ;metric is good!
G90           ;absolute positioning
G28           ;go home
G92 E0        ;reset extruder
G90 ; use absolute coordinates
G92 E0
M82 ; use absolute distances for extrusion
G1 F2400.000 E-2.70000
G92 E0
G1 Z0.240 F12000.000
G1 X25.570 Y50.030 F12000.000
G1 E2.70000 F2400.000
G1 X26.500 Y49.880 E2.74980 F900.000
G1 X113.500 Y49.880 E7.34933
G1 X114.430 Y50.030 E7.39913
G1 X115.260 Y50.450 E7.44831
G1 X115.930 Y51.120 E7.49840
G1 X116.350 Y51.950 E7.54758
G1 X116.500 Y52.880 E7.59738
G1 X116.500 Y87.120 E9.40759
G1 X116.350 Y88.050 E9.45739
G1 X115.930 Y88.880 E9.50657
G1 X115.260 Y89.550 E9.55666
G1 X114.430 Y89.970 E9.60584
G1 X113.500 Y90.120 E9.65564
G1 X26.500 Y90.120 E14.25516
G1 X25.570 Y89.970 E14.30497
G1 X24.740 Y89.550 E14.35415
G1 X24.070 Y88.880 E14.40424
G1 X23.650 Y88.050 E14.45342
G1 X23.500 Y87.120 E14.50322
G1 X23.500 Y52.880 E16.31342
G1 X23.650 Y51.950 E16.36323
G1 X24.070 Y51.120 E16.41241
G1 X24.740 Y50.450 E16.46250
G1 X25.503 Y50.064 E16.50771
G1 X25.730 Y50.500 F12000.000
G1 X26.500 Y50.380 E16.54891 F900.000
G1 X113.500 Y50.380 E21.14844
G1 X114.270 Y50.500 E21.18964
G1 X114.970 Y50.860 E21.23125
G1 X115.520 Y51.410 E21.27237
G1 X115.880 Y52.110 E21.31399
G1 X116.000 Y52.880 E21.35519
G1 X116.000 Y87.120 E23.16539
G1 X115.880 Y87.890 E23.20659
G1 X115.520 Y88.590 E23.24820
G1 X114.970 Y89.140 E23.28933
G1 X114.270 Y89.500 E23.33094
G1 X113.500 Y89.620 E23.37214
G1 X26.500 Y89.620 E27.97166
G1 X25.730 Y89.500 E28.01286
G1 X25.030 Y89.140 E28.05448
G1 X24.480 Y88.590 E28.09560
G1 X24.120 Y87.890 E28.13721
G1 X24.000 Y87.120 E28.17841
G1 X24.000 Y52.880 E29.98862
G1 X24.120 Y52.110 E30.02982
G1 X24.480 Y51.410 E30.07143
G1 X25.030 Y50.860 E30.11255
G1 X25.663 Y50.534 E30.15020
G1 F2400.000 E27.45020
G92 E0
G1 X60.431 Y77.094 F12000.000
G1 E2.70000 F2400.000
G1 X60.836 Y76.612 E2.73326 F360.000
G1 X61.380 Y76.298 E2.76652
G1 X62.000 Y76.188 E2.79979
G1 X62.620 Y76.298 E2.83305
G1 X62.753 Y76.375 E2.84120
G1 X63.164 Y76.612 E2.86631
G1 X63.569 Y77.094 E2.89957
G1 X63.784 Y77.685 E2.93283
G1 X63.784 Y78.315 E2.96610
G1 X63.569 Y78.906 E2.99936
G1 X63.164 Y79.388 E3.03262
G1 X62.620 Y79.702 E3.06588
G1 X62.000 Y79.812 E3.09915
G1 X61.380 Y79.702 E3.13241
G1 X60.836 Y79.388 E3.16567
G1 X60.431 Y78.906 E3.19893
G1 X60.216 Y78.315 E3.23219
G1 X60.216 Y77.685 E3.26545
G1 X60.405 Y77.165 E3.29475
G1 X60.871 Y77.348 F12000.000
G1 X61.162 Y77.001 E3.31869 F360.000
G1 X61.554 Y76.775 E3.34263
G1 X62.000 Y76.696 E3.36657
G1 X62.446 Y76.775 E3.39051
G1 X62.503 Y76.808 E3.39400
G1 X62.838 Y77.001 E3.41445
G1 X63.129 Y77.348 E3.43839
G1 X63.284 Y77.774 E3.46233
G1 X63.284 Y78.226 E3.48627
G1 X63.129 Y78.652 E3.51021
G1 X62.838 Y78.999 E3.53415
G1 X62.446 Y79.225 E3.55809
G1 X62.000 Y79.304 E3.58203
G1 X61.554 Y79.225 E3.60597
G1 X61.162 Y78.999 E3.62991
G1 X60.871 Y78.652 E3.65385
G1 X60.716 Y78.226 E3.67779
G1 X60.716 Y77.774 E3.70173
G1 X60.845 Y77.419 E3.72171
G1 X60.668 Y76.943 F12000.000
G1 X61.380 Y71.702 F12000.000
G1 X60.836 Y71.388 E3.75497 F360.000
G1 X60.431 Y70.906 E3.78823
G1 X60.216 Y70.315 E3.82149
G1 X60.216 Y69.685 E3.85475
G1 X60.269 Y69.541 E3.86290
G1 X60.431 Y69.094 E3.88802
G1 X60.836 Y68.612 E3.92128
G1 X61.380 Y68.298 E3.95454
G1 X62.000 Y68.188 E3.98780
G1 X62.620 Y68.298 E4.02106
G1 X63.164 Y68.612 E4.05433
G1 X63.569 Y69.094 E4.08759
G1 X63.784 Y69.685 E4.12085
G1 X63.784 Y70.315 E4.15411
G1 X63.569 Y70.906 E4.18737
G1 X63.164 Y71.388 E4.22064
G1 X62.620 Y71.702 E4.25390
G1 X62.000 Y71.812 E4.28716
G1 X61.454 Y71.715 E4.31646
G1 X61.554 Y71.225 F12000.000
G1 X61.162 Y70.999 E4.34040 F360.000
G1 X60.871 Y70.652 E4.36434
G1 X60.716 Y70.226 E4.38828
G1 X60.716 Y69.774 E4.41222
G1 X60.739 Y69.712 E4.41571
G1 X60.871 Y69.348 E4.43616
G1 X61.162 Y69.001 E4.46010
G1 X61.554 Y68.775 E4.48404
G1 X62.000 Y68.696 E4.50798
G1 X62.446 Y68.775 E4.53192
G1 X62.838 Y69.001 E4.55586
G1 X63.129 Y69.348 E4.57980
G1 X63.284 Y69.774 E4.60374
G1 X63.284 Y70.226 E4.62768
G1 X63.129 Y70.652 E4.65162
G1 X62.838 Y70.999 E4.67556
G1 X62.446 Y71.225 E4.69950
G1 X62.000 Y71.304 E4.72344
G1 X61.628 Y71.238 E4.74341
G1 X61.191 Y71.496 F12000.000
G1 F2400.000 E2.04341
G92 E0
G1 X62.000 Y63.812 F12000.000
G1 E2.70000 F2400.000
G1 X61.380 Y63.702 E2.73326 F360.000
G1 X60.836 Y63.388 E2.76652
G1 X60.431 Y62.906 E2.79979
G1 X60.207 Y62.290 E2.83442
G1 X59.428 Y62.290 E2.87563
G1 X60.836 Y60.612 E2.99143
G1 X61.380 Y60.298 E3.02469
G1 X62.000 Y60.188 E3.05796
G1 X62.620 Y60.298 E3.09122
G1 X63.164 Y60.612 E3.12448
G1 X63.569 Y61.094 E3.15774
G1 X63.784 Y61.685 E3.19101
G1 X63.784 Y62.315 E3.22427
G1 X63.569 Y62.906 E3.25753
G1 X63.164 Y63.388 E3.29079
G1 X62.620 Y63.702 E3.32405
G1 X62.074 Y63.799 E3.35335
G1 X62.000 Y63.304 F12000.000
G1 X61.554 Y63.225 E3.37729 F360.000
G1 X61.162 Y62.999 E3.40123
G1 X60.871 Y62.652 E3.42517
G1 X60.716 Y62.226 E3.44911
G1 X60.716 Y61.790 E3.47217
G1 X60.500 Y61.790 E3.48360
G1 X61.162 Y61.001 E3.53805
G1 X61.554 Y60.775 E3.56199
G1 X62.000 Y60.696 E3.58593
G1 X62.446 Y60.775 E3.60987
G1 X62.838 Y61.001 E3.63381
G1 X63.129 Y61.348 E3.65775
G1 X63.284 Y61.774 E3.68169
G1 X63.284 Y62.226 E3.70563
G1 X63.129 Y62.652 E3.72957
G1 X62.838 Y62.999 E3.75351
G1 X62.446 Y63.225 E3.77745
G1 X62.074 Y63.291 E3.79743
G1 X61.751 Y63.682 F12000.000
G1 X66.250 Y64.300 F12000.000
G1 X70.058 Y64.300 E3.99875 F900.000
G1 X70.106 Y64.121 E4.00854
G1 X68.836 Y63.388 E4.08610
G1 X68.431 Y62.906 E4.11936
G1 X68.207 Y62.290 E4.15399
G1 X67.428 Y62.290 E4.19520
G1 X68.836 Y60.612 E4.31101
G1 X69.380 Y60.298 E4.34427
G1 X70.000 Y60.188 E4.37753
G1 X70.620 Y60.298 E4.41079
G1 X71.164 Y60.612 E4.44405
G1 X71.569 Y61.094 E4.47732
G1 X71.784 Y61.685 E4.51058
G1 X71.784 Y62.315 E4.54384
G1 X71.569 Y62.906 E4.57710
G1 X71.164 Y63.388 E4.61037
G1 X70.620 Y63.702 E4.64363
G1 X70.447 Y63.733 E4.65290
G1 X70.447 Y64.300 E4.68289
G1 X73.750 Y64.300 E4.85753
G1 X73.750 Y67.109 E5.00603
G1 X74.072 Y67.548 E5.03480
G1 X74.446 Y68.320 E5.08014
G1 X74.676 Y69.146 E5.12549
G1 X74.753 Y70.000 E5.17083
G1 X74.676 Y70.854 E5.21617
G1 X74.446 Y71.680 E5.26151
G1 X74.072 Y72.452 E5.30685
G1 X73.750 Y72.891 E5.33563
G1 X73.750 Y75.700 E5.48413
G1 X66.250 Y75.700 E5.88064
G1 X66.250 Y72.891 E6.02914
G1 X65.928 Y72.452 E6.05791
G1 X65.554 Y71.680 E6.10326
G1 X65.324 Y70.854 E6.14860
G1 X65.247 Y70.000 E6.19394
G1 X65.324 Y69.146 E6.23928
G1 X65.554 Y68.320 E6.28462
G1 X65.928 Y67.548 E6.32996
G1 X66.250 Y67.109 E6.35874
G1 X66.250 Y64.375 E6.50327
G1 X68.871 Y62.652 F12000.000
G1 X68.716 Y62.226 E6.52721 F360.000
G1 X68.716 Y61.790 E6.55027
G1 X68.500 Y61.790 E6.56170
G1 X69.162 Y61.001 E6.61616
G1 X69.219 Y60.968 E6.61964
G1 X69.554 Y60.775 E6.64009
G1 X70.000 Y60.696 E6.66404
G1 X70.446 Y60.775 E6.68797
G1 X70.838 Y61.001 E6.71191
G1 X71.129 Y61.348 E6.73586
G1 X71.284 Y61.774 E6.75979
G1 X71.284 Y62.226 E6.78374
G1 X71.129 Y62.652 E6.80768
G1 X70.838 Y62.999 E6.83162
G1 X70.446 Y63.225 E6.85556
G1 X69.947 Y63.313 E6.88235
G1 X69.947 Y63.452 E6.88969
G1 X69.162 Y62.999 E6.93760
G1 X68.919 Y62.709 E6.95758
G1 X68.419 Y62.626 F12000.000
G1 X66.750 Y64.800 F12000.000
G1 X73.250 Y64.800 E7.30122 F360.000
G1 X73.250 Y67.272 E7.43193
G1 X73.642 Y67.807 E7.46696
G1 X73.976 Y68.497 E7.50751
G1 X74.182 Y69.236 E7.54807
G1 X74.251 Y70.000 E7.58862
G1 X74.182 Y70.764 E7.62917
G1 X73.976 Y71.503 E7.66972
G1 X73.642 Y72.193 E7.71028
G1 X73.250 Y72.728 E7.74531
G1 X73.250 Y75.200 E7.87602
G1 X66.750 Y75.200 E8.21966
G1 X66.750 Y72.728 E8.35038
G1 X66.358 Y72.193 E8.38541
G1 X66.024 Y71.503 E8.42596
G1 X65.818 Y70.764 E8.46651
G1 X65.749 Y70.000 E8.50706
G1 X65.818 Y69.236 E8.54762
G1 X66.024 Y68.497 E8.58817
G1 X66.358 Y67.807 E8.62872
G1 X66.750 Y67.272 E8.66375
G1 X66.750 Y64.875 E8.79050
G1 X66.750 Y64.300 F12000.000
G1 X75.428 Y62.290 F12000.000
G1 X76.836 Y60.612 E8.90630 F360.000
G1 X77.380 Y60.298 E8.93957
G1 X78.000 Y60.188 E8.97283
G1 X78.620 Y60.298 E9.00609
G1 X79.164 Y60.612 E9.03935
G1 X79.569 Y61.094 E9.07261
G1 X79.784 Y61.685 E9.10588
G1 X79.784 Y62.315 E9.13914
G1 X79.569 Y62.906 E9.17240
G1 X79.164 Y63.388 E9.20566
G1 X78.620 Y63.702 E9.23892
G1 X78.000 Y63.812 E9.27219
G1 X77.380 Y63.702 E9.30545
G1 X76.836 Y63.388 E9.33871
G1 X76.431 Y62.906 E9.37197
G1 X76.207 Y62.290 E9.40661
G1 X75.503 Y62.290 E9.44385
G1 X76.500 Y61.790 F12000.000
G1 X77.162 Y61.001 E9.49831 F360.000
G1 X77.554 Y60.775 E9.52225
G1 X78.000 Y60.696 E9.54619
G1 X78.446 Y60.775 E9.57013
G1 X78.838 Y61.001 E9.59407
G1 X78.880 Y61.052 E9.59755
G1 X79.129 Y61.348 E9.61801
G1 X79.284 Y61.774 E9.64195
G1 X79.284 Y62.226 E9.66589
G1 X79.129 Y62.652 E9.68983
G1 X78.838 Y62.999 E9.71377
G1 X78.446 Y63.225 E9.73771
G1 X78.000 Y63.304 E9.76165
G1 X77.554 Y63.225 E9.78559
G1 X77.162 Y62.999 E9.80953
G1 X76.871 Y62.652 E9.83347
G1 X76.716 Y62.226 E9.85741
G1 X76.716 Y61.790 E9.88047
G1 X76.575 Y61.790 E9.88793
G1 X76.053 Y61.566 F12000.000
G1 X77.380 Y68.298 F12000.000
G1 X78.000 Y68.188 E9.92119 F360.000
G1 X78.620 Y68.298 E9.95445
G1 X79.164 Y68.612 E9.98772
G1 X79.569 Y69.094 E10.02098
G1 X79.784 Y69.685 E10.05424
G1 X79.784 Y70.315 E10.08750
G1 X79.569 Y70.906 E10.12076
G1 X79.164 Y71.388 E10.15403
G1 X78.620 Y71.702 E10.18729
G1 X78.000 Y71.812 E10.22055
G1 X77.380 Y71.702 E10.25381
G1 X76.836 Y71.388 E10.28707
G1 X76.431 Y70.906 E10.32034
G1 X76.216 Y70.315 E10.35360
G1 X76.216 Y69.685 E10.38686
G1 X76.431 Y69.094 E10.42012
G1 X76.836 Y68.612 E10.45338
G1 X77.315 Y68.335 E10.48268
G1 X77.554 Y68.775 F12000.000
G1 X78.000 Y68.696 E10.50662 F360.000
G1 X78.446 Y68.775 E10.53056
G1 X78.503 Y68.808 E10.53405
G1 X78.838 Y69.001 E10.55450
G1 X79.129 Y69.348 E10.57844
G1 X79.284 Y69.774 E10.60238
G1 X79.284 Y70.226 E10.62632
G1 X79.129 Y70.652 E10.65026
G1 X78.838 Y70.999 E10.67420
G1 X78.446 Y71.225 E10.69814
G1 X78.000 Y71.304 E10.72208
G1 X77.554 Y71.225 E10.74602
G1 X77.162 Y70.999 E10.76996
G1 X76.871 Y70.652 E10.79390
G1 X76.716 Y70.226 E10.81784
G1 X76.716 Y69.774 E10.84178
G1 X76.871 Y69.348 E10.86572
G1 X77.162 Y69.001 E10.88966
G1 X77.489 Y68.812 E10.90963
G1 X77.658 Y68.334 F12000.000
G1 F2400.000 E8.20963
G92 E0
G1 X78.000 Y76.188 F12000.000
G1 E2.70000 F2400.000
G1 X78.620 Y76.298 E2.73326 F360.000
G1 X79.164 Y76.612 E2.76652
G1 X79.569 Y77.094 E2.79979
G1 X79.784 Y77.685 E2.83305
G1 X79.784 Y78.315 E2.86631
G1 X79.569 Y78.906 E2.89957
G1 X79.164 Y79.388 E2.93284
G1 X78.620 Y79.702 E2.96610
G1 X78.000 Y79.812 E2.99936
G1 X77.380 Y79.702 E3.03262
G1 X76.836 Y79.388 E3.06588
G1 X76.431 Y78.906 E3.09915
G1 X76.216 Y78.315 E3.13241
G1 X76.216 Y77.685 E3.16567
G1 X76.431 Y77.094 E3.19893
G1 X76.836 Y76.612 E3.23219
G1 X77.380 Y76.298 E3.26545
G1 X77.926 Y76.201 E3.29475
G1 X78.000 Y76.696 F12000.000
G1 X78.446 Y76.775 E3.31869 F360.000
G1 X78.838 Y77.001 E3.34263
G1 X79.129 Y77.348 E3.36657
G1 X79.284 Y77.774 E3.39051
G1 X79.284 Y78.226 E3.41445
G1 X79.129 Y78.652 E3.43839
G1 X78.838 Y78.999 E3.46233
G1 X78.446 Y79.225 E3.48627
G1 X78.000 Y79.304 E3.51021
G1 X77.554 Y79.225 E3.53415
G1 X77.162 Y78.999 E3.55809
G1 X76.871 Y78.652 E3.58203
G1 X76.716 Y78.226 E3.60597
G1 X76.716 Y77.774 E3.62991
G1 X76.871 Y77.348 E3.65385
G1 X77.162 Y77.001 E3.67779
G1 X77.554 Y76.775 E3.70173
G1 X77.926 Y76.709 E3.72171
G1 X78.249 Y76.318 F12000.000
G1 X71.784 Y77.685 F12000.000
G1 X71.784 Y78.315 E3.75497 F360.000
G1 X71.569 Y78.906 E3.78823
G1 X71.164 Y79.388 E3.82149
G1 X70.620 Y79.702 E3.85476
G1 X70.447 Y79.733 E3.86403
G1 X70.447 Y80.318 E3.89497
G1 X68.836 Y79.388 E3.99333
G1 X68.431 Y78.906 E4.02659
G1 X68.216 Y78.315 E4.05986
G1 X68.216 Y77.685 E4.09312
G1 X68.431 Y77.094 E4.12638
G1 X68.836 Y76.612 E4.15964
G1 X69.380 Y76.298 E4.19290
G1 X70.000 Y76.188 E4.22617
G1 X70.620 Y76.298 E4.25943
G1 X71.164 Y76.612 E4.29269
G1 X71.569 Y77.094 E4.32595
G1 X71.758 Y77.615 E4.35525
G1 X71.284 Y77.774 F12000.000
G1 X71.284 Y78.226 E4.37919 F360.000
G1 X71.129 Y78.652 E4.40313
G1 X70.838 Y78.999 E4.42707
G1 X70.446 Y79.225 E4.45101
G1 X69.947 Y79.313 E4.47781
G1 X69.947 Y79.452 E4.48514
G1 X69.162 Y78.999 E4.53305
G1 X68.871 Y78.652 E4.55699
G1 X68.716 Y78.226 E4.58093
G1 X68.716 Y77.774 E4.60487
G1 X68.871 Y77.348 E4.62881
G1 X69.162 Y77.001 E4.65275
G1 X69.554 Y76.775 E4.67669
G1 X70.000 Y76.696 E4.70063
G1 X70.446 Y76.775 E4.72457
G1 X70.838 Y77.001 E4.74851
G1 X71.129 Y77.348 E4.77245
G1 X71.258 Y77.703 E4.79243
G1 X71.700 Y77.953 F12000.000
G1 X74.250 Y85.250 F12000.000
G1 X65.750 Y85.250 E5.24181 F900.000
G1 X65.750 Y86.370 E5.30102
G1 X58.250 Y86.370 E5.69753
G1 X58.250 Y53.630 E7.42843
G1 X65.750 Y53.630 E7.82494
G1 X65.750 Y54.750 E7.88415
G1 X74.250 Y54.750 E8.33353
G1 X74.250 Y53.630 E8.39275
G1 X81.750 Y53.630 E8.78926
G1 X81.750 Y86.370 E10.52016
G1 X74.250 Y86.370 E10.91667
G1 X74.250 Y85.325 E10.97191
G1 X73.750 Y85.750 F12000.000
G1 X66.250 Y85.750 E11.36843 F720.000
G1 X66.250 Y86.870 E11.42764
G1 X57.750 Y86.870 E11.87702
G1 X57.750 Y53.130 E13.66079
G1 X66.250 Y53.130 E14.11016
G1 X66.250 Y54.250 E14.16938
G1 X73.750 Y54.250 E14.56589
G1 X73.750 Y53.130 E14.62510
G1 X82.250 Y53.130 E15.07448
G1 X82.250 Y86.870 E16.85825
G1 X73.750 Y86.870 E17.30763
G1 X73.750 Y85.825 E17.36287
G1 X73.750 Y85.250 F12000.000
G1 X74.988 Y86.018 F12000.000
G1 X74.602 Y85.632 E17.39190 F900.000
G1 X74.602 Y84.920 E17.42976
G1 X75.700 Y86.018 E17.51233
G1 X81.398 Y83.888 F12000.000
G1 X77.610 Y80.101 E17.79727 F900.000
G1 X78.332 Y80.111 E17.83567
G1 X81.398 Y83.176 E18.06631
G1 X81.398 Y82.465 E18.10416
G1 X78.887 Y79.955 E18.29302
G1 X79.338 Y79.694 E18.32073
G1 X81.398 Y81.753 E18.47565
G1 X81.398 Y81.042 E18.51350
G1 X79.679 Y79.323 E18.64281
G1 X79.952 Y78.884 E18.67030
G1 X81.398 Y80.330 E18.77907
G1 X81.398 Y79.619 E18.81693
G1 X80.137 Y78.358 E18.91180
G1 X80.137 Y77.646 E18.94966
G1 X81.398 Y78.907 E19.04453
G1 X81.398 Y78.196 E19.08239
G1 X74.827 Y71.625 E19.57672
G1 X74.620 Y72.130 E19.60572
G1 X78.390 Y75.899 E19.88935
G1 X77.668 Y75.889 E19.92775
G1 X74.388 Y72.609 E20.17456
G1 X74.102 Y73.035 E20.20185
G1 X77.113 Y76.045 E20.42832
G1 X76.662 Y76.306 E20.45604
G1 X74.102 Y73.747 E20.64857
G1 X74.102 Y74.458 E20.68643
G1 X76.321 Y76.677 E20.85335
G1 X76.048 Y77.116 E20.88084
G1 X74.102 Y75.170 E21.02723
G1 X74.102 Y75.881 E21.06509
G1 X75.863 Y77.642 E21.19758
G1 X75.863 Y78.354 E21.23544
G1 X73.562 Y76.052 E21.40859
G1 X72.850 Y76.052 E21.44645
G1 X81.398 Y84.600 E22.08951
G1 X81.398 Y85.311 E22.12737
G1 X72.139 Y76.052 E22.82396
G1 X71.427 Y76.052 E22.86182
G1 X81.385 Y86.010 E23.61100
G1 X80.681 Y86.018 E23.64847
G1 X72.051 Y77.387 E24.29778
G1 X72.137 Y78.185 E24.34045
G1 X79.969 Y86.018 E24.92976
G1 X79.258 Y86.018 E24.96762
G1 X71.998 Y78.758 E25.51383
G1 X71.758 Y79.229 E25.54198
G1 X78.546 Y86.018 E26.05272
G1 X77.835 Y86.018 E26.09058
G1 X71.433 Y79.616 E26.57221
G1 X70.997 Y79.891 E26.59965
G1 X77.123 Y86.018 E27.06056
G1 X76.411 Y86.018 E27.09842
G1 X70.799 Y80.405 E27.52067
G1 X70.354 Y80.671 E27.54828
