; generated by Slic3r 1.0.0 on 2014-04-30 at 13:41:46

; layer_height = 0.24
; perimeters = 2
; top_solid_layers = 2
; bottom_solid_layers = 2
; fill_density = 0.25
; perimeter_speed = 50
; infill_speed = 50
; travel_speed = 200
; nozzle_diameter = 0.5
; filament_diameter = 1.70
; extrusion_multiplier = 1
; perimeters extrusion width = 0.48mm
; infill extrusion width = 0.49mm
; solid infill extrusion width = 0.46mm
; top infill extrusion width = 0.41mm
; first layer extrusion width = 0.50mm

G21 ; set units to millimeters
M107
M190 S30 ; wait for bed temperature to be reached
G21           ;metric is good!
G90           ;absolute positioning
G28           ;go home
G92 E0        ;reset extruder
G90 ; use absolute coordinates
G92 E0
M82 ; use absolute distances for extrusion
G1 F2400.000 E-2.70000
G92 E0
G1 Z0.240 F12000.000
G1 X40.620 Y38.590 F12000.000
G1 E2.70000 F2400.000
G1 X42.510 Y36.920 E2.83334 F900.000
G1 X44.640 Y35.260 E2.97611
G1 X47.030 Y33.640 E3.12875
G1 X49.190 Y32.360 E3.26149
G1 X51.770 Y31.050 E3.41447
G1 X54.280 Y29.970 E3.55893
G1 X56.610 Y29.130 E3.68987
G1 X59.390 Y28.320 E3.84296
G1 X61.840 Y27.770 E3.97571
G1 X64.700 Y27.320 E4.12877
G1 X67.430 Y27.070 E4.27370
G1 X70.080 Y27.000 E4.41385
G1 X72.630 Y27.080 E4.54873
G1 X75.290 Y27.320 E4.68993
G1 X78.160 Y27.770 E4.84352
G1 X80.710 Y28.350 E4.98178
G1 X83.380 Y29.130 E5.12883
G1 X85.740 Y29.980 E5.26145
G1 X88.390 Y31.130 E5.41417
G1 X90.800 Y32.360 E5.55722
G1 X92.960 Y33.640 E5.68996
G1 X95.350 Y35.260 E5.84261
G1 X97.480 Y36.920 E5.98537
G1 X99.370 Y38.590 E6.11871
G1 X101.400 Y40.620 E6.27049
G1 X103.070 Y42.510 E6.40383
G1 X104.730 Y44.640 E6.54660
G1 X106.350 Y47.030 E6.69924
G1 X107.630 Y49.190 E6.83198
G1 X108.860 Y51.600 E6.97503
G1 X110.010 Y54.250 E7.12775
G1 X110.920 Y56.800 E7.27089
G1 X111.670 Y59.390 E7.41345
G1 X112.220 Y61.840 E7.54620
G1 X112.670 Y64.690 E7.69874
G1 X112.910 Y67.190 E7.83152
G1 X112.990 Y69.910 E7.97538
G1 X112.920 Y72.590 E8.11711
G1 X112.670 Y75.300 E8.26100
G1 X112.220 Y78.150 E8.41354
G1 X111.670 Y80.600 E8.54629
G1 X110.860 Y83.380 E8.69937
G1 X110.010 Y85.740 E8.83199
G1 X108.940 Y88.220 E8.97478
G1 X107.630 Y90.800 E9.12776
G1 X106.350 Y92.960 E9.26050
G1 X104.730 Y95.350 E9.41314
G1 X103.070 Y97.480 E9.55591
G1 X101.400 Y99.370 E9.68925
G1 X99.370 Y101.400 E9.84103
G1 X97.480 Y103.070 E9.97436
G1 X95.350 Y104.730 E10.11713
G1 X92.960 Y106.350 E10.26978
G1 X90.800 Y107.630 E10.40252
G1 X88.220 Y108.940 E10.55549
G1 X85.740 Y110.010 E10.69829
G1 X83.380 Y110.860 E10.83090
G1 X80.600 Y111.670 E10.98399
G1 X78.150 Y112.220 E11.11674
G1 X75.300 Y112.670 E11.26928
G1 X72.800 Y112.910 E11.40206
G1 X70.090 Y113.000 E11.54541
G1 X67.380 Y112.920 E11.68874
G1 X64.690 Y112.670 E11.83157
G1 X61.840 Y112.220 E11.98411
G1 X59.390 Y111.670 E12.11686
G1 X56.610 Y110.860 E12.26995
G1 X54.250 Y110.010 E12.40256
G1 X51.590 Y108.860 E12.55577
G1 X49.180 Y107.620 E12.69906
G1 X47.040 Y106.360 E12.83035
G1 X44.630 Y104.730 E12.98417
G1 X42.630 Y103.170 E13.11827
G1 X40.630 Y101.400 E13.25946
G1 X38.590 Y99.370 E13.41162
G1 X36.920 Y97.480 E13.54495
G1 X35.260 Y95.350 E13.68772
G1 X33.740 Y93.110 E13.83084
G1 X32.260 Y90.610 E13.98443
G1 X31.130 Y88.400 E14.11566
G1 X29.980 Y85.740 E14.26887
G1 X29.070 Y83.190 E14.41201
G1 X28.320 Y80.600 E14.55456
G1 X27.770 Y78.150 E14.68731
G1 X27.320 Y75.270 E14.84142
G1 X27.080 Y72.800 E14.97262
G1 X27.000 Y70.070 E15.11701
G1 X27.070 Y67.400 E15.25822
G1 X27.320 Y64.690 E15.40210
G1 X27.770 Y61.840 E15.55464
G1 X28.320 Y59.390 E15.68739
G1 X29.130 Y56.610 E15.84047
G1 X29.980 Y54.250 E15.97309
G1 X31.050 Y51.770 E16.11588
G1 X32.360 Y49.190 E16.26886
G1 X33.640 Y47.030 E16.40160
G1 X35.260 Y44.640 E16.55424
G1 X36.920 Y42.510 E16.69701
G1 X38.590 Y40.620 E16.83035
G1 X40.567 Y38.643 E16.97816
G1 F2400.000 E14.27816
G92 E0
G1 X40.950 Y38.970 F12000.000
G1 E2.70000 F2400.000
G1 X42.840 Y37.300 E2.83334 F900.000
G1 X44.950 Y35.660 E2.97462
G1 X47.160 Y34.150 E3.11613
G1 X49.590 Y32.710 E3.26546
G1 X51.970 Y31.500 E3.40662
G1 X54.310 Y30.490 E3.54136
G1 X56.940 Y29.550 E3.68902
G1 X59.500 Y28.810 E3.82990
G1 X61.950 Y28.260 E3.96265
G1 X64.740 Y27.820 E4.11198
G1 X67.270 Y27.580 E4.24633
G1 X70.070 Y27.500 E4.39442
G1 X72.620 Y27.580 E4.52930
G1 X75.240 Y27.820 E4.66840
G1 X78.040 Y28.260 E4.81824
G1 X80.590 Y28.840 E4.95650
G1 X83.050 Y29.550 E5.09187
G1 X85.710 Y30.510 E5.24137
G1 X88.160 Y31.570 E5.38250
G1 X90.400 Y32.710 E5.51538
G1 X92.830 Y34.150 E5.66471
G1 X94.910 Y35.560 E5.79756
G1 X97.150 Y37.300 E5.94752
G1 X99.150 Y39.070 E6.08872
G1 X100.920 Y40.840 E6.22105
G1 X102.690 Y42.840 E6.36225
G1 X104.430 Y45.080 E6.51221
G1 X105.840 Y47.160 E6.64506
G1 X107.280 Y49.590 E6.79439
G1 X108.420 Y51.830 E6.92727
G1 X109.540 Y54.420 E7.07645
G1 X110.390 Y56.780 E7.20907
G1 X111.140 Y59.360 E7.35111
G1 X111.760 Y62.110 E7.50015
G1 X112.170 Y64.740 E7.64087
G1 X112.410 Y67.240 E7.77365
G1 X112.490 Y69.920 E7.91540
G1 X112.420 Y72.580 E8.05608
G1 X112.150 Y75.400 E8.20585
G1 X111.730 Y78.040 E8.34717
G1 X111.180 Y80.490 E8.47992
G1 X110.390 Y83.210 E8.62967
G1 X109.540 Y85.570 E8.76228
G1 X108.420 Y88.160 E8.91146
G1 X107.200 Y90.540 E9.05286
G1 X105.840 Y92.830 E9.19367
G1 X104.430 Y94.910 E9.32652
G1 X102.690 Y97.150 E9.47647
G1 X100.920 Y99.150 E9.61767
G1 X99.150 Y100.920 E9.75001
G1 X97.150 Y102.690 E9.89120
G1 X94.910 Y104.430 E10.04116
G1 X92.830 Y105.840 E10.17401
G1 X90.400 Y107.280 E10.32334
G1 X88.160 Y108.420 E10.45622
G1 X85.570 Y109.540 E10.60540
G1 X83.050 Y110.440 E10.74687
G1 X80.490 Y111.180 E10.88776
G1 X78.040 Y111.730 E11.02051
G1 X75.250 Y112.170 E11.16983
G1 X72.750 Y112.410 E11.30261
G1 X69.910 Y112.500 E11.45283
G1 X67.240 Y112.410 E11.59407
G1 X64.740 Y112.170 E11.72685
G1 X61.950 Y111.730 E11.87617
G1 X59.500 Y111.180 E12.00892
G1 X56.940 Y110.440 E12.14981
G1 X54.280 Y109.480 E12.29931
G1 X51.820 Y108.410 E12.44114
G1 X49.430 Y107.180 E12.58324
G1 X47.160 Y105.840 E12.72260
G1 X45.080 Y104.430 E12.85545
G1 X42.940 Y102.770 E12.99864
G1 X40.840 Y100.920 E13.14660
G1 X39.070 Y99.150 E13.27894
G1 X37.300 Y97.150 E13.42013
G1 X35.560 Y94.910 E13.57009
G1 X34.150 Y92.830 E13.70294
G1 X32.700 Y90.380 E13.85345
G1 X31.570 Y88.170 E13.98468
G1 X30.450 Y85.570 E14.13435
G1 X29.600 Y83.210 E14.26696
G1 X28.850 Y80.630 E14.40901
G1 X28.230 Y77.870 E14.55856
G1 X27.820 Y75.220 E14.70033
G1 X27.580 Y72.750 E14.83153
G1 X27.500 Y70.060 E14.97380
G1 X27.570 Y67.410 E15.11395
G1 X27.840 Y64.590 E15.26372
G1 X28.260 Y61.950 E15.40505
G1 X28.810 Y59.500 E15.53780
G1 X29.600 Y56.780 E15.68754
G1 X30.450 Y54.420 E15.82016
G1 X31.570 Y51.830 E15.96934
G1 X32.790 Y49.450 E16.11073
G1 X34.150 Y47.160 E16.25154
G1 X35.560 Y45.080 E16.38439
G1 X37.300 Y42.840 E16.53435
G1 X39.070 Y40.840 E16.67555
G1 X40.895 Y39.020 E16.81177
G1 F2400.000 E14.11177
G92 E0
G1 X85.275 Y64.614 F12000.000
G1 E2.70000 F2400.000
G1 X85.973 Y63.405 E2.77378 F900.000
G1 X86.806 Y62.286 E2.84757
G1 X87.764 Y61.271 E2.92135
G1 X87.918 Y61.142 E2.93196
G1 X88.833 Y60.374 E2.99514
G1 X89.999 Y59.607 E3.06892
G1 X91.247 Y58.980 E3.14270
G1 X92.558 Y58.503 E3.21649
G1 X93.916 Y58.181 E3.29027
G1 X94.115 Y58.158 E3.30088
G1 X95.302 Y58.019 E3.36406
G1 X96.698 Y58.019 E3.43784
G1 X98.084 Y58.181 E3.51162
G1 X99.442 Y58.503 E3.58541
G1 X100.753 Y58.980 E3.65919
G1 X100.933 Y59.070 E3.66980
G1 X102.001 Y59.607 E3.73298
G1 X103.167 Y60.374 E3.80676
G1 X104.236 Y61.271 E3.88054
G1 X105.194 Y62.286 E3.95433
G1 X106.027 Y63.405 E4.02811
G1 X106.725 Y64.614 E4.10190
G1 X107.278 Y65.895 E4.17568
G1 X107.678 Y67.232 E4.24946
G1 X107.920 Y68.607 E4.32325
G1 X108.001 Y70.000 E4.39703
G1 X107.920 Y71.393 E4.47082
G1 X107.678 Y72.768 E4.54460
G1 X107.278 Y74.105 E4.61838
G1 X106.725 Y75.386 E4.69217
G1 X106.027 Y76.595 E4.76595
G1 X105.194 Y77.714 E4.83973
G1 X104.236 Y78.729 E4.91352
G1 X103.167 Y79.626 E4.98730
G1 X102.001 Y80.393 E5.06109
G1 X100.753 Y81.020 E5.13487
G1 X99.442 Y81.497 E5.20865
G1 X98.084 Y81.819 E5.28244
G1 X96.698 Y81.981 E5.35622
G1 X95.302 Y81.981 E5.43001
G1 X93.916 Y81.819 E5.50379
G1 X92.558 Y81.497 E5.57757
G1 X91.247 Y81.020 E5.65136
G1 X89.999 Y80.393 E5.72514
G1 X88.833 Y79.626 E5.79893
G1 X87.764 Y78.729 E5.87271
G1 X86.806 Y77.714 E5.94649
G1 X85.973 Y76.595 E6.02028
G1 X85.275 Y75.386 E6.09406
G1 X84.714 Y74.085 E6.16897
G1 X84.322 Y72.768 E6.24164
G1 X84.080 Y71.393 E6.31542
G1 X83.999 Y70.000 E6.38921
G1 X84.080 Y68.607 E6.46299
G1 X84.322 Y67.232 E6.53677
G1 X84.722 Y65.895 E6.61056
G1 X85.246 Y64.683 E6.68038
G1 X85.723 Y64.839 F12000.000
G1 X86.392 Y63.680 E6.75108 F720.000
G1 X86.494 Y63.543 E6.76015
G1 X87.190 Y62.608 E6.82179
G1 X88.108 Y61.635 E6.89249
G1 X89.132 Y60.775 E6.96320
G1 X90.250 Y60.040 E7.03390
G1 X91.445 Y59.440 E7.10460
G1 X92.702 Y58.983 E7.17531
G1 X94.003 Y58.674 E7.24601
G1 X94.173 Y58.654 E7.25508
G1 X95.331 Y58.519 E7.31672
G1 X96.669 Y58.519 E7.38742
G1 X97.997 Y58.674 E7.45813
G1 X99.298 Y58.983 E7.52883
G1 X100.555 Y59.440 E7.59954
G1 X100.708 Y59.517 E7.60861
G1 X101.750 Y60.040 E7.67024
G1 X102.868 Y60.775 E7.74095
G1 X103.892 Y61.635 E7.81165
G1 X104.810 Y62.608 E7.88236
G1 X105.608 Y63.680 E7.95306
G1 X106.277 Y64.839 E8.02377
G1 X106.807 Y66.067 E8.09447
G1 X107.190 Y67.348 E8.16518
G1 X107.423 Y68.665 E8.23588
G1 X107.500 Y70.000 E8.30658
G1 X107.423 Y71.335 E8.37729
G1 X107.190 Y72.652 E8.44799
G1 X106.807 Y73.933 E8.51870
G1 X106.277 Y75.161 E8.58940
G1 X105.608 Y76.320 E8.66011
G1 X104.810 Y77.392 E8.73081
G1 X103.892 Y78.365 E8.80152
G1 X102.868 Y79.225 E8.87222
G1 X101.750 Y79.960 E8.94293
G1 X100.555 Y80.560 E9.01363
G1 X99.298 Y81.017 E9.08434
G1 X97.997 Y81.326 E9.15504
G1 X96.669 Y81.481 E9.22575
G1 X95.331 Y81.481 E9.29645
G1 X94.003 Y81.326 E9.36716
G1 X92.702 Y81.017 E9.43786
G1 X91.445 Y80.560 E9.50857
G1 X90.250 Y79.960 E9.57927
G1 X89.132 Y79.225 E9.64997
G1 X88.108 Y78.365 E9.72068
G1 X87.190 Y77.392 E9.79138
G1 X86.392 Y76.320 E9.86209
G1 X85.723 Y75.161 E9.93279
G1 X85.193 Y73.933 E10.00350
G1 X84.810 Y72.652 E10.07420
G1 X84.577 Y71.335 E10.14491
G1 X84.500 Y70.000 E10.21561
G1 X84.577 Y68.665 E10.28632
G1 X84.810 Y67.348 E10.35702
G1 X85.193 Y66.067 E10.42773
G1 X85.693 Y64.907 E10.49447
G1 X85.456 Y64.416 F12000.000
G1 X84.528 Y63.372 F12000.000
G1 X83.898 Y64.609 E10.56782 F900.000
G1 X83.400 Y65.904 E10.64117
G1 X83.041 Y67.244 E10.71453
G1 X82.824 Y68.614 E10.78788
G1 X82.751 Y70.000 E10.86124
G1 X82.824 Y71.386 E10.93459
G1 X83.041 Y72.756 E11.00795
G1 X83.400 Y74.096 E11.08130
G1 X83.898 Y75.391 E11.15465
G1 X84.528 Y76.628 E11.22801
G1 X85.284 Y77.791 E11.30136
G1 X86.157 Y78.869 E11.37472
G1 X87.139 Y79.850 E11.44807
G1 X88.218 Y80.722 E11.52142
G1 X89.382 Y81.477 E11.59478
G1 X90.618 Y82.107 E11.66813
G1 X91.914 Y82.603 E11.74149
G1 X93.254 Y82.961 E11.81484
G1 X94.625 Y83.177 E11.88820
G1 X96.011 Y83.249 E11.96155
G1 X97.396 Y83.175 E12.03490
G1 X100.271 Y82.717 E12.18882
G1 X98.547 Y86.052 E12.38728
G1 X97.352 Y88.012 E12.50866
G1 X96.023 Y89.884 E12.63004
G1 X94.566 Y91.659 E12.75142
G1 X92.988 Y93.327 E12.87280
G1 X91.298 Y94.880 E12.99417
G1 X89.502 Y96.311 E13.11555
G1 X87.611 Y97.612 E13.23693
G1 X85.633 Y98.778 E13.35831
G1 X83.579 Y99.803 E13.47969
G1 X81.457 Y100.681 E13.60106
G1 X79.280 Y101.408 E13.72244
G1 X77.056 Y101.981 E13.84382
G1 X74.799 Y102.397 E13.96520
G1 X72.517 Y102.654 E14.08658
G1 X70.130 Y102.747 E14.21289
G1 X67.928 Y102.685 E14.32932
G1 X65.644 Y102.459 E14.45070
G1 X63.380 Y102.074 E14.57208
G1 X61.149 Y101.532 E14.69345
G1 X58.962 Y100.834 E14.81483
G1 X56.829 Y99.985 E14.93621
G1 X54.761 Y98.989 E15.05759
G1 X52.767 Y97.850 E15.17897
G1 X50.858 Y96.574 E15.30034
G1 X48.974 Y95.105 E15.42666
G1 X47.332 Y93.638 E15.54309
G1 X45.731 Y91.992 E15.66447
G1 X44.250 Y90.237 E15.78584
G1 X42.896 Y88.384 E15.90722
G1 X41.675 Y86.440 E16.02860
G1 X40.592 Y84.415 E16.14998
G1 X39.655 Y82.319 E16.27136
G1 X38.866 Y80.163 E16.39273
G1 X38.231 Y77.957 E16.51411
G1 X37.751 Y75.711 E16.63549
G1 X37.431 Y73.438 E16.75687
G1 X37.270 Y71.148 E16.87825
G1 X37.270 Y68.852 E16.99962
G1 X37.431 Y66.562 E17.12100
G1 X37.751 Y64.289 E17.24238
G1 X38.231 Y62.043 E17.36376
G1 X38.866 Y59.837 E17.48514
G1 X39.274 Y58.722 E17.54791
G1 X39.189 Y58.722 E17.55240
G1 X40.592 Y55.585 E17.73408
G1 X41.675 Y53.560 E17.85546
G1 X42.951 Y51.541 E17.98178
G1 X44.250 Y49.763 E18.09821
G1 X45.731 Y48.008 E18.21958
G1 X47.332 Y46.362 E18.34096
G1 X49.044 Y44.832 E18.46234
G1 X50.858 Y43.426 E18.58372
G1 X52.767 Y42.150 E18.70510
G1 X54.761 Y41.011 E18.82647
G1 X56.829 Y40.015 E18.94785
G1 X58.962 Y39.166 E19.06923
G1 X61.149 Y38.468 E19.19061
G1 X63.380 Y37.926 E19.31199
G1 X65.644 Y37.541 E19.43336
G1 X67.928 Y37.315 E19.55474
G1 X70.223 Y37.250 E19.67612
G1 X72.517 Y37.346 E19.79750
G1 X74.799 Y37.603 E19.91888
G1 X77.056 Y38.019 E20.04025
G1 X79.280 Y38.592 E20.16163
G1 X81.457 Y39.319 E20.28301
G1 X83.579 Y40.197 E20.40439
G1 X85.633 Y41.222 E20.52577
G1 X87.611 Y42.388 E20.64714
G1 X89.502 Y43.689 E20.76852
G1 X91.298 Y45.120 E20.88990
G1 X93.053 Y46.741 E21.01621
G1 X94.566 Y48.341 E21.13264
G1 X96.023 Y50.115 E21.25401
G1 X97.352 Y51.988 E21.37540
G1 X98.547 Y53.948 E21.49678
G1 X100.271 Y57.283 E21.69525
G1 X97.396 Y56.825 E21.84916
G1 X96.011 Y56.751 E21.92251
G1 X94.625 Y56.823 E21.99587
G1 X93.254 Y57.039 E22.06922
G1 X91.914 Y57.397 E22.14258
G1 X90.618 Y57.893 E22.21593
G1 X89.382 Y58.523 E22.28928
G1 X88.218 Y59.278 E22.36264
G1 X87.139 Y60.150 E22.43599
G1 X86.157 Y61.131 E22.50935
G1 X85.284 Y62.209 E22.58270
G1 X84.569 Y63.310 E22.65209
G1 X84.111 Y63.096 F12000.000
G1 X83.440 Y64.405 E22.72984 F720.000
G1 X82.924 Y65.749 E22.80597
G1 X82.551 Y67.140 E22.88209
G1 X82.326 Y68.562 E22.95822
G1 X82.250 Y70.000 E23.03434
G1 X82.326 Y71.438 E23.11047
G1 X82.551 Y72.860 E23.18660
G1 X82.924 Y74.251 E23.26272
G1 X83.440 Y75.595 E23.33885
G1 X84.094 Y76.878 E23.41498
G1 X84.879 Y78.085 E23.49110
G1 X85.785 Y79.204 E23.56723
G1 X86.804 Y80.222 E23.64335
G1 X87.923 Y81.128 E23.71948
G1 X89.131 Y81.911 E23.79561
G1 X90.415 Y82.564 E23.87173
G1 X91.759 Y83.079 E23.94786
G1 X93.151 Y83.451 E24.02399
G1 X94.573 Y83.675 E24.10011
G1 X96.011 Y83.750 E24.17624
G1 X97.449 Y83.673 E24.25237
G1 X99.372 Y83.367 E24.35534
G1 X98.111 Y85.807 E24.50056
G1 X96.934 Y87.737 E24.62009
G1 X95.626 Y89.581 E24.73961
G1 X94.191 Y91.328 E24.85914
G1 X92.637 Y92.970 E24.97866
G1 X90.972 Y94.500 E25.09818
G1 X89.204 Y95.909 E25.21771
G1 X87.342 Y97.191 E25.33723
G1 X85.394 Y98.339 E25.45675
G1 X83.371 Y99.348 E25.57628
G1 X81.282 Y100.212 E25.69580
G1 X79.138 Y100.928 E25.81533
G1 X76.949 Y101.493 E25.93485
G1 X74.725 Y101.902 E26.05437
G1 X72.479 Y102.155 E26.17390
G1 X70.220 Y102.249 E26.29342
G1 X67.960 Y102.186 E26.41295
G1 X65.710 Y101.964 E26.53247
G1 X63.481 Y101.584 E26.65199
G1 X61.285 Y101.050 E26.77152
G1 X59.131 Y100.363 E26.89104
G1 X57.030 Y99.527 E27.01056
G1 X54.993 Y98.546 E27.13009
G1 X53.030 Y97.424 E27.24961
G1 X51.151 Y96.168 E27.36914
G1 X49.307 Y94.733 E27.49267
G1 X47.678 Y93.277 E27.60817
G1 X46.102 Y91.656 E27.72770
G1 X44.644 Y89.928 E27.84722
G1 X43.284 Y88.062 E27.96930
G1 X42.107 Y86.188 E28.08626
G1 X41.042 Y84.195 E28.20579
G1 X40.118 Y82.131 E28.32531
G1 X39.342 Y80.008 E28.44483
G1 X38.716 Y77.835 E28.56436
G1 X38.244 Y75.624 E28.68388
G1 X37.928 Y73.386 E28.80341
G1 X37.770 Y71.130 E28.92293
G1 X37.770 Y68.870 E29.04245
G1 X37.928 Y66.614 E29.16198
G1 X38.244 Y64.376 E29.28150
G1 X38.716 Y62.165 E29.40102
G1 X39.342 Y59.992 E29.52055
G1 X39.989 Y58.222 E29.62020
