; generated by Slic3r 1.2.0 on 2015-03-05 at 13:48:17

; external perimeters extrusion width = 0.30mm
; perimeters extrusion width = 0.90mm
; infill extrusion width = 0.50mm
; solid infill extrusion width = 0.50mm
; top infill extrusion width = 0.60mm

G21 ; set units to millimeters
M107
M104 S210 ; set temperature
G21           ;metric is good!
G90           ;absolute positioning
G28           ;go home
G92 E0        ;reset extruder
M109 S210 ; wait for temperature to be reached
G90 ; use absolute coordinates
G92 E0
M82 ; use absolute distances for extrusion
G1 F2400.000 E-2.70000
G92 E0
G1 Z0.250 F4800.000
G1 X58.647 Y53.726 F4800.000
G1 E2.70000 F2400.000
G1 X60.500 Y53.164 E2.79181 F900.000
G1 X79.500 Y53.164 E3.69285
G1 X81.073 Y53.558 E3.76974
G1 X82.274 Y54.647 E3.84662 F900.000
G1 X82.836 Y56.500 E3.93843
G1 X82.836 Y83.500 E5.21886
G1 X82.442 Y85.073 E5.29574
G1 X81.353 Y86.274 E5.37263
G1 X79.500 Y86.836 E5.46444
G1 X60.500 Y86.836 E6.36548
G1 X58.927 Y86.442 E6.44236
G1 X57.726 Y85.353 E6.51925
G1 X57.164 Y83.500 E6.61106
G1 X57.164 Y56.500 E7.89148
G1 X57.558 Y54.927 E7.96837
G1 X58.617 Y53.760 E8.04312
G1 X59.108 Y54.290 F4800.000
G1 X59.287 Y54.124 E8.05468 F900.000
G1 X60.500 Y53.832 E8.11386
G1 X79.500 Y53.832 E9.01490
G1 X80.893 Y54.225 E9.08353
G1 X81.876 Y55.287 E9.15215 F900.000
G1 X82.168 Y56.500 E9.21133
G1 X82.168 Y83.500 E10.49176
G1 X81.775 Y84.893 E10.56039
G1 X80.713 Y85.876 E10.62901
G1 X79.500 Y86.168 E10.68819
G1 X60.500 Y86.168 E11.58923
G1 X59.107 Y85.775 E11.65786
G1 X58.124 Y84.713 E11.72649
G1 X57.832 Y83.500 E11.78567
G1 X57.832 Y56.500 E13.06609
G1 X58.225 Y55.107 E13.13472
G1 X59.075 Y54.320 E13.18965
G1 F2400.000 E10.48965
G92 E0
G1 X63.153 Y74.683 F4800.000
G1 E2.70000 F2400.000
G1 X63.384 Y74.654 E2.71103 F900.000
G1 X63.604 Y74.653 E2.72144
G1 X63.960 Y74.708 E2.73854 F900.000
G1 X64.288 Y74.826 E2.75507
G1 X64.587 Y75.003 E2.77157
G1 X64.849 Y75.234 E2.78809
G1 X65.062 Y75.509 E2.80461
G1 X65.220 Y75.819 E2.82112
G1 X65.317 Y76.153 E2.83763
G1 X65.350 Y76.500 E2.85415
G1 X65.317 Y76.847 E2.87066
G1 X65.220 Y77.181 E2.88718
G1 X65.062 Y77.491 E2.90369
G1 X64.849 Y77.766 E2.92020
G1 X64.587 Y77.997 E2.93672
G1 X64.288 Y78.174 E2.95323
G1 X63.960 Y78.292 E2.96975
G1 X63.616 Y78.346 E2.98626
G1 X63.268 Y78.336 E3.00278
G1 X62.928 Y78.260 E3.01929
G1 X62.609 Y78.121 E3.03580
G1 X62.321 Y77.926 E3.05231
G1 X62.074 Y77.679 E3.06884
G1 X61.879 Y77.391 E3.08535
G1 X61.740 Y77.072 E3.10186
G1 X61.664 Y76.732 E3.11837
G1 X61.653 Y76.384 E3.13489
G1 X61.708 Y76.040 E3.15141
G1 X61.826 Y75.712 E3.16792
G1 X62.003 Y75.412 E3.18444
G1 X62.233 Y75.151 E3.20095
G1 X62.509 Y74.938 E3.21746
G1 X62.819 Y74.780 E3.23397
G1 X63.109 Y74.692 E3.24836
G1 X78.482 Y75.601 F4800.000
G1 X78.482 Y82.482 E3.57469 F900.000
G1 X61.518 Y82.482 E4.37920
G1 X61.518 Y78.148 E4.58472
G1 X62.020 Y78.537 E4.61484
G1 X62.287 Y78.707 E4.62985
G1 X62.572 Y78.841 E4.64481
G1 X62.873 Y78.939 E4.65982
G1 X63.184 Y78.998 E4.67481
G1 X63.658 Y79.013 E4.69730
G1 X64.126 Y78.939 E4.71977
G1 X64.427 Y78.841 E4.73480
G1 X64.713 Y78.707 E4.74976
G1 X65.105 Y78.441 E4.77225
G1 X65.336 Y78.224 E4.78726
G1 X65.537 Y77.980 E4.80226
G1 X65.779 Y77.572 E4.82473
G1 X65.895 Y77.278 E4.83973
G1 X65.998 Y76.816 E4.86219
G1 X66.018 Y76.500 E4.87721
G1 X65.998 Y76.184 E4.89222
G1 X65.895 Y75.722 E4.91469
G1 X65.779 Y75.428 E4.92968
G1 X65.537 Y75.020 E4.95215
G1 X65.336 Y74.776 E4.96715
G1 X65.105 Y74.559 E4.98217
G1 X64.713 Y74.293 E5.00465
G1 X64.427 Y74.159 E5.01962
G1 X64.126 Y74.061 E5.03464
G1 X63.658 Y73.987 E5.05712
G1 X63.184 Y74.001 E5.07959
G1 X62.873 Y74.061 E5.09459
G1 X62.572 Y74.159 E5.10961
G1 X62.287 Y74.293 E5.12456
G1 X62.020 Y74.463 E5.13958
G1 X61.518 Y74.852 E5.16969
G1 X61.518 Y60.148 E5.86698
G1 X62.020 Y60.537 E5.89711
G1 X62.287 Y60.707 E5.91211
G1 X62.722 Y60.895 E5.93460
G1 X63.184 Y60.998 E5.95707
G1 X63.658 Y61.013 E5.97954
G1 X63.972 Y60.974 E5.99455
G1 X64.427 Y60.842 E6.01701
G1 X64.849 Y60.626 E6.03949
G1 X65.105 Y60.440 E6.05449
G1 X65.440 Y60.105 E6.07697
G1 X65.707 Y59.713 E6.09944
G1 X65.895 Y59.278 E6.12192
G1 X65.998 Y58.816 E6.14440
G1 X66.013 Y58.341 E6.16690
G1 X65.974 Y58.028 E6.18189
G1 X65.836 Y57.518 E6.20695
G1 X78.482 Y57.518 E6.80668 F900.000
G1 X78.482 Y63.482 E7.08953
G1 X75.761 Y63.482 E7.21857
G1 X75.408 Y63.026 E7.24592
G1 X75.116 Y62.696 E7.26683
G1 X74.804 Y62.384 E7.28774
G1 X74.474 Y62.092 E7.30865
G1 X74.125 Y61.822 E7.32955
G1 X73.761 Y61.574 E7.35047
G1 X73.381 Y61.350 E7.37138
G1 X72.988 Y61.150 E7.39229
G1 X72.584 Y60.975 E7.41320
G1 X72.169 Y60.825 E7.43410
G1 X71.745 Y60.702 E7.45502
G1 X71.315 Y60.606 E7.47593
G1 X70.880 Y60.537 E7.49683
G1 X70.441 Y60.496 E7.51774
G1 X70.000 Y60.482 E7.53865
G1 X69.559 Y60.496 E7.55956
G1 X69.120 Y60.537 E7.58046
G1 X68.685 Y60.606 E7.60137
G1 X68.255 Y60.702 E7.62228
G1 X67.831 Y60.825 E7.64319
G1 X67.381 Y60.990 E7.66595
G1 X67.012 Y61.150 E7.68501
G1 X66.619 Y61.350 E7.70592
G1 X66.239 Y61.574 E7.72682
G1 X65.875 Y61.822 E7.74773
G1 X65.526 Y62.092 E7.76864
G1 X65.196 Y62.384 E7.78955
G1 X64.884 Y62.696 E7.81046
G1 X64.568 Y63.057 E7.83322
G1 X64.322 Y63.375 E7.85228
G1 X64.074 Y63.739 E7.87318
G1 X63.850 Y64.119 E7.89409
G1 X63.634 Y64.548 E7.91685
G1 X63.475 Y64.916 E7.93591
G1 X63.325 Y65.331 E7.95681
G1 X63.194 Y65.793 E7.97957
G1 X63.106 Y66.185 E7.99863
G1 X63.037 Y66.620 E8.01954
G1 X62.996 Y67.059 E8.04045
G1 X62.982 Y67.500 E8.06136
G1 X62.996 Y67.941 E8.08227
G1 X63.037 Y68.380 E8.10318
G1 X63.106 Y68.815 E8.12408
G1 X63.202 Y69.245 E8.14500
G1 X63.325 Y69.669 E8.16590
G1 X63.475 Y70.084 E8.18681
G1 X63.650 Y70.488 E8.20772
G1 X63.850 Y70.881 E8.22863
G1 X64.054 Y71.227 E8.24769
G1 X64.322 Y71.625 E8.27045
G1 X64.592 Y71.974 E8.29135
G1 X64.884 Y72.304 E8.31227
G1 X65.196 Y72.616 E8.33317
G1 X65.526 Y72.908 E8.35408
G1 X65.875 Y73.178 E8.37499
G1 X66.239 Y73.426 E8.39590
G1 X66.619 Y73.650 E8.41680
G1 X67.012 Y73.850 E8.43771
G1 X67.416 Y74.026 E8.45863
G1 X67.831 Y74.175 E8.47953
G1 X68.255 Y74.298 E8.50044
G1 X68.685 Y74.394 E8.52134
G1 X69.120 Y74.463 E8.54225
G1 X69.559 Y74.505 E8.56316
G1 X70.000 Y74.518 E8.58407
G1 X70.402 Y74.506 E8.60313
G1 X70.880 Y74.463 E8.62589
G1 X71.315 Y74.394 E8.64680
G1 X71.745 Y74.298 E8.66771
G1 X72.169 Y74.175 E8.68861
G1 X72.583 Y74.026 E8.70952
G1 X72.988 Y73.850 E8.73044
G1 X73.381 Y73.650 E8.75135
G1 X73.761 Y73.426 E8.77225
G1 X74.125 Y73.178 E8.79317
G1 X74.474 Y72.908 E8.81407
G1 X74.804 Y72.616 E8.83498
G1 X75.116 Y72.304 E8.85589
G1 X75.408 Y71.974 E8.87680
G1 X75.761 Y71.518 E8.90416
G1 X78.482 Y71.518 E9.03319
G1 X78.482 Y75.556 E9.22469
G1 X79.150 Y75.556 F4800.000
G1 X79.150 Y83.150 E9.58482 F900.000
G1 X60.850 Y83.150 E10.45267
G1 X60.850 Y56.850 E11.69990
G1 X62.489 Y56.850 E11.77764
G1 X62.074 Y57.321 E11.80739
G1 X61.931 Y57.520 E11.81902 F900.000
G1 X61.780 Y57.819 E11.83493
G1 X61.708 Y58.040 E11.84594
G1 X61.664 Y58.268 E11.85696
G1 X61.650 Y58.500 E11.86798
G1 X61.681 Y58.834 E11.88390
G1 X61.740 Y59.072 E11.89551
G1 X61.826 Y59.288 E11.90654
G1 X61.938 Y59.491 E11.91756
G1 X62.074 Y59.679 E11.92857
G1 X62.311 Y59.917 E11.94448
G1 X62.509 Y60.062 E11.95610
G1 X62.712 Y60.174 E11.96712
G1 X63.040 Y60.292 E11.98363
G1 X63.268 Y60.336 E11.99466
G1 X63.500 Y60.350 E12.00567
G1 X63.732 Y60.336 E12.01670
G1 X64.072 Y60.260 E12.03320
G1 X64.391 Y60.121 E12.04972
G1 X64.669 Y59.933 E12.06563
G1 X64.849 Y59.767 E12.07725
G1 X65.062 Y59.491 E12.09377
G1 X65.174 Y59.288 E12.10479
G1 X65.292 Y58.960 E12.12130
G1 X65.347 Y58.616 E12.13781
G1 X65.347 Y58.384 E12.14884
G1 X65.317 Y58.153 E12.15986
G1 X65.220 Y57.819 E12.17637
G1 X65.121 Y57.609 E12.18739
G1 X64.997 Y57.412 E12.19840
G1 X64.511 Y56.850 E12.23366
G1 X79.150 Y56.850 E12.92791
G1 X79.150 Y64.150 E13.27410
G1 X76.150 Y64.150 E13.41636
G1 X76.150 Y64.687 E13.44185
G1 X75.741 Y64.786 E13.46182
G1 X75.362 Y64.097 E13.49908
G1 X75.137 Y63.767 E13.51800
G1 X74.881 Y63.439 E13.53778
G1 X74.347 Y62.871 E13.57474
G1 X73.733 Y62.363 E13.61256
G1 X73.403 Y62.138 E13.63147
G1 X73.059 Y61.935 E13.65040
G1 X72.704 Y61.754 E13.66931
G1 X72.338 Y61.596 E13.68823
G1 X71.945 Y61.456 E13.70800
G1 X71.190 Y61.262 E13.74497
G1 X70.796 Y61.200 E13.76389
G1 X70.399 Y61.162 E13.78280
G1 X70.000 Y61.150 E13.80172
G1 X69.601 Y61.162 E13.82064
G1 X69.204 Y61.200 E13.83956
G1 X68.810 Y61.262 E13.85848
G1 X68.403 Y61.354 E13.87825
G1 X67.662 Y61.596 E13.91521
G1 X67.280 Y61.762 E13.93499
G1 X66.597 Y62.138 E13.97195
G1 X66.267 Y62.363 E13.99086
G1 X65.939 Y62.619 E14.01064
G1 X65.371 Y63.153 E14.04760
G1 X65.107 Y63.452 E14.06652
G1 X64.863 Y63.767 E14.08544
G1 X64.629 Y64.113 E14.10521
G1 X64.254 Y64.796 E14.14217
G1 X64.096 Y65.162 E14.16109
G1 X63.961 Y65.538 E14.18001
G1 X63.849 Y65.921 E14.19893
G1 X63.762 Y66.310 E14.21785
G1 X63.698 Y66.722 E14.23762
G1 X63.650 Y67.500 E14.27458
G1 X63.662 Y67.899 E14.29350
G1 X63.700 Y68.296 E14.31242
G1 X63.762 Y68.690 E14.33134
G1 X63.849 Y69.079 E14.35025
G1 X63.961 Y69.462 E14.36917
G1 X64.096 Y69.838 E14.38809
G1 X64.254 Y70.204 E14.40701
G1 X64.435 Y70.559 E14.42593
G1 X64.638 Y70.903 E14.44485
G1 X64.863 Y71.233 E14.46377
G1 X65.107 Y71.548 E14.48268
G1 X65.371 Y71.847 E14.50160
G1 X65.939 Y72.381 E14.53856
G1 X66.267 Y72.637 E14.55834
G1 X66.597 Y72.862 E14.57726
G1 X67.296 Y73.246 E14.61507
G1 X67.662 Y73.404 E14.63399
G1 X68.421 Y73.651 E14.67181
G1 X68.810 Y73.738 E14.69073
G1 X69.204 Y73.800 E14.70965
G1 X69.601 Y73.838 E14.72856
G1 X70.381 Y73.838 E14.76553
G1 X70.796 Y73.800 E14.78530
G1 X71.190 Y73.738 E14.80422
G1 X71.579 Y73.651 E14.82314
G1 X72.338 Y73.404 E14.86095
G1 X72.704 Y73.246 E14.87988
G1 X73.403 Y72.862 E14.91769
G1 X74.048 Y72.393 E14.95551
G1 X74.347 Y72.129 E14.97443
G1 X74.629 Y71.847 E14.99335
G1 X74.893 Y71.548 E15.01227
G1 X75.137 Y71.233 E15.03118
G1 X75.362 Y70.903 E15.05010
G1 X75.741 Y70.214 E15.08737
G1 X76.150 Y70.313 E15.10734
G1 X76.150 Y70.850 E15.13282
G1 X79.150 Y70.850 E15.27509
G1 X79.150 Y75.511 E15.49613
G1 F2400.000 E12.79613
G92 E0
G1 X76.016 Y65.079 F4800.000
G1 E2.70000 F2400.000
G1 X76.095 Y65.533 E2.72182 F900.000
G1 X76.193 Y66.309 E2.75891
G1 X76.226 Y66.722 E2.77858
G1 X76.250 Y67.508 E2.81586
G1 X76.226 Y68.278 E2.85239
G1 X76.193 Y68.691 E2.87205
G1 X76.095 Y69.467 E2.90914
G1 X76.016 Y69.921 E2.93096
G1 F2400.000 E0.23096
G92 E0
G1 X77.978 Y71.982 F4800.000
G1 E2.70000 F2400.000
G1 X78.018 Y72.022 E2.70268 F900.000
G1 X78.018 Y72.985 E2.74834
G1 X77.015 Y71.982 E2.81558
G1 X76.053 Y71.982 E2.86123
G1 X78.018 Y73.947 E2.99304
G1 X78.018 Y74.910 E3.03870
G1 X75.584 Y72.476 E3.20195
G1 X75.109 Y72.964 E3.23424
G1 X78.018 Y75.873 E3.42931
G1 X78.018 Y76.835 E3.47496
G1 X74.589 Y73.406 E3.70496
G1 X74.026 Y73.806 E3.73769
G1 X78.018 Y77.798 E4.00540
G1 X78.018 Y78.761 E4.05105
G1 X73.412 Y74.155 E4.35993
G1 X72.753 Y74.458 E4.39436
G1 X78.018 Y79.723 E4.74749
G1 X78.018 Y80.686 E4.79314
G1 X72.030 Y74.698 E5.19471
G1 X71.244 Y74.875 E5.23292
G1 X78.018 Y81.649 E5.68720
G1 X77.425 Y82.018 E5.72034
G1 X70.378 Y74.971 E6.19297
G1 X69.400 Y74.956 E6.23935
G1 X76.462 Y82.018 E6.71300
G1 X75.499 Y82.018 E6.75866
G1 X68.255 Y74.773 E7.24452
G1 X66.763 Y74.245 F4800.000
G1 X74.537 Y82.018 E7.76585 F900.000
G1 X73.574 Y82.018 E7.81150
G1 X61.982 Y70.426 E8.58894
G1 X62.394 Y69.875 E8.62156
G1 X63.255 Y70.737 E8.67934
G1 X61.982 Y71.389 E8.74718
G1 X64.195 Y73.602 E8.89560
G1 X63.168 Y73.538 E8.94438
G1 X61.982 Y72.351 E9.02395
G1 X61.982 Y73.314 E9.06960
G1 X62.396 Y73.729 E9.09740
G1 X66.387 Y75.793 F4800.000
G1 X72.611 Y82.018 E9.51487 F900.000
G1 X71.649 Y82.018 E9.56052
G1 X66.462 Y76.832 E9.90834
G1 X66.267 Y77.599 E9.94589
G1 X70.686 Y82.018 E10.24225
G1 X69.723 Y82.018 E10.28790
G1 X65.931 Y78.226 E10.54222
G1 X65.474 Y78.731 E10.57454
G1 X68.761 Y82.018 E10.79499
G1 X67.798 Y82.018 E10.84064
G1 X64.908 Y79.128 E11.03446
G1 X64.213 Y79.395 E11.06978
G1 X66.835 Y82.018 E11.24567
G1 X65.873 Y82.018 E11.29132
G1 X63.322 Y79.467 E11.46240
G1 X61.982 Y79.090 E11.52841
G1 X64.910 Y82.018 E11.72478
G1 X63.947 Y82.018 E11.77043
G1 X61.982 Y80.053 E11.90224
G1 X61.982 Y81.015 E11.94789
G1 X62.985 Y82.018 E12.01514
G1 X62.022 Y82.018 E12.06079
G1 X61.982 Y81.978 E12.06348
G1 X62.024 Y65.096 F4800.000
G1 X61.982 Y65.054 E12.06628 F900.000
G1 X61.982 Y64.093 E12.11186
G1 X62.935 Y65.046 E12.17576
G1 X63.210 Y64.360 E12.21081
G1 X61.982 Y63.132 E12.29316
G1 X61.982 Y62.171 E12.33874
G1 X63.541 Y63.729 E12.44329
G1 X63.917 Y63.145 E12.47627
G1 X61.982 Y61.209 E12.60607
G1 X63.197 Y61.463 E12.66493
G1 X64.343 Y62.609 E12.74180
G1 X64.809 Y62.114 E12.77405
G1 X64.111 Y61.416 E12.82083
G1 X64.819 Y61.163 E12.85647
G1 X65.321 Y61.664 E12.89012
G1 X65.877 Y61.259 E12.92275
G1 X65.410 Y60.792 E12.95408
G1 X65.873 Y60.294 E12.98633
G1 X66.479 Y60.900 E13.02696
G1 X67.132 Y60.592 E13.06120
G1 X66.225 Y59.685 E13.12202
G1 X66.445 Y58.944 E13.15867
G1 X67.840 Y60.339 E13.25222
G1 X68.610 Y60.148 E13.28984
G1 X66.444 Y57.982 E13.43510
G1 X67.405 Y57.982 E13.48068
G1 X69.462 Y60.039 E13.61861
G1 X70.415 Y60.030 E13.66381
G1 X68.366 Y57.982 E13.80119
G1 X69.327 Y57.982 E13.84677
G1 X71.522 Y60.177 E13.99396
G1 X72.922 Y60.615 E14.06352
G1 X70.289 Y57.982 E14.24012
G1 X71.250 Y57.982 E14.28570
G1 X76.286 Y63.018 E14.62346
G1 X77.247 Y63.018 E14.66904
G1 X72.211 Y57.982 E15.00679
G1 X73.172 Y57.982 E15.05237
G1 X78.018 Y62.828 E15.37737
G1 X78.018 Y61.867 E15.42295
G1 X74.133 Y57.982 E15.68348
G1 X75.095 Y57.982 E15.72907
G1 X78.018 Y60.905 E15.92514
G1 X78.018 Y59.944 E15.97072
G1 X76.056 Y57.982 E16.10233
G1 X77.017 Y57.982 E16.14791
G1 X78.018 Y58.983 E16.21505
G1 X78.018 Y58.022 E16.26064
G1 X77.978 Y57.982 E16.26332
G1 F2400.000 E13.56332
G92 E0
G1 X62.354 Y65.587 F4800.000
G1 E2.70000 F2400.000
G1 X62.280 Y66.538 E2.76892 F900.000
G1 X62.250 Y67.487 E2.83758
G1 X62.280 Y68.462 E2.90803
G1 X62.354 Y69.413 E2.97697
M104 S197 ; set temperature
G1 F2400.000 E0.27697
G92 E0
G1 Z0.450 F4800.000
G1 X63.222 Y74.874 F4800.000
G1 E2.70000 F2400.000
G1 X63.593 Y74.853 E2.70904 F2700.000
G1 X63.910 Y74.902 E2.71685 F2700.000
G1 X64.203 Y75.007 E2.72441
G1 X64.470 Y75.165 E2.73197
G1 X64.703 Y75.370 E2.73953
G1 X64.893 Y75.616 E2.74709
G1 X65.034 Y75.893 E2.75465
G1 X65.121 Y76.191 E2.76221
G1 X65.150 Y76.500 E2.76977
G1 X65.121 Y76.809 E2.77733
G1 X65.034 Y77.107 E2.78489
G1 X64.893 Y77.384 E2.79244
G1 X64.703 Y77.630 E2.80000
G1 X64.470 Y77.835 E2.80757
G1 X64.203 Y77.993 E2.81512
G1 X63.910 Y78.098 E2.82269
G1 X63.604 Y78.147 E2.83024
G1 X63.293 Y78.137 E2.83780
G1 X62.990 Y78.069 E2.84536
G1 X62.705 Y77.946 E2.85292
G1 X62.448 Y77.771 E2.86048
G1 X62.229 Y77.552 E2.86804
G1 X62.054 Y77.295 E2.87560
G1 X61.931 Y77.010 E2.88316
G1 X61.863 Y76.707 E2.89072
G1 X61.853 Y76.396 E2.89828
G1 X61.902 Y76.090 E2.90584
G1 X62.007 Y75.797 E2.91340
G1 X62.165 Y75.530 E2.92096
G1 X62.370 Y75.297 E2.92852
G1 X62.616 Y75.107 E2.93608
G1 X62.893 Y74.966 E2.94364
G1 X63.178 Y74.882 E2.95089
G1 F2400.000 E0.25089
G92 E0
G1 X73.417 Y82.793 F4800.000
G1 E2.70000 F2400.000
G1 X61.207 Y82.793 E3.69082 F3000.000
G1 X61.207 Y77.235 E4.14182
G1 X61.989 Y78.109 E4.23697
G1 X62.203 Y78.286 E4.25948
G1 X62.437 Y78.435 E4.28198
G1 X62.818 Y78.599 E4.31568
G1 X63.223 Y78.690 E4.34940
G1 X63.500 Y78.707 E4.37189
G1 X63.914 Y78.668 E4.40561
G1 X64.286 Y78.562 E4.43704
G1 X64.563 Y78.435 E4.46180
G1 X64.907 Y78.201 E4.49552
G1 X65.201 Y77.907 E4.52925
G1 X65.434 Y77.564 E4.56296
G1 X65.552 Y77.313 E4.58547
G1 X65.668 Y76.914 E4.61918
G1 X65.707 Y76.500 E4.65291
G1 X65.668 Y76.086 E4.68663
G1 X65.552 Y75.687 E4.72033
G1 X65.434 Y75.436 E4.74284
G1 X65.201 Y75.093 E4.77655
G1 X64.907 Y74.799 E4.81028
G1 X64.563 Y74.565 E4.84400
G1 X64.286 Y74.438 E4.86876
G1 X63.914 Y74.332 E4.90019
G1 X63.500 Y74.293 E4.93390
G1 X63.223 Y74.310 E4.95639
G1 X62.818 Y74.401 E4.99012
G1 X62.437 Y74.565 E5.02382
G1 X62.203 Y74.714 E5.04633
G1 X61.989 Y74.891 E5.06884
G1 X61.207 Y75.765 E5.16398
G1 X61.207 Y59.236 E6.50534
G1 X61.989 Y60.109 E6.60048
G1 X62.317 Y60.364 E6.63419
G1 X62.687 Y60.552 E6.66791
