; generated by Slic3r 1.2.0 on 2015-03-05 at 12:11:28

; external perimeters extrusion width = 0.30mm
; perimeters extrusion width = 0.90mm
; infill extrusion width = 0.50mm
; solid infill extrusion width = 0.50mm
; top infill extrusion width = 0.60mm

G21 ; set units to millimeters
M107
M104 S210 ; set temperature
G21           ;metric is good!
G90           ;absolute positioning
G28           ;go home
G92 E0        ;reset extruder
M109 S210 ; wait for temperature to be reached
G90 ; use absolute coordinates
G92 E0
M82 ; use absolute distances for extrusion
G1 F2400.000 E-2.70000
G92 E0
G1 Z0.250 F4800.000
G1 X55.978 Y53.689 F4800.000
G1 E2.70000 F2400.000
G1 X56.689 Y52.978 E2.74606 F900.000
G1 X57.594 Y52.171 E2.80160
G1 X58.721 Y51.297 E2.86693
G1 X59.729 Y50.620 E2.92256
G1 X60.778 Y50.007 E2.97821
G1 X61.863 Y49.462 E3.03385
G1 X62.980 Y48.985 E3.08949
G1 X64.125 Y48.580 E3.14514
G1 X65.293 Y48.247 E3.20077
G1 X66.480 Y47.989 E3.25643
G1 X67.681 Y47.805 E3.31206
G1 X68.890 Y47.698 E3.36770
G1 X70.105 Y47.666 E3.42335
G1 X71.319 Y47.711 E3.47899
G1 X72.527 Y47.832 E3.53463 F900.000
G1 X73.726 Y48.028 E3.59028
G1 X74.910 Y48.300 E3.64592
G1 X75.874 Y48.580 E3.69192
G1 X77.215 Y49.062 E3.75720
G1 X78.327 Y49.551 E3.81284
G1 X79.406 Y50.108 E3.86849
G1 X80.270 Y50.619 E3.91446
G1 X81.449 Y51.420 E3.97977
G1 X82.405 Y52.170 E4.03541
G1 X83.311 Y52.978 E4.09106
G1 X84.166 Y53.841 E4.14670
G1 X84.829 Y54.594 E4.19266
G1 X85.703 Y55.721 E4.25799
G1 X86.380 Y56.729 E4.31362
G1 X86.993 Y57.778 E4.36927
G1 X87.449 Y58.672 E4.41524
G1 X88.015 Y59.980 E4.48055
G1 X88.420 Y61.125 E4.53620
G1 X88.753 Y62.293 E4.59183
G1 X89.011 Y63.480 E4.64748
G1 X89.195 Y64.681 E4.70312
G1 X89.302 Y65.890 E4.75876
G1 X89.334 Y67.105 E4.81441
G1 X89.289 Y68.319 E4.87005
G1 X89.169 Y69.525 E4.92558
G1 X88.972 Y70.725 E4.98130
G1 X88.700 Y71.910 E5.03697
G1 X88.356 Y73.074 E5.09259
G1 X88.010 Y74.033 E5.13930
G1 X82.134 Y90.143 E5.92489
G1 X81.225 Y91.485 E5.99916
G1 X79.000 Y92.336 E6.10826
G1 X62.000 Y92.336 E6.88705
G1 X60.427 Y91.942 E6.96132
G1 X58.932 Y90.309 E7.06272
G1 X51.986 Y74.023 E7.87386
G1 X51.579 Y72.873 E7.92973
G1 X51.247 Y71.707 E7.98527
G1 X50.989 Y70.522 E8.04083
G1 X50.805 Y69.320 E8.09654
G1 X50.698 Y68.111 E8.15213
G1 X50.666 Y66.895 E8.20785
G1 X50.698 Y65.891 E8.25388
G1 X50.832 Y64.473 E8.31912
G1 X51.028 Y63.274 E8.37478
G1 X51.300 Y62.090 E8.43041
G1 X51.580 Y61.125 E8.47645
G1 X51.985 Y59.982 E8.53203
G1 X52.551 Y58.673 E8.59734
G1 X53.108 Y57.594 E8.65299
G1 X53.620 Y56.729 E8.69902
G1 X54.420 Y55.551 E8.76427
G1 X55.170 Y54.595 E8.81991
G1 X55.947 Y53.721 E8.87349
G1 X56.434 Y54.178 F4800.000
G1 X57.161 Y53.450 E8.92063 F900.000
G1 X58.035 Y52.672 E8.97427
G1 X59.096 Y51.849 E9.03576
G1 X60.069 Y51.195 E9.08947
G1 X61.081 Y50.602 E9.14320
G1 X62.128 Y50.074 E9.19691
G1 X63.206 Y49.614 E9.25063
G1 X64.311 Y49.221 E9.30436
G1 X65.439 Y48.899 E9.35808
G1 X66.585 Y48.648 E9.41181
G1 X67.744 Y48.470 E9.46552
G1 X68.911 Y48.365 E9.51924
G1 X70.084 Y48.334 E9.57297
G1 X71.256 Y48.376 E9.62669
G1 X72.423 Y48.491 E9.68040 F900.000
G1 X73.580 Y48.680 E9.73413
G1 X74.723 Y48.941 E9.78785
G1 X75.687 Y49.221 E9.83385
G1 X76.950 Y49.675 E9.89529
G1 X78.024 Y50.146 E9.94901
G1 X79.066 Y50.683 E10.00274
G1 X79.930 Y51.194 E10.04870
G1 X81.040 Y51.948 E10.11018
G1 X81.963 Y52.671 E10.16389
G1 X82.839 Y53.450 E10.21762
G1 X83.665 Y54.283 E10.27134
G1 X84.328 Y55.035 E10.31730
G1 X85.151 Y56.096 E10.37879
G1 X85.805 Y57.069 E10.43250
G1 X86.398 Y58.081 E10.48623
G1 X86.853 Y58.975 E10.53219
G1 X87.386 Y60.206 E10.59366
G1 X87.779 Y61.311 E10.64739
G1 X88.101 Y62.439 E10.70110
G1 X88.352 Y63.585 E10.75483
G1 X88.530 Y64.744 E10.80855
G1 X88.635 Y65.911 E10.86227
G1 X88.666 Y67.084 E10.91599
G1 X88.624 Y68.256 E10.96971
G1 X88.509 Y69.421 E11.02334
G1 X88.320 Y70.580 E11.07713
G1 X88.059 Y71.723 E11.13087
G1 X87.727 Y72.847 E11.18457
G1 X87.383 Y73.804 E11.23116
G1 X81.506 Y89.914 E12.01674
G1 X80.660 Y91.088 E12.08304
G1 X79.000 Y91.668 E12.16359
G1 X62.000 Y91.668 E12.94238
G1 X60.607 Y91.275 E13.00868
G1 X59.546 Y90.047 E13.08301
G1 X52.614 Y73.796 E13.89241
G1 X52.221 Y72.687 E13.94633
G1 X51.899 Y71.561 E13.99996
G1 X51.649 Y70.417 E14.05361
G1 X51.470 Y69.257 E14.10738
G1 X51.365 Y68.090 E14.16106
G1 X51.334 Y66.916 E14.21485
G1 X51.365 Y65.912 E14.26086
G1 X51.491 Y64.577 E14.32228
G1 X51.680 Y63.420 E14.37601
G1 X51.941 Y62.277 E14.42973
G1 X52.273 Y61.152 E14.48345
G1 X52.613 Y60.208 E14.52941
G1 X53.146 Y58.976 E14.59089
G1 X53.683 Y57.934 E14.64462
G1 X54.194 Y57.069 E14.69063
G1 X54.948 Y55.960 E14.75205
G1 X55.671 Y55.037 E14.80577
G1 X56.403 Y54.211 E14.85634
G1 F2400.000 E12.15634
G92 E0
G1 X59.781 Y57.404 F4800.000
G1 E2.70000 F2400.000
G1 X60.404 Y56.781 E2.74035 F900.000
G1 X61.064 Y56.199 E2.78069
G1 X61.760 Y55.659 E2.82102
G1 X62.461 Y55.183 E2.85983
G1 X63.247 Y54.716 E2.90172
G1 X64.031 Y54.316 E2.94207
G1 X64.840 Y53.966 E2.98241
G1 X65.668 Y53.668 E3.02276
G1 X66.514 Y53.422 E3.06308
G1 X67.374 Y53.230 E3.10345
G1 X68.243 Y53.092 E3.14379
G1 X69.120 Y53.009 E3.18412
G1 X70.000 Y52.982 E3.22445
G1 X70.847 Y53.008 E3.26328
G1 X71.757 Y53.092 E3.30517 F900.000
G1 X72.626 Y53.230 E3.34548
G1 X73.486 Y53.422 E3.38583
G1 X74.332 Y53.668 E3.42619
G1 X75.160 Y53.966 E3.46651
G1 X75.969 Y54.316 E3.50687
G1 X76.753 Y54.716 E3.54720
G1 X77.483 Y55.147 E3.58602
G1 X78.240 Y55.659 E3.62788
G1 X78.936 Y56.199 E3.66824
G1 X79.596 Y56.781 E3.70858
G1 X80.219 Y57.404 E3.74893
G1 X80.779 Y58.039 E3.78774
G1 X81.341 Y58.760 E3.82961
G1 X81.836 Y59.489 E3.86996
G1 X82.284 Y60.247 E3.91031
G1 X82.684 Y61.031 E3.95064
G1 X83.034 Y61.839 E3.99098
G1 X83.332 Y62.668 E4.03134
G1 X83.578 Y63.514 E4.07167
G1 X83.770 Y64.373 E4.11201
G1 X83.908 Y65.243 E4.15233
G1 X83.991 Y66.119 E4.19269
G1 X84.017 Y66.966 E4.23150
G1 X83.991 Y67.880 E4.27339
G1 X83.908 Y68.757 E4.31374
G1 X83.770 Y69.627 E4.35409
G1 X83.578 Y70.486 E4.39442
G1 X83.332 Y71.332 E4.43475
G1 X83.034 Y72.161 E4.47511
G1 X82.684 Y72.969 E4.51545
G1 X82.284 Y73.753 E4.55580
G1 X81.817 Y74.539 E4.59766
G1 X81.341 Y75.240 E4.63647
G1 X80.801 Y75.935 E4.67681
G1 X80.219 Y76.596 E4.71716
G1 X79.596 Y77.219 E4.75752
G1 X78.936 Y77.801 E4.79786
G1 X78.239 Y78.341 E4.83821
G1 X77.482 Y78.853 E4.88007
G1 X76.753 Y79.284 E4.91888
G1 X75.969 Y79.684 E4.95922
G1 X75.160 Y80.034 E4.99958
G1 X74.332 Y80.332 E5.03990
G1 X73.486 Y80.578 E5.08025
G1 X72.627 Y80.770 E5.12059
G1 X71.757 Y80.908 E5.16094
G1 X70.881 Y80.991 E5.20126
G1 X69.964 Y81.017 E5.24327
G1 X69.119 Y80.991 E5.28201
G1 X68.242 Y80.908 E5.32235
G1 X67.373 Y80.770 E5.36266
G1 X66.481 Y80.569 E5.40454
G1 X65.668 Y80.332 E5.44332
G1 X64.839 Y80.034 E5.48369
G1 X64.031 Y79.684 E5.52403
G1 X63.247 Y79.284 E5.56436
G1 X62.489 Y78.836 E5.60471
G1 X61.760 Y78.341 E5.64505
G1 X61.065 Y77.801 E5.68539
G1 X60.380 Y77.195 E5.72727
G1 X59.781 Y76.596 E5.76609
G1 X59.199 Y75.936 E5.80643
G1 X58.659 Y75.240 E5.84679
G1 X58.147 Y74.483 E5.88865
G1 X57.716 Y73.753 E5.92746
G1 X57.316 Y72.969 E5.96780
G1 X56.966 Y72.160 E6.00815
G1 X56.668 Y71.332 E6.04848
G1 X56.422 Y70.486 E6.08883
G1 X56.230 Y69.626 E6.12919
G1 X56.089 Y68.724 E6.17104
G1 X56.009 Y67.880 E6.20985
G1 X55.982 Y67.000 E6.25020
G1 X56.009 Y66.120 E6.29055
G1 X56.092 Y65.243 E6.33090
G1 X56.230 Y64.373 E6.37124
G1 X56.422 Y63.514 E6.41158
G1 X56.668 Y62.668 E6.45193
G1 X56.966 Y61.840 E6.49226
G1 X57.316 Y61.031 E6.53262
G1 X57.716 Y60.247 E6.57295
G1 X58.164 Y59.489 E6.61330
G1 X58.659 Y58.760 E6.65363
G1 X59.199 Y58.064 E6.69399
G1 X59.751 Y57.438 E6.73227
G1 X60.252 Y57.879 F4800.000
G1 X60.861 Y57.268 E6.77179 F900.000
G1 X61.490 Y56.713 E6.81021
G1 X62.153 Y56.200 E6.84862
G1 X62.847 Y55.728 E6.88705
G1 X63.569 Y55.301 E6.92547
G1 X64.316 Y54.920 E6.96389
G1 X65.086 Y54.587 E7.00231
G1 X65.875 Y54.303 E7.04073
G1 X66.680 Y54.069 E7.07915
G1 X67.499 Y53.886 E7.11758
G1 X68.327 Y53.755 E7.15600
G1 X69.162 Y53.676 E7.19441
G1 X69.987 Y53.650 E7.23225
G1 X70.838 Y53.676 E7.27126 F900.000
G1 X71.673 Y53.755 E7.30968
G1 X72.501 Y53.886 E7.34809
G1 X73.320 Y54.069 E7.38652
G1 X74.125 Y54.303 E7.42494
G1 X74.914 Y54.587 E7.46335
G1 X75.684 Y54.920 E7.50178
G1 X76.431 Y55.301 E7.54020
G1 X77.143 Y55.722 E7.57804
G1 X77.847 Y56.199 E7.61704
G1 X78.510 Y56.713 E7.65546
G1 X79.139 Y57.268 E7.69388
G1 X79.732 Y57.861 E7.73230
G1 X80.287 Y58.490 E7.77073
G1 X80.801 Y59.153 E7.80914
G1 X81.265 Y59.836 E7.84698
G1 X81.699 Y60.569 E7.88599
G1 X82.080 Y61.316 E7.92440
G1 X82.413 Y62.085 E7.96282
G1 X82.697 Y62.875 E8.00125
G1 X82.931 Y63.680 E8.03967
G1 X83.114 Y64.498 E8.07809
G1 X83.245 Y65.327 E8.11650
G1 X83.324 Y66.162 E8.15492
G1 X83.350 Y67.000 E8.19335
G1 X83.324 Y67.838 E8.23177
G1 X83.245 Y68.673 E8.27019
G1 X83.114 Y69.502 E8.30862
G1 X82.931 Y70.320 E8.34703
G1 X82.697 Y71.125 E8.38545
G1 X82.413 Y71.915 E8.42388
G1 X82.080 Y72.684 E8.46229
G1 X81.699 Y73.432 E8.50072
G1 X81.265 Y74.164 E8.53971
G1 X80.801 Y74.847 E8.57756
G1 X80.287 Y75.510 E8.61597
G1 X79.732 Y76.139 E8.65440
G1 X79.139 Y76.732 E8.69282
G1 X78.510 Y77.287 E8.73124
G1 X77.847 Y77.801 E8.76967
G1 X77.143 Y78.278 E8.80866
G1 X76.431 Y78.699 E8.84650
G1 X75.684 Y79.080 E8.88492
G1 X74.914 Y79.413 E8.92335
G1 X74.125 Y79.697 E8.96176
G1 X73.320 Y79.931 E9.00018
G1 X72.502 Y80.114 E9.03860
G1 X71.660 Y80.246 E9.07765
G1 X70.838 Y80.324 E9.11544
G1 X70.000 Y80.350 E9.15386
G1 X69.161 Y80.324 E9.19230
G1 X68.327 Y80.245 E9.23072
G1 X67.498 Y80.114 E9.26913
G1 X66.680 Y79.931 E9.30755
G1 X65.875 Y79.697 E9.34596
G1 X65.085 Y79.413 E9.38439
G1 X64.316 Y79.080 E9.42281
G1 X63.569 Y78.699 E9.46123
G1 X62.836 Y78.265 E9.50023
G1 X62.153 Y77.801 E9.53807
G1 X61.490 Y77.287 E9.57649
G1 X60.861 Y76.732 E9.61491
G1 X60.268 Y76.139 E9.65333
G1 X59.713 Y75.510 E9.69176
G1 X59.199 Y74.847 E9.73018
G1 X58.722 Y74.143 E9.76917
G1 X58.301 Y73.431 E9.80702
G1 X57.920 Y72.684 E9.84544
G1 X57.587 Y71.914 E9.88386
G1 X57.303 Y71.125 E9.92228
G1 X57.069 Y70.320 E9.96070
G1 X56.886 Y69.501 E9.99913
G1 X56.754 Y68.661 E10.03812
G1 X56.676 Y67.838 E10.07596
G1 X56.650 Y67.000 E10.11438
G1 X56.676 Y66.162 E10.15280
G1 X56.755 Y65.327 E10.19122
G1 X56.886 Y64.498 E10.22965
G1 X57.069 Y63.680 E10.26806
G1 X57.303 Y62.875 E10.30649
G1 X57.587 Y62.085 E10.34491
G1 X57.920 Y61.316 E10.38333
G1 X58.301 Y60.569 E10.42175
G1 X58.728 Y59.847 E10.46017
G1 X59.199 Y59.153 E10.49859
G1 X59.713 Y58.490 E10.53701
G1 X60.222 Y57.913 E10.57227
G1 X58.531 Y57.366 F4800.000
G1 X59.079 Y56.744 E10.61022 F900.000
G1 X59.744 Y56.079 E10.65333
G1 X60.450 Y55.456 E10.69645
G1 X61.194 Y54.880 E10.73957
G1 X61.972 Y54.351 E10.78268
G1 X62.783 Y53.871 E10.82580
G1 X63.621 Y53.444 E10.86892
G1 X64.485 Y53.070 E10.91203
G1 X65.370 Y52.752 E10.95515
G1 X66.274 Y52.489 E10.99826
G1 X67.193 Y52.284 E11.04138
G1 X68.122 Y52.136 E11.08450
G1 X69.059 Y52.048 E11.12761
G1 X70.000 Y52.018 E11.17073 F900.000
G1 X70.941 Y52.048 E11.21384
G1 X71.878 Y52.136 E11.25696
G1 X72.807 Y52.284 E11.30008
G1 X73.726 Y52.489 E11.34319
G1 X74.630 Y52.752 E11.38631
G1 X75.515 Y53.070 E11.42942
G1 X76.379 Y53.444 E11.47254
G1 X77.217 Y53.871 E11.51566
G1 X78.028 Y54.351 E11.55877
G1 X78.806 Y54.880 E11.60189
G1 X79.550 Y55.456 E11.64501
G1 X80.256 Y56.079 E11.68812
G1 X80.921 Y56.744 E11.73124
G1 X81.544 Y57.450 E11.77435
G1 X82.120 Y58.194 E11.81747
G1 X82.649 Y58.972 E11.86059
G1 X83.129 Y59.783 E11.90370
G1 X83.556 Y60.621 E11.94682
G1 X83.930 Y61.485 E11.98994
G1 X84.248 Y62.370 E12.03305
G1 X84.511 Y63.274 E12.07617
G1 X84.716 Y64.193 E12.11928
G1 X84.864 Y65.122 E12.16240
G1 X84.952 Y66.059 E12.20552
G1 X84.982 Y67.000 E12.24863
G1 X84.952 Y67.941 E12.29175
G1 X84.864 Y68.878 E12.33487
G1 X84.716 Y69.807 E12.37798
G1 X84.511 Y70.726 E12.42110
G1 X84.248 Y71.630 E12.46421
G1 X83.930 Y72.515 E12.50733
G1 X83.556 Y73.379 E12.55045
G1 X83.129 Y74.217 E12.59356
G1 X82.649 Y75.028 E12.63668
G1 X82.120 Y75.806 E12.67979
G1 X81.544 Y76.550 E12.72291
G1 X80.921 Y77.256 E12.76603
G1 X80.256 Y77.921 E12.80914
G1 X79.550 Y78.544 E12.85226
G1 X78.806 Y79.120 E12.89537
G1 X77.982 Y79.680 E12.94100
G1 X77.982 Y87.982 E13.32132
G1 X63.018 Y87.982 E14.00686
G1 X63.018 Y80.268 E14.36026
G1 X61.972 Y79.649 E14.41590
G1 X61.194 Y79.120 E14.45902
G1 X60.450 Y78.544 E14.50214
G1 X59.744 Y77.921 E14.54525
G1 X59.079 Y77.256 E14.58837
G1 X58.456 Y76.550 E14.63148
G1 X57.880 Y75.806 E14.67460
G1 X57.351 Y75.028 E14.71772
G1 X56.871 Y74.217 E14.76083
G1 X56.444 Y73.379 E14.80395
G1 X56.070 Y72.515 E14.84707
G1 X55.752 Y71.630 E14.89018
G1 X55.489 Y70.726 E14.93330
G1 X55.284 Y69.807 E14.97641
G1 X55.136 Y68.878 E15.01953
G1 X55.048 Y67.941 E15.06265
G1 X55.018 Y67.000 E15.10576
G1 X55.048 Y66.059 E15.14888
G1 X55.136 Y65.122 E15.19199
G1 X55.284 Y64.193 E15.23511
G1 X55.489 Y63.274 E15.27823
G1 X55.752 Y62.370 E15.32134
G1 X56.070 Y61.485 E15.36446
G1 X56.444 Y60.621 E15.40758
G1 X56.871 Y59.783 E15.45069
G1 X57.351 Y58.972 E15.49381
G1 X57.880 Y58.194 E15.53692
G1 X58.501 Y57.399 E15.58314
G1 X58.000 Y56.958 F4800.000
G1 X58.592 Y56.287 E15.62411 F900.000
G1 X59.287 Y55.592 E15.66915
G1 X60.024 Y54.942 E15.71419
G1 X60.801 Y54.339 E15.75923
G1 X61.614 Y53.786 E15.80427
G1 X62.461 Y53.286 E15.84931
G1 X63.337 Y52.840 E15.89435
G1 X64.239 Y52.449 E15.93938
G1 X65.164 Y52.116 E15.98442
G1 X66.108 Y51.842 E16.02946
G1 X67.068 Y51.627 E16.07450
G1 X68.039 Y51.474 E16.11954
G1 X69.017 Y51.381 E16.16458
G1 X70.000 Y51.350 E16.20962
G1 X70.983 Y51.381 E16.25466
G1 X71.961 Y51.474 E16.29970 F900.000
G1 X72.932 Y51.627 E16.34473
G1 X73.892 Y51.842 E16.38977
G1 X74.836 Y52.116 E16.43481
G1 X75.761 Y52.449 E16.47985
G1 X76.663 Y52.840 E16.52489
G1 X77.539 Y53.286 E16.56993
G1 X78.386 Y53.786 E16.61497
G1 X79.199 Y54.339 E16.66001
G1 X79.976 Y54.942 E16.70505
G1 X80.713 Y55.592 E16.75009
G1 X81.408 Y56.287 E16.79512
G1 X82.058 Y57.024 E16.84016
G1 X82.661 Y57.801 E16.88520
G1 X83.214 Y58.614 E16.93024
G1 X83.714 Y59.461 E16.97528
G1 X84.160 Y60.337 E17.02032
G1 X84.551 Y61.239 E17.06536
G1 X84.884 Y62.164 E17.11040
G1 X85.158 Y63.108 E17.15544
G1 X85.373 Y64.068 E17.20048
G1 X85.526 Y65.039 E17.24551
G1 X85.619 Y66.017 E17.29055
G1 X85.650 Y67.000 E17.33559
G1 X85.619 Y67.983 E17.38063
G1 X85.526 Y68.961 E17.42567
G1 X85.373 Y69.932 E17.47071
G1 X85.158 Y70.892 E17.51575
G1 X84.884 Y71.836 E17.56079
G1 X84.551 Y72.761 E17.60583
G1 X84.160 Y73.663 E17.65087
G1 X83.714 Y74.539 E17.69590
G1 X83.214 Y75.386 E17.74094
G1 X82.661 Y76.199 E17.78598
G1 X82.058 Y76.976 E17.83102
G1 X81.408 Y77.713 E17.87606
G1 X80.713 Y78.408 E17.92110
G1 X79.976 Y79.058 E17.96614
G1 X79.199 Y79.661 E18.01118
G1 X78.650 Y80.034 E18.04157
G1 X78.650 Y88.650 E18.43628
G1 X62.350 Y88.650 E19.18301
G1 X62.350 Y80.649 E19.54955
G1 X61.614 Y80.214 E19.58871
G1 X60.801 Y79.661 E19.63375
G1 X60.024 Y79.058 E19.67879
G1 X59.287 Y78.408 E19.72383
G1 X58.592 Y77.713 E19.76886
G1 X57.942 Y76.976 E19.81390
G1 X57.339 Y76.199 E19.85894
G1 X56.786 Y75.386 E19.90398
G1 X56.286 Y74.539 E19.94902
G1 X55.840 Y73.663 E19.99406
G1 X55.449 Y72.761 E20.03910
G1 X55.116 Y71.836 E20.08414
G1 X54.842 Y70.892 E20.12917
G1 X54.627 Y69.932 E20.17421
G1 X54.474 Y68.961 E20.21925
G1 X54.381 Y67.983 E20.26429
G1 X54.350 Y67.000 E20.30933
G1 X54.381 Y66.017 E20.35437
G1 X54.474 Y65.039 E20.39941
G1 X54.627 Y64.068 E20.44445
G1 X54.842 Y63.108 E20.48949
G1 X55.116 Y62.164 E20.53452
G1 X55.449 Y61.239 E20.57956
G1 X55.840 Y60.337 E20.62460
G1 X56.286 Y59.461 E20.66964
G1 X56.786 Y58.614 E20.71468
G1 X57.339 Y57.801 E20.75972
G1 X57.971 Y56.992 E20.80676
G1 F2400.000 E18.10676
G92 E0
G1 X63.747 Y80.060 F4800.000
G1 E2.70000 F2400.000
G1 X71.205 Y87.518 E3.18318 F900.000
G1 X70.244 Y87.518 E3.22717
G1 X63.482 Y80.756 E3.66528
G1 X63.482 Y81.716 E3.70927
G1 X69.284 Y87.518 E4.08517
G1 X68.324 Y87.518 E4.12916
G1 X63.482 Y82.676 E4.44284
G1 X63.482 Y83.637 E4.48683
G1 X67.363 Y87.518 E4.73829
G1 X66.403 Y87.518 E4.78228
G1 X63.482 Y84.597 E4.97153
G1 X63.482 Y85.557 E5.01552
G1 X65.443 Y87.518 E5.14255
G1 X64.482 Y87.518 E5.18654
G1 X63.482 Y86.518 E5.25135
