; generated by Slic3r 1.2.0 on 2014-09-18 at 09:09:37

; external perimeters extrusion width = 0.30mm
; perimeters extrusion width = 0.90mm
; infill extrusion width = 0.50mm
; solid infill extrusion width = 0.50mm
; top infill extrusion width = 0.60mm

G21 ; set units to millimeters
M107
M104 S210 ; set temperature
G21           ;metric is good!
G90           ;absolute positioning
G28           ;go home
G92 E0        ;reset extruder
M109 S210 ; wait for temperature to be reached
G90 ; use absolute coordinates
G92 E0
M82 ; use absolute distances for extrusion
G1 F2400.000 E-2.70000
G92 E0
G1 Z0.150 F3000.000
G1 X51.897 Y54.726 F3000.000
G1 E2.70000 F2400.000
G1 X53.750 Y54.164 E2.78544 F600.000
G1 X83.750 Y54.164 E4.10941
G1 X85.323 Y54.558 E4.18096
G1 X86.524 Y55.647 E4.25251 F600.000
G1 X87.052 Y57.028 E4.31777
G1 X89.585 Y75.000 E5.11873
G1 X89.585 Y77.500 E5.22906
G1 X89.233 Y78.991 E5.29668
G1 X86.734 Y83.991 E5.54337
G1 X85.678 Y85.222 E5.61492
G1 X83.750 Y85.836 E5.70422
G1 X53.750 Y85.836 E7.02819
G1 X52.177 Y85.442 E7.09974
G1 X50.976 Y84.353 E7.17129
G1 X50.414 Y82.500 E7.25673
G1 X50.414 Y57.500 E8.36004
G1 X50.808 Y55.927 E8.43159
G1 X51.867 Y54.760 E8.50115
G1 X52.358 Y55.290 F3000.000
G1 X52.537 Y55.124 E8.51191 F600.000
G1 X53.750 Y54.832 E8.56698
G1 X83.750 Y54.832 E9.89095
G1 X85.143 Y55.225 E9.95482
G1 X86.126 Y56.287 E10.01868 F600.000
G1 X86.391 Y57.123 E10.05739
G1 X88.917 Y75.000 E10.85419
G1 X88.917 Y77.500 E10.96452
G1 X88.635 Y78.693 E11.01860
G1 X86.136 Y83.693 E11.26529
G1 X85.163 Y84.763 E11.32916
G1 X83.750 Y85.168 E11.39400
G1 X53.750 Y85.168 E12.71797
G1 X52.357 Y84.775 E12.78184
G1 X51.374 Y83.713 E12.84570
G1 X51.082 Y82.500 E12.90078
G1 X51.082 Y57.500 E14.00408
G1 X51.475 Y56.107 E14.06795
G1 X52.325 Y55.320 E14.11907
G1 F2400.000 E11.41907
G92 E0
G1 X59.962 Y79.730 F3000.000
G1 E2.70000 F2400.000
G1 X62.538 Y79.730 E2.81365 F600.000
G1 X63.058 Y78.828 E2.85961
G1 X63.469 Y79.281 E2.88658
G1 X63.652 Y79.447 E2.89749
G1 X64.063 Y79.722 E2.91929
G1 X64.519 Y79.911 E2.94107
G1 X64.758 Y79.971 E2.95198
G1 X65.003 Y80.007 E2.96290
G1 X65.497 Y80.007 E2.98469
G1 X65.981 Y79.910 E3.00650
G1 X66.437 Y79.722 E3.02828
G1 X66.848 Y79.447 E3.05008
G1 X67.031 Y79.281 E3.06098
G1 X67.270 Y79.018 E3.07667
G1 X67.732 Y79.018 E3.09707
G1 X67.732 Y81.482 E3.20583
G1 X54.768 Y81.482 E3.77798
G1 X54.768 Y78.244 E3.92089
G1 X55.404 Y78.766 E3.95722
G1 X55.667 Y78.907 E3.97039
G1 X55.953 Y78.993 E3.98357
G1 X56.250 Y79.023 E3.99674
G1 X56.547 Y78.993 E4.00991
G1 X56.833 Y78.907 E4.02308
G1 X57.045 Y78.793 E4.03371
G1 X57.265 Y78.974 E4.04628
G1 X57.572 Y79.138 E4.06161
G1 X57.904 Y79.239 E4.07695
G1 X58.250 Y79.273 E4.09228
G1 X58.596 Y79.239 E4.10762
G1 X58.928 Y79.138 E4.12296
G1 X59.457 Y78.855 E4.14942
G1 X59.940 Y79.691 E4.19202
G1 F2400.000 E1.49202
G92 E0
G1 X62.538 Y75.270 F3000.000
G1 E2.70000 F2400.000
G1 X59.962 Y75.270 E2.81365 F600.000
G1 X59.457 Y76.145 E2.85825
G1 X58.928 Y75.862 E2.88470
G1 X58.596 Y75.761 E2.90004
G1 X58.250 Y75.727 E2.91538
G1 X57.904 Y75.761 E2.93072
G1 X57.572 Y75.862 E2.94605
G1 X57.265 Y76.026 E2.96139
G1 X57.045 Y76.207 E2.97395
G1 X56.833 Y76.093 E2.98458
G1 X56.547 Y76.007 E2.99775
G1 X56.250 Y75.977 E3.01093
G1 X55.953 Y76.007 E3.02410
G1 X55.667 Y76.093 E3.03727
G1 X55.404 Y76.234 E3.05045
G1 X54.768 Y76.756 E3.08677
G1 X54.768 Y58.518 E3.89166
G1 X82.732 Y58.518 E5.12579
G1 X82.732 Y71.482 E5.69794
G1 X72.732 Y71.482 E6.13926
G1 X72.732 Y72.982 E6.20546
G1 X67.732 Y72.982 E6.42612
G1 X67.732 Y73.482 E6.44819
G1 X66.733 Y73.482 E6.49228
G1 X66.733 Y75.418 E6.57772
G1 X66.214 Y75.173 E6.60306
G1 X65.741 Y75.029 E6.62486
G1 X65.250 Y74.981 E6.64665
G1 X64.759 Y75.029 E6.66844
G1 X64.286 Y75.173 E6.69024
G1 X63.851 Y75.405 E6.71203
G1 X63.469 Y75.719 E6.73383
G1 X63.058 Y76.172 E6.76080
G1 X62.560 Y75.309 E6.80477
G1 F2400.000 E4.10477
G92 E0
G1 X62.152 Y79.062 F3000.000
G1 E2.70000 F2400.000
G1 X63.026 Y77.548 E2.77717 F600.000
G1 X63.399 Y77.619 E2.79392
G1 X63.435 Y77.861 E2.80472
G1 X63.540 Y78.208 E2.82072
G1 X63.711 Y78.528 E2.83673
G1 X63.942 Y78.808 E2.85274
G1 X64.076 Y78.930 E2.86075
G1 X64.378 Y79.132 E2.87676
G1 X64.713 Y79.271 E2.89277
G1 X64.889 Y79.315 E2.90078
G1 X65.069 Y79.342 E2.90880
G1 X65.431 Y79.342 E2.92481
G1 X65.787 Y79.271 E2.94082
G1 X66.122 Y79.132 E2.95683
G1 X66.424 Y78.930 E2.97284
G1 X66.680 Y78.674 E2.98884
G1 X66.882 Y78.372 E3.00486
G1 X66.984 Y78.157 E3.01536
G1 X67.401 Y78.251 E3.03423
G1 X67.401 Y78.350 E3.03861
G1 X68.400 Y78.350 E3.08270
G1 X68.400 Y81.350 E3.21510
G1 X83.400 Y81.350 E3.87709
G1 X83.400 Y82.150 E3.91239
G1 X54.100 Y82.150 E5.20547
G1 X54.100 Y57.850 E6.27788
G1 X83.400 Y57.850 E7.57096
G1 X83.400 Y72.150 E8.20205
G1 X73.400 Y72.150 E8.64337
G1 X73.400 Y73.650 E8.70957
G1 X68.400 Y73.650 E8.93023
G1 X68.400 Y74.150 E8.95230
G1 X67.401 Y74.150 E8.99639
G1 X67.401 Y76.749 E9.11110
G1 X66.984 Y76.843 E9.12997
G1 X66.882 Y76.628 E9.14048
G1 X66.680 Y76.326 E9.15649
G1 X66.424 Y76.070 E9.17249
G1 X66.278 Y75.961 E9.18051
G1 X66.122 Y75.868 E9.18852
G1 X65.787 Y75.729 E9.20453
G1 X65.611 Y75.685 E9.21255
G1 X65.250 Y75.650 E9.22855
G1 X64.889 Y75.685 E9.24456
G1 X64.542 Y75.790 E9.26057
G1 X64.378 Y75.868 E9.26859
G1 X64.076 Y76.070 E9.28460
G1 X63.820 Y76.326 E9.30060
G1 X63.618 Y76.628 E9.31661
G1 X63.479 Y76.963 E9.33262
G1 X63.399 Y77.381 E9.35141
G1 X63.026 Y77.452 E9.36816
G1 X62.152 Y75.938 E9.44533
G1 X60.348 Y75.938 E9.52495
G1 X59.470 Y77.457 E9.60240
G1 X59.166 Y76.888 E9.63090
G1 X59.029 Y76.721 E9.64043
G1 X58.862 Y76.584 E9.64997
G1 X58.672 Y76.482 E9.65950
G1 X58.465 Y76.419 E9.66903
G1 X58.250 Y76.398 E9.67856
G1 X58.035 Y76.419 E9.68809
G1 X57.828 Y76.482 E9.69762
G1 X57.638 Y76.584 E9.70715
G1 X57.471 Y76.721 E9.71668
G1 X57.334 Y76.888 E9.72621
G1 X57.141 Y77.249 E9.74430
G1 X56.852 Y76.898 E9.76437
G1 X56.723 Y76.792 E9.77174
G1 X56.576 Y76.713 E9.77911
G1 X56.416 Y76.665 E9.78648
G1 X56.250 Y76.648 E9.79385
G1 X56.084 Y76.665 E9.80122
G1 X55.924 Y76.713 E9.80858
G1 X55.777 Y76.792 E9.81595
G1 X55.648 Y76.898 E9.82332
G1 X55.542 Y77.027 E9.83069
G1 X55.463 Y77.174 E9.83806
G1 X55.415 Y77.334 E9.84543
G1 X55.398 Y77.500 E9.85280
G1 X55.415 Y77.666 E9.86016
G1 X55.463 Y77.826 E9.86753
G1 X55.542 Y77.973 E9.87490
G1 X55.648 Y78.102 E9.88227
G1 X55.777 Y78.208 E9.88964
G1 X55.924 Y78.287 E9.89701
G1 X56.084 Y78.335 E9.90437
G1 X56.250 Y78.352 E9.91174
G1 X56.416 Y78.335 E9.91911
G1 X56.576 Y78.287 E9.92648
G1 X56.723 Y78.208 E9.93385
G1 X56.852 Y78.102 E9.94122
G1 X57.141 Y77.751 E9.96129
G1 X57.334 Y78.112 E9.97937
G1 X57.471 Y78.279 E9.98891
G1 X57.638 Y78.416 E9.99844
G1 X57.828 Y78.518 E10.00797
G1 X58.035 Y78.581 E10.01750
G1 X58.250 Y78.602 E10.02703
G1 X58.465 Y78.581 E10.03656
G1 X58.672 Y78.518 E10.04609
G1 X58.862 Y78.416 E10.05562
G1 X59.029 Y78.279 E10.06516
G1 X59.166 Y78.112 E10.07469
G1 X59.470 Y77.542 E10.10319
G1 X60.348 Y79.062 E10.18065
G1 X62.107 Y79.062 E10.25828
G1 X63.537 Y79.938 F3000.000
G1 X63.696 Y80.097 E10.26819 F600.000
G1 X63.579 Y81.018 E10.30917
G1 X62.755 Y80.194 E10.36058
G1 X62.541 Y81.018 E10.39814
G1 X61.717 Y80.194 E10.44955
G1 X61.502 Y81.018 E10.48711
G1 X60.679 Y80.194 E10.53852
G1 X60.464 Y81.018 E10.57608
G1 X59.036 Y79.590 E10.66520
G1 X58.135 Y79.728 E10.70542
G1 X59.426 Y81.018 E10.78594
G1 X58.387 Y81.018 E10.83177
G1 X56.778 Y79.409 E10.93222
G1 X55.747 Y79.416 E10.97772
G1 X57.349 Y81.018 E11.07772
G1 X56.310 Y81.018 E11.12354
G1 X55.232 Y79.940 E11.19085
G1 X55.232 Y80.978 E11.23668
G1 X55.272 Y81.018 E11.23917
G1 X64.306 Y80.241 F3000.000
G1 X64.636 Y80.721 E11.27836 F600.000
G1 X65.231 Y80.751 E11.31841
G1 X65.589 Y80.742 E11.34254
G1 X66.192 Y80.682 E11.38327
G1 X66.812 Y80.562 E11.42577
G1 X67.398 Y79.535 E11.50532
G1 F2400.000 E8.80532
G92 E0
G1 X55.267 Y75.781 F3000.000
G1 E2.70000 F2400.000
G1 X55.232 Y75.746 E2.70217 F600.000
G1 X55.232 Y74.795 E2.74415
G1 X55.975 Y75.538 E2.79053
G1 X57.019 Y75.631 E2.83681
G1 X55.232 Y73.844 E2.94837
G1 X55.232 Y72.892 E2.99035
G1 X57.683 Y75.343 E3.14333
G1 X58.585 Y75.294 E3.18319
G1 X55.232 Y71.941 E3.39245
G1 X55.232 Y70.990 E3.43443
G1 X59.458 Y75.215 E3.69818
G1 X59.999 Y74.806 E3.72815
G1 X55.232 Y70.038 E4.02568
G1 X55.232 Y69.087 E4.06767
G1 X60.951 Y74.806 E4.42458
G1 X61.902 Y74.806 E4.46656
G1 X55.232 Y68.136 E4.88285
G1 X55.232 Y67.184 E4.92483
G1 X63.302 Y75.255 E5.42853
G1 X63.868 Y74.870 E5.45875
G1 X55.232 Y66.233 E5.99777
G1 X55.232 Y65.282 E6.03976
G1 X64.556 Y74.606 E6.62169
G1 X65.434 Y74.533 E6.66058
G1 X55.232 Y64.330 E7.29733
G1 X55.232 Y63.379 E7.33932
G1 X66.269 Y74.416 E8.02816
G1 X66.269 Y73.465 E8.07015
G1 X55.232 Y62.428 E8.75899
G1 X55.232 Y61.477 E8.80098
G1 X66.773 Y73.018 E9.52131
G1 X67.268 Y72.561 E9.55102
G1 X55.232 Y60.525 E10.30222
G1 X55.232 Y59.574 E10.34421
G1 X68.176 Y72.518 E11.15208
G1 X69.127 Y72.518 E11.19407
G1 X55.591 Y58.982 E12.03889
G1 X56.543 Y58.982 E12.08087
G1 X70.079 Y72.518 E12.92569
G1 X71.030 Y72.518 E12.96768
G1 X57.494 Y58.982 E13.81250
G1 X58.445 Y58.982 E13.85448
G1 X71.981 Y72.518 E14.69930
G1 X72.268 Y71.853 E14.73125
G1 X59.397 Y58.982 E15.53459
G1 X60.348 Y58.982 E15.57657
G1 X72.384 Y71.018 E16.32777
G1 X73.335 Y71.018 E16.36976
G1 X61.299 Y58.982 E17.12096
G1 X62.250 Y58.982 E17.16294
G1 X74.287 Y71.018 E17.91415
G1 X75.238 Y71.018 E17.95613
G1 X63.202 Y58.982 E18.70733
G1 X64.153 Y58.982 E18.74932
G1 X76.189 Y71.018 E19.50052
G1 X77.141 Y71.018 E19.54250
G1 X65.104 Y58.982 E20.29371
G1 X66.056 Y58.982 E20.33569
G1 X78.092 Y71.018 E21.08689
G1 X79.043 Y71.018 E21.12887
G1 X67.007 Y58.982 E21.88008
G1 X67.958 Y58.982 E21.92206
G1 X79.994 Y71.018 E22.67326
G1 X80.946 Y71.018 E22.71525
G1 X68.910 Y58.982 E23.46645
G1 X69.861 Y58.982 E23.50843
G1 X81.897 Y71.018 E24.25964
G1 X82.268 Y70.438 E24.29003
G1 X70.812 Y58.982 E25.00501
G1 X71.764 Y58.982 E25.04700
G1 X82.268 Y69.486 E25.70261
G1 X82.268 Y68.535 E25.74459
G1 X72.715 Y58.982 E26.34082
G1 X73.666 Y58.982 E26.38281
G1 X82.268 Y67.584 E26.91967
G1 X82.268 Y66.632 E26.96165
G1 X74.618 Y58.982 E27.43914
G1 X75.569 Y58.982 E27.48112
G1 X82.268 Y65.681 E27.89923
G1 X82.268 Y64.730 E27.94122
G1 X76.520 Y58.982 E28.29995
G1 X77.471 Y58.982 E28.34194
G1 X82.268 Y63.779 E28.64130
G1 X82.268 Y62.827 E28.68329
G1 X78.423 Y58.982 E28.92328
G1 X79.374 Y58.982 E28.96526
G1 X82.268 Y61.876 E29.14588
G1 X82.268 Y60.925 E29.18786
G1 X80.325 Y58.982 E29.30911
G1 X81.277 Y58.982 E29.35109
G1 X82.268 Y59.973 E29.41296
G1 X82.268 Y59.022 E29.45494
G1 X82.228 Y58.982 E29.45744
G1 F2400.000 E26.75744
G92 E0
G1 X85.099 Y75.350 F3000.000
G1 E2.70000 F2400.000
G1 X85.899 Y75.350 E2.73531 F600.000
G1 X85.899 Y77.150 E2.81474
G1 X85.099 Y77.150 E2.85005
G1 X85.099 Y75.395 E2.92750
M104 S197 ; set temperature
G1 F2400.000 E0.22750
G92 E0
G1 Z0.350 F3000.000
G1 X55.612 Y77.373 F3000.000
G1 E2.70000 F2400.000
G1 X55.649 Y77.251 E2.70289 F1200.000
G1 X55.709 Y77.138 E2.70578
G1 X55.790 Y77.040 E2.70867
G1 X55.888 Y76.959 E2.71156
G1 X56.001 Y76.899 E2.71445
G1 X56.123 Y76.862 E2.71734
G1 X56.250 Y76.849 E2.72023
G1 X56.377 Y76.862 E2.72312
G1 X56.499 Y76.899 E2.72601
G1 X56.612 Y76.959 E2.72890
G1 X56.710 Y77.040 E2.73179
G1 X56.791 Y77.138 E2.73468
G1 X56.851 Y77.251 E2.73757
G1 X56.901 Y77.500 E2.74332
G1 X56.851 Y77.749 E2.74907
G1 X56.791 Y77.862 E2.75196
G1 X56.710 Y77.960 E2.75485
G1 X56.612 Y78.041 E2.75774
G1 X56.499 Y78.101 E2.76063
G1 X56.377 Y78.138 E2.76352
G1 X56.250 Y78.151 E2.76641
G1 X56.123 Y78.138 E2.76930
G1 X56.001 Y78.101 E2.77218
G1 X55.888 Y78.041 E2.77507
G1 X55.790 Y77.960 E2.77796
G1 X55.709 Y77.862 E2.78085
G1 X55.649 Y77.749 E2.78374
G1 X55.612 Y77.627 E2.78663
G1 X55.607 Y77.418 E2.79137
G1 X57.349 Y77.500 F3000.000
G1 X57.367 Y77.324 E2.79537 F1200.000
G1 X57.418 Y77.155 E2.79937
G1 X57.501 Y77.000 E2.80337
G1 X57.613 Y76.863 E2.80737
G1 X57.750 Y76.751 E2.81137
G1 X57.905 Y76.668 E2.81537
G1 X58.074 Y76.617 E2.81937
G1 X58.250 Y76.599 E2.82337
G1 X58.404 Y76.614 E2.82687
G1 X58.595 Y76.668 E2.83136 F1200.000
G1 X58.750 Y76.751 E2.83536
G1 X58.887 Y76.863 E2.83936
G1 X58.999 Y77.000 E2.84336
G1 X59.082 Y77.155 E2.84736
G1 X59.133 Y77.324 E2.85136
G1 X59.151 Y77.500 E2.85536
G1 X59.133 Y77.676 E2.85936
G1 X59.082 Y77.845 E2.86336
G1 X58.999 Y78.000 E2.86736
G1 X58.887 Y78.137 E2.87136
G1 X58.731 Y78.259 E2.87585
G1 X58.595 Y78.332 E2.87935
G1 X58.426 Y78.383 E2.88335
G1 X58.250 Y78.401 E2.88735
G1 X58.074 Y78.383 E2.89135
G1 X57.905 Y78.332 E2.89535
G1 X57.750 Y78.249 E2.89935
G1 X57.613 Y78.137 E2.90335
G1 X57.501 Y78.000 E2.90735
G1 X57.418 Y77.845 E2.91135
G1 X57.367 Y77.676 E2.91535
G1 X57.354 Y77.545 E2.91833
G1 F2400.000 E0.21833
G92 E0
G1 X60.463 Y78.862 F3000.000
G1 E2.70000 F2400.000
G1 X59.677 Y77.500 E2.73564 F1200.000
G1 X60.463 Y76.138 E2.77127
G1 X62.037 Y76.138 E2.80691
G1 X62.823 Y77.500 E2.84255
G1 X62.037 Y78.862 E2.87818
G1 X60.508 Y78.862 E2.91280
G1 F2400.000 E0.21280
G92 E0
G1 X63.671 Y77.979 F3000.000
G1 E2.70000 F2400.000
G1 X63.608 Y77.662 E2.70733 F1200.000
G1 X63.595 Y77.422 E2.71277
G1 X63.632 Y77.178 E2.71835
G1 X63.671 Y77.021 E2.72202
G1 X63.795 Y76.722 E2.72935
G1 X63.974 Y76.453 E2.73668
G1 X64.203 Y76.224 E2.74400
G1 X64.640 Y75.900 E2.75634
G1 X64.640 Y75.954 E2.75754
G1 X65.088 Y75.858 E2.76792
G1 X65.397 Y75.857 E2.77491
G1 X65.729 Y75.921 E2.78257 F1200.000
G1 X66.015 Y76.038 E2.78957
G1 X66.167 Y76.128 E2.79357
G1 X66.417 Y76.333 E2.80089
G1 X66.622 Y76.583 E2.80822
G1 X66.705 Y76.722 E2.81189
G1 X66.829 Y77.021 E2.81922
G1 X66.868 Y77.178 E2.82289
G1 X66.900 Y77.500 E2.83022
G1 X66.868 Y77.822 E2.83754
G1 X66.829 Y77.979 E2.84121
G1 X66.644 Y78.417 E2.85198
G1 X66.297 Y78.776 E2.86328
G1 X66.028 Y78.955 E2.87061
G1 X65.881 Y79.025 E2.87428
G1 X65.572 Y79.118 E2.88161
G1 X65.412 Y79.142 E2.88528
G1 X65.088 Y79.142 E2.89260
G1 X64.771 Y79.079 E2.89993
G1 X64.333 Y78.894 E2.91070
G1 X63.974 Y78.547 E2.92200
G1 X63.795 Y78.278 E2.92933
G1 X63.686 Y78.021 E2.93564
G1 X62.358 Y79.420 F3000.000
G1 X63.080 Y78.169 E3.04466 F1200.000
G1 X63.414 Y78.727 E3.09374
G1 X63.543 Y78.901 E3.11010
G1 X63.689 Y79.061 E3.12646
G1 X64.352 Y79.663 E3.19408
G1 X64.443 Y79.571 E3.20383
G1 X64.819 Y79.666 E3.23308
G1 X65.250 Y79.708 E3.26578
G1 X65.681 Y79.666 E3.29847
G1 X65.891 Y79.613 E3.31484
G1 X66.291 Y79.447 E3.34751
G1 X66.477 Y79.336 E3.36388
G1 X66.811 Y79.061 E3.39657
G1 X67.132 Y78.707 E3.43267
G1 X68.043 Y78.707 E3.50144
G1 X68.043 Y81.793 E3.73448
G1 X54.457 Y81.793 E4.76049
G1 X54.457 Y77.755 E5.06544
G1 X55.042 Y77.668 E5.11010
G1 X55.132 Y77.963 E5.13339
G1 X55.244 Y78.173 E5.15131
G1 X55.394 Y78.356 E5.16923
G1 X55.577 Y78.506 E5.18715
G1 X55.787 Y78.618 E5.20508
G1 X56.014 Y78.687 E5.22300
G1 X56.250 Y78.710 E5.24092
G1 X56.486 Y78.687 E5.25883
G1 X56.713 Y78.618 E5.27676
G1 X57.082 Y78.421 E5.30830
G1 X57.439 Y78.714 E5.34318
G1 X57.691 Y78.849 E5.36479
G1 X57.965 Y78.932 E5.38641
G1 X58.250 Y78.960 E5.40804
G1 X58.535 Y78.932 E5.42966
G1 X58.809 Y78.849 E5.45129
G1 X59.061 Y78.714 E5.47290
G1 X59.518 Y78.340 E5.51753
G1 X60.142 Y79.420 E5.61171
G1 X62.313 Y79.420 E5.77570
G1 F2400.000 E3.07570
G92 E0
G1 X65.197 Y74.794 F3000.000
G1 E2.70000 F2400.000
G1 X63.849 Y75.793 E2.82675 F1200.000
G1 X63.689 Y75.939 E2.84312
G1 X63.414 Y76.273 E2.87579
G1 X63.080 Y76.831 E2.92488
G1 X62.358 Y75.580 E3.03390
G1 X60.142 Y75.580 E3.20128
G1 X59.518 Y76.660 E3.29546
G1 X59.061 Y76.286 E3.34009
G1 X58.809 Y76.151 E3.36171
G1 X58.535 Y76.068 E3.38334
G1 X58.250 Y76.040 E3.40495
G1 X57.965 Y76.068 E3.42658
G1 X57.691 Y76.151 E3.44820
G1 X57.439 Y76.286 E3.46982
G1 X57.082 Y76.579 E3.50469
G1 X56.713 Y76.382 E3.53624
G1 X56.486 Y76.313 E3.55416
G1 X56.250 Y76.289 E3.57208
G1 X56.014 Y76.313 E3.59000
G1 X55.787 Y76.382 E3.60792
G1 X55.577 Y76.493 E3.62584
G1 X55.394 Y76.644 E3.64377
G1 X55.243 Y76.827 E3.66169
G1 X55.132 Y77.037 E3.67961
G1 X55.042 Y77.332 E3.70290
G1 X54.457 Y77.245 E3.74756
G1 X54.457 Y58.207 E5.18531
G1 X83.043 Y58.207 E7.34412
G1 X83.043 Y71.793 E8.37013
G1 X73.043 Y71.793 E9.12533
G1 X73.043 Y73.293 E9.23861
