; generated by Slic3r 1.0.0 on 2014-04-15 at 18:36:18

; layer_height = 0.24
; perimeters = 2
; top_solid_layers = 2
; bottom_solid_layers = 2
; fill_density = 0.25
; perimeter_speed = 50
; infill_speed = 50
; travel_speed = 200
; nozzle_diameter = 0.5
; filament_diameter = 1.70
; extrusion_multiplier = 1
; perimeters extrusion width = 0.48mm
; infill extrusion width = 0.49mm
; solid infill extrusion width = 0.46mm
; top infill extrusion width = 0.41mm
; first layer extrusion width = 0.50mm

G21 ; set units to millimeters
M107
G21           ;metric is good!
G90           ;absolute positioning
G28           ;go home
G92 E0        ;reset extruder
G90 ; use absolute coordinates
G92 E0
M82 ; use absolute distances for extrusion
G1 F2400.000 E-2.70000
G92 E0
G1 Z0.252 F12000.000
G1 X48.240 Y50.390 F12000.000
G1 E2.70000 F2400.000
G1 X48.520 Y50.140 E2.72084 F900.000
G1 X49.470 Y49.400 E2.78768
G1 X49.760 Y49.200 E2.80724
G1 X50.800 Y48.570 E2.87474
G1 X51.110 Y48.410 E2.89410
G1 X52.210 Y47.910 E2.96118
G1 X52.580 Y47.770 E2.98314
G1 X53.730 Y47.420 E3.04987
G1 X54.050 Y47.340 E3.06818
G1 X55.240 Y47.120 E3.13536
G1 X55.620 Y47.080 E3.15657
G1 X56.990 Y47.000 E3.23275
G1 X82.990 Y47.000 E4.67605
G1 X84.470 Y47.090 E4.75835
G1 X84.840 Y47.130 E4.77901
G1 X85.950 Y47.340 E4.84172
G1 X87.410 Y47.770 E4.92621
G1 X87.780 Y47.910 E4.94817
G1 X88.880 Y48.410 E5.01525
G1 X89.190 Y48.570 E5.03461
G1 X90.230 Y49.200 E5.10211
G1 X90.520 Y49.400 E5.12167
G1 X91.470 Y50.140 E5.18851
G1 X91.750 Y50.390 E5.20935
G1 X92.600 Y51.240 E5.27608
G1 X92.850 Y51.520 E5.29692
G1 X93.590 Y52.470 E5.36377
G1 X93.790 Y52.760 E5.38332
G1 X94.420 Y53.800 E5.45082
G1 X94.580 Y54.110 E5.47018
G1 X95.080 Y55.210 E5.53726
G1 X95.220 Y55.590 E5.55974
G1 X95.590 Y56.820 E5.63104
G1 X95.670 Y57.150 E5.64989
G1 X95.870 Y58.260 E5.71250
G1 X95.910 Y58.590 E5.73095
G1 X96.000 Y60.000 E5.80938
G1 X96.000 Y80.000 E6.91961
G1 X95.910 Y81.400 E6.99749
G1 X95.870 Y81.750 E7.01705
G1 X95.650 Y82.940 E7.08422
G1 X95.570 Y83.260 E7.10253
G1 X95.220 Y84.410 E7.16926
G1 X95.080 Y84.780 E7.19122
G1 X94.580 Y85.880 E7.25830
G1 X94.420 Y86.190 E7.27766
G1 X93.790 Y87.230 E7.34516
G1 X93.590 Y87.520 E7.36472
G1 X92.850 Y88.470 E7.43157
G1 X92.600 Y88.750 E7.45240
G1 X91.750 Y89.600 E7.51913
G1 X91.470 Y89.850 E7.53997
G1 X90.520 Y90.590 E7.60682
G1 X90.230 Y90.790 E7.62637
G1 X89.190 Y91.420 E7.69387
G1 X88.880 Y91.580 E7.71324
G1 X87.780 Y92.080 E7.78031
G1 X87.410 Y92.220 E7.80227
G1 X86.260 Y92.570 E7.86900
G1 X85.940 Y92.650 E7.88731
G1 X84.750 Y92.870 E7.95449
G1 X84.400 Y92.910 E7.97404
G1 X83.000 Y93.000 E8.05192
G1 X57.000 Y93.000 E9.49522
G1 X55.590 Y92.910 E9.57365
G1 X55.240 Y92.870 E9.59320
G1 X54.050 Y92.650 E9.66038
G1 X53.730 Y92.570 E9.67869
G1 X52.580 Y92.220 E9.74542
G1 X52.210 Y92.080 E9.76738
G1 X51.110 Y91.580 E9.83446
G1 X50.800 Y91.420 E9.85382
G1 X49.760 Y90.790 E9.92132
G1 X49.470 Y90.590 E9.94088
G1 X48.520 Y89.850 E10.00772
G1 X48.240 Y89.600 E10.02856
G1 X47.390 Y88.750 E10.09529
G1 X47.140 Y88.470 E10.11613
G1 X46.400 Y87.520 E10.18297
G1 X46.200 Y87.230 E10.20253
G1 X45.570 Y86.190 E10.27003
G1 X45.410 Y85.880 E10.28939
G1 X44.910 Y84.780 E10.35647
G1 X44.770 Y84.410 E10.37843
G1 X44.420 Y83.260 E10.44516
G1 X44.340 Y82.940 E10.46347
G1 X44.120 Y81.750 E10.53065
G1 X44.080 Y81.370 E10.55186
G1 X44.000 Y80.000 E10.62804
G1 X44.000 Y60.000 E11.73827
G1 X44.080 Y58.620 E11.81500
G1 X44.120 Y58.240 E11.83621
G1 X44.340 Y57.050 E11.90339
G1 X44.420 Y56.730 E11.92170
G1 X44.770 Y55.580 E11.98843
G1 X44.920 Y55.190 E12.01163
G1 X45.460 Y54.020 E12.08316
G1 X45.620 Y53.720 E12.10203
G1 X46.210 Y52.750 E12.16506
G1 X46.400 Y52.470 E12.18384
G1 X47.140 Y51.520 E12.25069
G1 X47.390 Y51.240 E12.27152
G1 X48.187 Y50.443 E12.33409
G1 F2400.000 E9.63409
G92 E0
G1 X48.590 Y50.740 F12000.000
G1 E2.70000 F2400.000
G1 X48.820 Y50.540 E2.71692 F900.000
G1 X50.010 Y49.630 E2.80008
G1 X51.050 Y49.000 E2.86758
G1 X51.320 Y48.860 E2.88446
G1 X52.420 Y48.360 E2.95154
G1 X52.720 Y48.250 E2.96927
G1 X54.150 Y47.830 E3.05201
G1 X55.640 Y47.570 E3.13597
G1 X56.840 Y47.500 E3.20270
G1 X83.140 Y47.500 E4.66265
G1 X84.430 Y47.580 E4.73440
G1 X84.740 Y47.620 E4.75175
G1 X85.850 Y47.830 E4.81446
G1 X87.270 Y48.250 E4.89666
G1 X87.570 Y48.360 E4.91440
G1 X88.670 Y48.860 E4.98147
G1 X88.940 Y49.000 E4.99836
G1 X89.980 Y49.630 E5.06585
G1 X91.170 Y50.540 E5.14901
G1 X91.400 Y50.740 E5.16593
G1 X92.250 Y51.590 E5.23266
G1 X92.450 Y51.820 E5.24958
G1 X93.360 Y53.010 E5.33274
G1 X93.990 Y54.050 E5.40024
G1 X94.130 Y54.320 E5.41712
G1 X94.630 Y55.420 E5.48420
G1 X94.740 Y55.730 E5.50246
G1 X95.180 Y57.240 E5.58977
G1 X95.380 Y58.350 E5.65238
G1 X95.500 Y60.000 E5.74421
G1 X95.500 Y80.000 E6.85444
G1 X95.380 Y81.650 E6.94628
G1 X95.160 Y82.840 E7.01346
G1 X95.090 Y83.120 E7.02948
G1 X94.740 Y84.270 E7.09621
G1 X94.630 Y84.570 E7.11394
G1 X94.130 Y85.670 E7.18102
G1 X93.990 Y85.940 E7.19790
G1 X93.360 Y86.980 E7.26540
G1 X92.450 Y88.170 E7.34856
G1 X92.250 Y88.400 E7.36548
G1 X91.400 Y89.250 E7.43221
G1 X91.170 Y89.450 E7.44913
G1 X89.980 Y90.360 E7.53229
G1 X88.940 Y90.990 E7.59979
G1 X88.670 Y91.130 E7.61667
G1 X87.570 Y91.630 E7.68375
G1 X87.270 Y91.740 E7.70148
G1 X85.840 Y92.160 E7.78422
G1 X84.650 Y92.380 E7.85140
G1 X83.000 Y92.500 E7.94323
G1 X57.000 Y92.500 E9.38653
G1 X55.630 Y92.410 E9.46275
G1 X55.340 Y92.380 E9.47893
G1 X54.150 Y92.160 E9.54611
G1 X52.720 Y91.740 E9.62884
G1 X52.420 Y91.630 E9.64658
G1 X51.320 Y91.130 E9.71365
G1 X51.050 Y90.990 E9.73054
G1 X50.010 Y90.360 E9.79804
G1 X48.820 Y89.450 E9.88120
G1 X48.590 Y89.250 E9.89812
G1 X47.740 Y88.400 E9.96484
G1 X47.540 Y88.170 E9.98176
G1 X46.630 Y86.980 E10.06492
G1 X46.000 Y85.940 E10.13242
G1 X45.860 Y85.670 E10.14931
G1 X45.360 Y84.570 E10.21638
G1 X45.250 Y84.270 E10.23412
G1 X44.830 Y82.840 E10.31685
G1 X44.570 Y81.350 E10.40081
G1 X44.500 Y80.150 E10.46754
G1 X44.500 Y59.860 E11.59387
G1 X44.570 Y58.650 E11.66115
G1 X44.610 Y58.340 E11.67850
G1 X44.830 Y57.150 E11.74568
G1 X45.250 Y55.720 E11.82841
G1 X45.370 Y55.400 E11.84739
G1 X46.040 Y53.980 E11.93455
G1 X46.630 Y53.010 E11.99757
G1 X47.540 Y51.820 E12.08073
G1 X47.740 Y51.590 E12.09765
G1 X48.537 Y50.793 E12.16022
G1 F2400.000 E9.46022
G92 E0
G1 X64.250 Y67.250 F12000.000
G1 E2.70000 F2400.000
G1 X67.250 Y67.250 E2.86653 F900.000
G1 X67.250 Y64.250 E3.03307
G1 X72.750 Y64.250 E3.33838
G1 X72.750 Y67.250 E3.50492
G1 X75.750 Y67.250 E3.67145
G1 X75.750 Y72.750 E3.97676
G1 X72.750 Y72.750 E4.14330
G1 X72.750 Y75.750 E4.30983
G1 X67.250 Y75.750 E4.61515
G1 X67.250 Y72.750 E4.78168
G1 X64.250 Y72.750 E4.94822
G1 X64.250 Y67.325 E5.24936
G1 X64.750 Y67.750 F12000.000
G1 X67.250 Y67.750 E5.38814 F360.000
G1 X67.250 Y72.250 E5.63795
G1 X64.750 Y72.250 E5.77672
G1 X64.750 Y67.825 E6.02236
G1 X64.750 Y67.250 F12000.000
G1 X67.750 Y67.250 F12000.000
G1 X67.750 Y64.750 E6.16114 F360.000
G1 X72.250 Y64.750 E6.41094
G1 X72.250 Y67.250 E6.54972
G1 X67.825 Y67.250 E6.79536
G1 X67.250 Y67.250 F12000.000
G1 X72.750 Y67.750 F12000.000
G1 X75.250 Y67.750 E6.93414 F360.000
G1 X75.250 Y72.250 E7.18394
G1 X72.750 Y72.250 E7.32272
G1 X72.750 Y67.825 E7.56836
G1 X72.750 Y67.250 F12000.000
G1 X71.248 Y68.752 F12000.000
G1 X71.630 Y69.325 E7.60658 F360.000
G1 X71.765 Y70.000 E7.64480
G1 X71.630 Y70.675 E7.68302
G1 X71.248 Y71.248 E7.72125
G1 X70.675 Y71.630 E7.75947
G1 X70.000 Y71.765 E7.79769
G1 X69.325 Y71.630 E7.83591
G1 X68.752 Y71.248 E7.87414
G1 X68.370 Y70.675 E7.91236
G1 X68.235 Y70.000 E7.95058
G1 X68.370 Y69.325 E7.98880
G1 X68.752 Y68.752 E8.02703
G1 X69.325 Y68.370 E8.06525
G1 X70.000 Y68.235 E8.10347
G1 X70.675 Y68.370 E8.14169
G1 X71.185 Y68.710 E8.17575
G1 X70.887 Y69.113 F12000.000
G1 X71.159 Y69.520 E8.20293 F360.000
G1 X71.255 Y70.000 E8.23011
G1 X71.159 Y70.480 E8.25729
G1 X70.887 Y70.887 E8.28447
G1 X70.480 Y71.159 E8.31166
G1 X70.000 Y71.255 E8.33884
G1 X69.520 Y71.159 E8.36602
G1 X69.113 Y70.887 E8.39320
G1 X68.841 Y70.480 E8.42038
G1 X68.745 Y70.000 E8.44756
G1 X68.841 Y69.520 E8.47474
G1 X69.113 Y69.113 E8.50192
G1 X69.520 Y68.841 E8.52910
G1 X70.000 Y68.745 E8.55628
G1 X70.480 Y68.841 E8.58346
G1 X70.825 Y69.071 E8.60648
G1 X71.368 Y69.017 F12000.000
G1 X72.250 Y72.750 F12000.000
G1 X72.250 Y75.250 E8.74526 F360.000
G1 X67.750 Y75.250 E8.99506
G1 X67.750 Y72.750 E9.13384
G1 X72.175 Y72.750 E9.37947
G1 X72.750 Y72.750 F12000.000
G1 X72.250 Y72.250 F12000.000
G1 X67.750 Y72.250 E9.62928 F360.000
G1 X67.750 Y67.750 E9.87908
G1 X72.250 Y67.750 E10.12888
G1 X72.250 Y72.175 E10.37452
G1 X82.977 Y89.250 F12000.000
G1 X57.023 Y89.250 E11.81530 F900.000
G1 X55.885 Y89.181 E11.87856
G1 X54.757 Y88.971 E11.94225
G1 X53.720 Y88.648 E12.00254
G1 X52.702 Y88.189 E12.06454
G1 X51.746 Y87.611 E12.12653
G1 X50.867 Y86.923 E12.18853
G1 X50.077 Y86.133 E12.25053
G1 X49.389 Y85.254 E12.31253
G1 X48.811 Y84.298 E12.37452
G1 X48.352 Y83.280 E12.43652
G1 X48.020 Y82.213 E12.49852
G1 X47.819 Y81.115 E12.56052
G1 X47.750 Y79.977 E12.62377
G1 X47.750 Y60.023 E13.73149
G1 X47.819 Y58.885 E13.79474
G1 X48.020 Y57.787 E13.85674
G1 X48.352 Y56.720 E13.91874
G1 X48.811 Y55.702 E13.98074
G1 X49.389 Y54.746 E14.04273
G1 X50.077 Y53.867 E14.10473
G1 X50.867 Y53.077 E14.16673
G1 X51.746 Y52.389 E14.22872
G1 X52.702 Y51.811 E14.29072
G1 X53.720 Y51.352 E14.35272
G1 X54.787 Y51.020 E14.41472
G1 X55.885 Y50.819 E14.47671
G1 X57.023 Y50.750 E14.53997
G1 X82.977 Y50.750 E15.98075
G1 X84.115 Y50.819 E16.04401
G1 X85.213 Y51.020 E16.10601
G1 X86.280 Y51.352 E16.16801
G1 X87.298 Y51.811 E16.23000
G1 X88.254 Y52.389 E16.29200
G1 X89.133 Y53.077 E16.35400
G1 X89.923 Y53.867 E16.41599
G1 X90.611 Y54.746 E16.47799
G1 X91.189 Y55.702 E16.53999
G1 X91.648 Y56.720 E16.60199
G1 X91.980 Y57.787 E16.66398
G1 X92.181 Y58.885 E16.72598
G1 X92.250 Y60.023 E16.78924
G1 X92.250 Y79.977 E17.89695
G1 X92.181 Y81.115 E17.96022
G1 X91.980 Y82.213 E18.02221
G1 X91.635 Y83.308 E18.08590
G1 X91.189 Y84.298 E18.14619
G1 X90.611 Y85.254 E18.20819
G1 X89.923 Y86.133 E18.27018
G1 X89.133 Y86.923 E18.33218
G1 X88.254 Y87.611 E18.39418
G1 X87.298 Y88.189 E18.45618
G1 X86.280 Y88.648 E18.51817
G1 X85.213 Y88.980 E18.58017
G1 X84.115 Y89.181 E18.64217
G1 X83.052 Y89.245 E18.70126
G1 X82.992 Y89.750 F12000.000
G1 X57.008 Y89.750 E20.14372 F720.000
G1 X55.825 Y89.678 E20.20950
G1 X54.609 Y89.448 E20.27821
G1 X53.543 Y89.116 E20.34018
G1 X52.469 Y88.633 E20.40554
G1 X51.462 Y88.024 E20.47089
G1 X50.535 Y87.298 E20.53625
G1 X49.702 Y86.465 E20.60160
G1 X48.976 Y85.538 E20.66696
G1 X48.367 Y84.531 E20.73231
G1 X47.884 Y83.457 E20.79767
G1 X47.534 Y82.333 E20.86302
G1 X47.322 Y81.175 E20.92838
G1 X47.250 Y79.992 E20.99415
G1 X47.250 Y60.008 E22.10355
G1 X47.322 Y58.825 E22.16932
G1 X47.534 Y57.667 E22.23468
G1 X47.884 Y56.543 E22.30003
G1 X48.367 Y55.469 E22.36539
G1 X48.976 Y54.462 E22.43074
G1 X49.702 Y53.535 E22.49610
G1 X50.535 Y52.702 E22.56145
G1 X51.462 Y51.976 E22.62681
G1 X52.469 Y51.367 E22.69216
G1 X53.601 Y50.866 E22.76088
G1 X54.667 Y50.534 E22.82285
G1 X55.825 Y50.322 E22.88820
G1 X57.008 Y50.250 E22.95398
G1 X82.992 Y50.250 E24.39644
G1 X84.175 Y50.322 E24.46221
G1 X85.333 Y50.534 E24.52757
G1 X86.457 Y50.884 E24.59292
G1 X87.531 Y51.367 E24.65828
G1 X88.538 Y51.976 E24.72363
G1 X89.465 Y52.702 E24.78899
G1 X90.298 Y53.535 E24.85434
G1 X91.024 Y54.462 E24.91970
G1 X91.633 Y55.469 E24.98505
G1 X92.116 Y56.543 E25.05041
G1 X92.466 Y57.667 E25.11576
G1 X92.678 Y58.825 E25.18112
G1 X92.750 Y60.008 E25.24689
G1 X92.750 Y79.992 E26.35629
G1 X92.678 Y81.175 E26.42206
G1 X92.466 Y82.333 E26.48742
G1 X92.091 Y83.513 E26.55613
G1 X91.633 Y84.531 E26.61810
G1 X91.024 Y85.538 E26.68346
G1 X90.298 Y86.465 E26.74881
G1 X89.465 Y87.298 E26.81417
G1 X88.538 Y88.024 E26.87952
G1 X87.531 Y88.633 E26.94488
G1 X86.457 Y89.116 E27.01023
G1 X85.333 Y89.466 E27.07559
G1 X84.175 Y89.678 E27.14094
G1 X83.067 Y89.745 E27.20256
G1 X82.734 Y89.322 F12000.000
G1 X66.898 Y75.428 F12000.000
G1 X64.572 Y73.102 E27.38608 F900.000
G1 X65.283 Y73.102 E27.42575
G1 X66.898 Y74.717 E27.55317
G1 X66.898 Y74.006 E27.59284
G1 X65.994 Y73.102 E27.66416
G1 X66.705 Y73.102 E27.70383
G1 X66.898 Y73.295 E27.71904
G1 F2400.000 E25.01904
G92 E0
G1 X73.295 Y66.898 F12000.000
G1 E2.70000 F2400.000
G1 X73.102 Y66.705 E2.71522 F900.000
G1 X73.102 Y65.994 E2.75489
G1 X74.006 Y66.898 E2.82620
G1 X74.717 Y66.898 E2.86587
G1 X73.102 Y65.283 E2.99329
G1 X73.102 Y64.572 E3.03297
G1 X75.428 Y66.898 E3.21649
G1 X76.102 Y67.572 F12000.000
G1 X91.405 Y82.874 E4.42417 F900.000
G1 X91.211 Y83.391 E4.45498
G1 X76.102 Y68.283 E5.64736
G1 X76.102 Y68.994 E5.68703
G1 X90.990 Y83.882 E6.86199
G1 X90.747 Y84.349 E6.89140
G1 X76.102 Y69.705 E8.04715
G1 X76.102 Y70.416 E8.08682
G1 X90.479 Y84.792 E9.22142
G1 X90.193 Y85.217 E9.25000
G1 X76.102 Y71.126 E10.36204
G1 X76.102 Y71.837 E10.40171
G1 X89.880 Y85.615 E11.48909
G1 X89.549 Y85.994 E11.51721
G1 X76.102 Y72.548 E12.57841
G1 X75.946 Y73.102 E12.61055
G1 X89.193 Y86.350 E13.65605
G1 X88.838 Y86.705 E13.68410
G1 X75.235 Y73.102 E14.75766
G1 X74.524 Y73.102 E14.79733
G1 X88.440 Y87.018 E15.89557
G1 X88.040 Y87.329 E15.92384
G1 X73.813 Y73.102 E17.04662
G1 X73.102 Y73.102 E17.08629
G1 X87.597 Y87.597 E18.23021
G1 X87.154 Y87.865 E18.25910
G1 X73.102 Y73.813 E19.36805
G1 X73.102 Y74.524 E19.40772
G1 X86.666 Y88.087 E20.47815
G1 X86.175 Y88.308 E20.50815
G1 X73.102 Y75.235 E21.53989
G1 X73.102 Y75.946 E21.57957
G1 X85.636 Y88.479 E22.56871
G1 X85.090 Y88.644 E22.60053
G1 X72.548 Y76.102 E23.59034
G1 X71.837 Y76.102 E23.63001
G1 X84.489 Y88.754 E24.62851
G1 X83.867 Y88.843 E24.66358
G1 X71.126 Y76.102 E25.66909
G1 X70.416 Y76.102 E25.70876
G1 X83.197 Y88.884 E26.71747
G1 X82.500 Y88.898 E26.75637
G1 X69.705 Y76.102 E27.76618
G1 X68.994 Y76.102 E27.80585
G1 X81.789 Y88.898 E28.81566
G1 X81.078 Y88.898 E28.85533
G1 X68.283 Y76.102 E29.86514
G1 X67.572 Y76.102 E29.90481
G1 X80.367 Y88.898 E30.91462
G1 X79.656 Y88.898 E30.95429
G1 X48.427 Y57.668 E33.41897
G1 X48.294 Y58.246 E33.45207
G1 X78.945 Y88.898 E35.87112
G1 X78.235 Y88.898 E35.91079
G1 X48.184 Y58.847 E38.28243
G1 X48.134 Y59.508 E38.31942
G1 X77.524 Y88.898 E40.63890
G1 X76.813 Y88.898 E40.67857
G1 X48.102 Y60.187 E42.94445
G1 X48.102 Y60.898 E42.98412
G1 X76.102 Y88.898 E45.19390
G1 X75.391 Y88.898 E45.23357
G1 X48.102 Y61.609 E47.38724
G1 X48.102 Y62.320 E47.42691
G1 X74.680 Y88.898 E49.52448
G1 X73.969 Y88.898 E49.56415
G1 X48.102 Y63.031 E51.60562
G1 X48.102 Y63.741 E51.64529
G1 X73.259 Y88.898 E53.63066
G1 X72.548 Y88.898 E53.67033
G1 X48.102 Y64.452 E55.59960
G1 X48.102 Y65.163 E55.63927
G1 X71.837 Y88.898 E57.51243
G1 X71.126 Y88.898 E57.55210
G1 X48.102 Y65.874 E59.36916
G1 X48.102 Y66.585 E59.40883
G1 X70.415 Y88.898 E61.16979
G1 X69.704 Y88.898 E61.20946
G1 X48.102 Y67.296 E62.91431
G1 X48.102 Y68.007 E62.95398
G1 X68.993 Y88.898 E64.60273
G1 X68.283 Y88.898 E64.64240
G1 X48.102 Y68.717 E66.23505
G1 X48.102 Y69.428 E66.27472
G1 X67.572 Y88.898 E67.81127
G1 X66.861 Y88.898 E67.85094
G1 X48.102 Y70.139 E69.33139
G1 X48.102 Y70.850 E69.37106
G1 X66.150 Y88.898 E70.79540
G1 X65.439 Y88.898 E70.83507
G1 X48.102 Y71.561 E72.20331
G1 X48.102 Y72.272 E72.24298
G1 X64.728 Y88.898 E73.55512
G1 X64.017 Y88.898 E73.59479
G1 X48.102 Y72.983 E74.85082
G1 X48.102 Y73.693 E74.89049
G1 X63.307 Y88.898 E76.09042
G1 X62.596 Y88.898 E76.13009
G1 X48.102 Y74.404 E77.27392
G1 X48.102 Y75.115 E77.31359
G1 X61.885 Y88.898 E78.40132
G1 X61.174 Y88.898 E78.44099
G1 X48.102 Y75.826 E79.47261
G1 X48.102 Y76.537 E79.51229
