; generated by Slic3r 1.0.0 on 2014-04-15 at 17:38:05

; layer_height = 0.24
; perimeters = 2
; top_solid_layers = 2
; bottom_solid_layers = 2
; fill_density = 0.25
; perimeter_speed = 50
; infill_speed = 50
; travel_speed = 200
; nozzle_diameter = 0.5
; filament_diameter = 1.70
; extrusion_multiplier = 1
; perimeters extrusion width = 0.48mm
; infill extrusion width = 0.49mm
; solid infill extrusion width = 0.46mm
; top infill extrusion width = 0.41mm
; first layer extrusion width = 0.50mm

G21 ; set units to millimeters
M107
G21           ;metric is good!
G90           ;absolute positioning
G28           ;go home
G92 E0        ;reset extruder
G90 ; use absolute coordinates
G92 E0
M82 ; use absolute distances for extrusion
G1 F2400.000 E-2.70000
G92 E0
G1 Z0.252 F12000.000
G1 X57.570 Y42.240 F12000.000
G1 E2.70000 F2400.000
G1 X58.240 Y41.570 E2.75260 F900.000
G1 X59.070 Y41.150 E2.80424
G1 X60.000 Y41.000 E2.85653
G1 X80.000 Y41.000 E3.96676
G1 X80.930 Y41.150 E4.01905
G1 X81.760 Y41.570 E4.07069
G1 X82.430 Y42.240 E4.12329
G1 X82.850 Y43.070 E4.17493
G1 X83.000 Y44.000 E4.22722
G1 X83.000 Y96.000 E7.11381
G1 X82.850 Y96.930 E7.16611
G1 X82.430 Y97.760 E7.21775
G1 X81.760 Y98.430 E7.27034
G1 X80.930 Y98.850 E7.32198
G1 X80.000 Y99.000 E7.37427
G1 X60.000 Y99.000 E8.48450
G1 X59.070 Y98.850 E8.53680
G1 X58.240 Y98.430 E8.58843
G1 X57.570 Y97.760 E8.64103
G1 X57.150 Y96.930 E8.69267
G1 X57.000 Y96.000 E8.74496
G1 X57.000 Y44.000 E11.63156
G1 X57.150 Y43.070 E11.68385
G1 X57.536 Y42.307 E11.73133
G1 X57.980 Y42.530 F12000.000
G1 X58.530 Y41.980 E11.77451 F900.000
G1 X59.230 Y41.620 E11.81820
G1 X60.000 Y41.500 E11.86146
G1 X80.000 Y41.500 E12.97169
G1 X80.770 Y41.620 E13.01495
G1 X81.470 Y41.980 E13.05865
G1 X82.020 Y42.530 E13.10182
G1 X82.380 Y43.230 E13.14552
G1 X82.500 Y44.000 E13.18878
G1 X82.500 Y96.000 E16.07538
G1 X82.380 Y96.770 E16.11864
G1 X82.020 Y97.470 E16.16233
G1 X81.470 Y98.020 E16.20551
G1 X80.770 Y98.380 E16.24921
G1 X80.000 Y98.500 E16.29247
G1 X60.000 Y98.500 E17.40269
G1 X59.230 Y98.380 E17.44595
G1 X58.530 Y98.020 E17.48965
G1 X57.980 Y97.470 E17.53283
G1 X57.620 Y96.770 E17.57652
G1 X57.500 Y96.000 E17.61978
G1 X57.500 Y44.000 E20.50638
G1 X57.620 Y43.230 E20.54964
G1 X57.946 Y42.597 E20.58917
G1 F2400.000 E17.88917
G92 E0
G1 X60.750 Y44.750 F12000.000
G1 E2.70000 F2400.000
G1 X79.250 Y44.750 E3.72696 F900.000
G1 X79.250 Y95.250 E6.53029
G1 X60.750 Y95.250 E7.55725
G1 X60.750 Y44.825 E10.35642
G1 X60.250 Y44.250 F12000.000
G1 X79.750 Y44.250 E11.43890 F720.000
G1 X79.750 Y95.750 E14.29774
G1 X60.250 Y95.750 E15.38021
G1 X60.250 Y44.325 E18.23489
G1 X60.683 Y44.500 F12000.000
G1 X78.898 Y45.122 F12000.000
G1 X78.878 Y45.102 E18.23647 F900.000
G1 X78.166 Y45.102 E18.27616
G1 X78.898 Y45.834 E18.33387
G1 X78.898 Y46.545 E18.37356
G1 X77.455 Y45.102 E18.48741
G1 X76.744 Y45.102 E18.52710
G1 X78.898 Y47.256 E18.69708
G1 X78.898 Y47.967 E18.73677
G1 X76.033 Y45.102 E18.96288
G1 X75.322 Y45.102 E19.00257
G1 X78.898 Y48.678 E19.28481
G1 X78.898 Y49.389 E19.32451
G1 X74.611 Y45.102 E19.66288
G1 X73.900 Y45.102 E19.70257
G1 X78.898 Y50.100 E20.09708
G1 X78.898 Y50.811 E20.13678
G1 X73.189 Y45.102 E20.58742
G1 X72.478 Y45.102 E20.62711
G1 X78.898 Y51.522 E21.13388
G1 X78.898 Y52.233 E21.17358
G1 X71.767 Y45.102 E21.73648
G1 X71.056 Y45.102 E21.77618
G1 X78.898 Y52.944 E22.39522
G1 X78.898 Y53.655 E22.43491
G1 X70.345 Y45.102 E23.11008
G1 X69.634 Y45.102 E23.14977
G1 X78.898 Y54.366 E23.88108
G1 X78.898 Y55.077 E23.92077
G1 X68.923 Y45.102 E24.70821
G1 X68.212 Y45.102 E24.74790
G1 X78.898 Y55.788 E25.59147
G1 X78.898 Y56.499 E25.63117
G1 X67.501 Y45.102 E26.53087
G1 X66.790 Y45.102 E26.57056
G1 X78.898 Y57.210 E27.52640
G1 X78.898 Y57.921 E27.56609
G1 X66.079 Y45.102 E28.57806
G1 X65.368 Y45.102 E28.61776
G1 X78.898 Y58.632 E29.68586
G1 X78.898 Y59.344 E29.72555
G1 X64.656 Y45.102 E30.84979
G1 X63.945 Y45.102 E30.88948
G1 X78.898 Y60.055 E32.06985
G1 X78.898 Y60.766 E32.10954
G1 X63.234 Y45.102 E33.34604
G1 X62.523 Y45.102 E33.38574
G1 X78.898 Y61.477 E34.67837
G1 X78.898 Y62.188 E34.71806
G1 X61.812 Y45.102 E36.06683
G1 X61.112 Y45.113 E36.10593
G1 X78.898 Y62.899 E37.50999
G1 X78.898 Y63.610 E37.54969
G1 X61.102 Y45.815 E38.95448
G1 X61.102 Y46.526 E38.99418
G1 X78.898 Y64.321 E40.39897
G1 X78.898 Y65.032 E40.43867
G1 X61.102 Y47.237 E41.84346
G1 X61.102 Y47.948 E41.88316
G1 X78.898 Y65.743 E43.28796
G1 X78.898 Y66.454 E43.32765
G1 X61.102 Y48.659 E44.73245
G1 X61.102 Y49.370 E44.77214
G1 X78.898 Y67.165 E46.17694
G1 X78.898 Y67.876 E46.21663
G1 X61.102 Y50.081 E47.62143
G1 X61.102 Y50.792 E47.66112
G1 X78.898 Y68.587 E49.06592
G1 X78.898 Y69.298 E49.10561
G1 X61.102 Y51.503 E50.51041
G1 X61.102 Y52.214 E50.55010
G1 X78.898 Y70.009 E51.95490
G1 X78.898 Y70.720 E51.99459
G1 X61.102 Y52.925 E53.39939
G1 X61.102 Y53.636 E53.43908
G1 X78.898 Y71.431 E54.84388
G1 X78.898 Y72.143 E54.88357
G1 X61.102 Y54.347 E56.28837
G1 X61.102 Y55.059 E56.32806
G1 X78.898 Y72.854 E57.73286
G1 X78.898 Y73.565 E57.77255
G1 X61.102 Y55.770 E59.17735
G1 X61.102 Y56.481 E59.21704
G1 X78.898 Y74.276 E60.62184
G1 X78.898 Y74.987 E60.66153
G1 X61.102 Y57.192 E62.06633
G1 X61.102 Y57.903 E62.10602
G1 X78.898 Y75.698 E63.51082
G1 X78.898 Y76.409 E63.55052
G1 X61.102 Y58.614 E64.95531
G1 X61.102 Y59.325 E64.99501
G1 X78.898 Y77.120 E66.39980
G1 X78.898 Y77.831 E66.43950
G1 X61.102 Y60.036 E67.84430
G1 X61.102 Y60.747 E67.88399
G1 X78.898 Y78.542 E69.28879
G1 X78.898 Y79.253 E69.32848
G1 X61.102 Y61.458 E70.73328
G1 X61.102 Y62.169 E70.77297
G1 X78.898 Y79.964 E72.17777
G1 X78.898 Y80.675 E72.21746
G1 X61.102 Y62.880 E73.62226
G1 X61.102 Y63.591 E73.66195
G1 X78.898 Y81.386 E75.06675
G1 X78.898 Y82.097 E75.10644
G1 X61.102 Y64.302 E76.51124
G1 X61.102 Y65.013 E76.55093
G1 X78.898 Y82.808 E77.95573
G1 X78.898 Y83.519 E77.99542
G1 X61.102 Y65.724 E79.40022
G1 X61.102 Y66.435 E79.43991
G1 X78.898 Y84.230 E80.84471
G1 X78.898 Y84.941 E80.88440
G1 X61.102 Y67.146 E82.28920
G1 X61.102 Y67.857 E82.32889
G1 X78.898 Y85.653 E83.73369
G1 X78.898 Y86.364 E83.77338
G1 X61.102 Y68.569 E85.17818
G1 X61.102 Y69.280 E85.21787
G1 X78.898 Y87.075 E86.62267
G1 X78.898 Y87.786 E86.66236
G1 X61.102 Y69.991 E88.06716
G1 X61.102 Y70.702 E88.10685
G1 X78.898 Y88.497 E89.51165
G1 X78.898 Y89.208 E89.55135
G1 X61.102 Y71.413 E90.95614
G1 X61.102 Y72.124 E90.99584
G1 X78.898 Y89.919 E92.40063
G1 X78.898 Y90.630 E92.44033
G1 X61.102 Y72.835 E93.84513
G1 X61.102 Y73.546 E93.88482
G1 X78.898 Y91.341 E95.28962
G1 X78.898 Y92.052 E95.32931
G1 X61.102 Y74.257 E96.73411
G1 X61.102 Y74.968 E96.77380
G1 X78.898 Y92.763 E98.17860
G1 X78.898 Y93.474 E98.21829
G1 X61.102 Y75.679 E99.62309
G1 X61.102 Y76.390 E99.66278
G1 X78.898 Y94.185 E101.06758
G1 X78.888 Y94.887 E101.10675
G1 X61.102 Y77.101 E102.51081
G1 X61.102 Y77.812 E102.55050
G1 X78.188 Y94.898 E103.89927
G1 X77.477 Y94.898 E103.93896
G1 X61.102 Y78.523 E105.23160
G1 X61.102 Y79.234 E105.27129
G1 X76.766 Y94.898 E106.50779
G1 X76.055 Y94.898 E106.54749
G1 X61.102 Y79.945 E107.72785
G1 X61.102 Y80.656 E107.76755
G1 X75.344 Y94.898 E108.89178
G1 X74.632 Y94.898 E108.93147
G1 X61.102 Y81.368 E109.99958
G1 X61.102 Y82.079 E110.03927
G1 X73.921 Y94.898 E111.05124
G1 X73.210 Y94.898 E111.09093
G1 X61.102 Y82.790 E112.04677
G1 X61.102 Y83.501 E112.08646
G1 X72.499 Y94.898 E112.98617
G1 X71.788 Y94.898 E113.02586
G1 X61.102 Y84.212 E113.86943
G1 X61.102 Y84.923 E113.90912
G1 X71.077 Y94.898 E114.69656
G1 X70.366 Y94.898 E114.73625
G1 X61.102 Y85.634 E115.46756
G1 X61.102 Y86.345 E115.50725
G1 X69.655 Y94.898 E116.18243
G1 X68.944 Y94.898 E116.22212
G1 X61.102 Y87.056 E116.84116
G1 X61.102 Y87.767 E116.88085
G1 X68.233 Y94.898 E117.44376
G1 X67.522 Y94.898 E117.48345
G1 X61.102 Y88.478 E117.99023
G1 X61.102 Y89.189 E118.02992
G1 X66.811 Y94.898 E118.48056
G1 X66.100 Y94.898 E118.52025
G1 X61.102 Y89.900 E118.91476
G1 X61.102 Y90.611 E118.95445
G1 X65.389 Y94.898 E119.29283
G1 X64.678 Y94.898 E119.33252
G1 X61.102 Y91.322 E119.61476
G1 X61.102 Y92.033 E119.65446
G1 X63.967 Y94.898 E119.88057
G1 X63.256 Y94.898 E119.92026
G1 X61.102 Y92.744 E120.09024
G1 X61.102 Y93.455 E120.12993
G1 X62.545 Y94.898 E120.24377
G1 X61.834 Y94.898 E120.28346
G1 X61.102 Y94.166 E120.34118
G1 X61.102 Y94.878 E120.38087
G1 X61.122 Y94.898 E120.38245
G1 F2400.000 E117.68245
G92 E0
G1 Z0.492 F12000.000
G1 X60.724 Y95.276 F12000.000
G1 E2.70000 F2400.000
G1 X60.724 Y44.724 E5.28860 F3000
G1 X79.276 Y44.724 E6.23856
G1 X79.276 Y95.276 E8.82716
G1 X60.797 Y95.276 E9.77340
G1 X60.240 Y95.760 F12000.000
G1 X60.240 Y44.240 E12.41160 F2400
G1 X79.760 Y44.240 E13.41116
G1 X79.760 Y95.760 E16.04935
G1 X60.313 Y95.760 E17.04520
G1 X60.482 Y95.341 F12000.000
G1 X78.939 Y94.919 F12000.000
G1 X78.919 Y94.939 E17.04660 F3000
G1 X78.255 Y94.939 E17.07955
G1 X78.939 Y94.255 E17.12756
G1 X78.939 Y93.591 E17.16051
G1 X77.591 Y94.939 E17.25512
G1 X76.927 Y94.939 E17.28807
G1 X78.939 Y92.927 E17.42928
G1 X78.939 Y92.263 E17.46223
G1 X76.263 Y94.939 E17.65004
G1 X75.599 Y94.939 E17.68299
G1 X78.939 Y91.599 E17.91740
G1 X78.939 Y90.936 E17.95036
G1 X74.936 Y94.939 E18.23137
G1 X74.272 Y94.939 E18.26432
G1 X78.939 Y90.272 E18.59193
G1 X78.939 Y89.608 E18.62489
G1 X73.608 Y94.939 E18.99910
G1 X72.944 Y94.939 E19.03205
G1 X78.939 Y88.944 E19.45287
G1 X78.939 Y88.280 E19.48582
G1 X72.280 Y94.939 E19.95324
G1 X71.616 Y94.939 E19.98619
G1 X78.939 Y87.616 E20.50021
G1 X78.939 Y86.952 E20.53317
G1 X70.952 Y94.939 E21.09379
G1 X70.288 Y94.939 E21.12674
G1 X78.939 Y86.288 E21.73396
G1 X78.939 Y85.625 E21.76691
G1 X69.625 Y94.939 E22.42074
G1 X68.961 Y94.939 E22.45369
G1 X78.939 Y84.961 E23.15412
G1 X78.939 Y84.297 E23.18707
G1 X68.297 Y94.939 E23.93409
G1 X67.633 Y94.939 E23.96705
G1 X78.939 Y83.633 E24.76068
G1 X78.939 Y82.969 E24.79363
G1 X66.969 Y94.939 E25.63386
G1 X66.305 Y94.939 E25.66681
G1 X78.939 Y82.305 E26.55364
G1 X78.939 Y81.641 E26.58659
G1 X65.641 Y94.939 E27.52003
G1 X64.977 Y94.939 E27.55298
G1 X78.939 Y80.977 E28.53301
G1 X78.939 Y80.314 E28.56596
G1 X64.314 Y94.939 E29.59260
G1 X63.650 Y94.939 E29.62555
G1 X78.939 Y79.650 E30.69879
G1 X78.939 Y78.986 E30.73174
G1 X62.986 Y94.939 E31.85158
G1 X62.322 Y94.939 E31.88453
G1 X78.939 Y78.322 E33.05097
G1 X78.939 Y77.658 E33.08392
G1 X61.658 Y94.939 E34.29696
G1 X61.061 Y94.872 E34.32678
G1 X78.939 Y76.994 E35.58172
G1 X78.939 Y76.330 E35.61467
G1 X61.061 Y94.208 E36.86961
G1 X61.061 Y93.544 E36.90256
G1 X78.939 Y75.666 E38.15751
G1 X78.939 Y75.003 E38.19046
G1 X61.061 Y92.880 E39.44540
G1 X61.061 Y92.216 E39.47835
G1 X78.939 Y74.339 E40.73329
G1 X78.939 Y73.675 E40.76624
G1 X61.061 Y91.552 E42.02119
G1 X61.061 Y90.889 E42.05414
G1 X78.939 Y73.011 E43.30908
G1 X78.939 Y72.347 E43.34203
G1 X61.061 Y90.225 E44.59697
G1 X61.061 Y89.561 E44.62992
G1 X78.939 Y71.683 E45.88487
G1 X78.939 Y71.019 E45.91782
G1 X61.061 Y88.897 E47.17276
G1 X61.061 Y88.233 E47.20571
G1 X78.939 Y70.355 E48.46065
G1 X78.939 Y69.692 E48.49360
G1 X61.061 Y87.569 E49.74855
G1 X61.061 Y86.905 E49.78150
G1 X78.939 Y69.028 E51.03644
G1 X78.939 Y68.364 E51.06939
G1 X61.061 Y86.241 E52.32433
G1 X61.061 Y85.578 E52.35728
G1 X78.939 Y67.700 E53.61223
G1 X78.939 Y67.036 E53.64518
G1 X61.061 Y84.914 E54.90012
G1 X61.061 Y84.250 E54.93307
G1 X78.939 Y66.372 E56.18801
G1 X78.939 Y65.708 E56.22096
G1 X61.061 Y83.586 E57.47591
G1 X61.061 Y82.922 E57.50886
G1 X78.939 Y65.044 E58.76380
G1 X78.939 Y64.380 E58.79675
G1 X61.061 Y82.258 E60.05169
G1 X61.061 Y81.594 E60.08464
G1 X78.939 Y63.717 E61.33959
G1 X78.939 Y63.053 E61.37254
G1 X61.061 Y80.930 E62.62748
G1 X61.061 Y80.267 E62.66043
G1 X78.939 Y62.389 E63.91537
G1 X78.939 Y61.725 E63.94832
G1 X61.061 Y79.603 E65.20327
G1 X61.061 Y78.939 E65.23622
G1 X78.939 Y61.061 E66.49116
G1 X78.939 Y60.397 E66.52411
G1 X61.061 Y78.275 E67.77905
G1 X61.061 Y77.611 E67.81200
G1 X78.939 Y59.733 E69.06695
G1 X78.939 Y59.069 E69.09990
G1 X61.061 Y76.947 E70.35484
G1 X61.061 Y76.283 E70.38779
G1 X78.939 Y58.406 E71.64273
G1 X78.939 Y57.742 E71.67568
G1 X61.061 Y75.619 E72.93063
G1 X61.061 Y74.956 E72.96358
G1 X78.939 Y57.078 E74.21852
G1 X78.939 Y56.414 E74.25147
G1 X61.061 Y74.292 E75.50641
G1 X61.061 Y73.628 E75.53936
G1 X78.939 Y55.750 E76.79431
G1 X78.939 Y55.086 E76.82726
G1 X61.061 Y72.964 E78.08220
G1 X61.061 Y72.300 E78.11515
G1 X78.939 Y54.422 E79.37009
G1 X78.939 Y53.758 E79.40304
G1 X61.061 Y71.636 E80.65799
G1 X61.061 Y70.972 E80.69094
G1 X78.939 Y53.095 E81.94588
G1 X78.939 Y52.431 E81.97883
G1 X61.061 Y70.308 E83.23377
G1 X61.061 Y69.645 E83.26672
G1 X78.939 Y51.767 E84.52166
G1 X78.939 Y51.103 E84.55462
G1 X61.061 Y68.981 E85.80956
G1 X61.061 Y68.317 E85.84251
G1 X78.939 Y50.439 E87.09745
G1 X78.939 Y49.775 E87.13040
G1 X61.061 Y67.653 E88.38535
G1 X61.061 Y66.989 E88.41830
G1 X78.939 Y49.111 E89.67324
G1 X78.939 Y48.447 E89.70619
G1 X61.061 Y66.325 E90.96113
G1 X61.061 Y65.661 E90.99408
G1 X78.939 Y47.784 E92.24903
G1 X78.939 Y47.120 E92.28198
G1 X61.061 Y64.997 E93.53692
G1 X61.061 Y64.334 E93.56987
G1 X78.939 Y46.456 E94.82481
G1 X78.939 Y45.792 E94.85776
G1 X61.061 Y63.670 E96.11271
G1 X61.061 Y63.006 E96.14566
G1 X78.939 Y45.128 E97.40060
G1 X78.342 Y45.061 E97.43042
G1 X61.061 Y62.342 E98.64345
G1 X61.061 Y61.678 E98.67640
G1 X77.678 Y45.061 E99.84284
G1 X77.014 Y45.061 E99.87579
G1 X61.061 Y61.014 E100.99562
G1 X61.061 Y60.350 E101.02858
G1 X76.350 Y45.061 E102.10181
G1 X75.686 Y45.061 E102.13476
G1 X61.061 Y59.686 E103.16139
G1 X61.061 Y59.022 E103.19434
G1 X75.022 Y45.061 E104.17437
G1 X74.359 Y45.061 E104.20732
G1 X61.061 Y58.359 E105.14075
G1 X61.061 Y57.695 E105.17370
G1 X73.695 Y45.061 E106.06053
G1 X73.031 Y45.061 E106.09348
G1 X61.061 Y57.031 E106.93371
G1 X61.061 Y56.367 E106.96666
G1 X72.367 Y45.061 E107.76028
G1 X71.703 Y45.061 E107.79324
G1 X61.061 Y55.703 E108.54026
G1 X61.061 Y55.039 E108.57321
G1 X71.039 Y45.061 E109.27363
G1 X70.375 Y45.061 E109.30658
G1 X61.061 Y54.375 E109.96040
G1 X61.061 Y53.711 E109.99335
G1 X69.711 Y45.061 E110.60057
G1 X69.048 Y45.061 E110.63352
G1 X61.061 Y53.048 E111.19414
G1 X61.061 Y52.384 E111.22709
G1 X68.384 Y45.061 E111.74111
G1 X67.720 Y45.061 E111.77406
G1 X61.061 Y51.720 E112.24147
G1 X61.061 Y51.056 E112.27442
G1 X67.056 Y45.061 E112.69524
G1 X66.392 Y45.061 E112.72819
G1 X61.061 Y50.392 E113.10240
G1 X61.061 Y49.728 E113.13535
G1 X65.728 Y45.061 E113.46296
G1 X65.064 Y45.061 E113.49591
G1 X61.061 Y49.064 E113.77692
G1 X61.061 Y48.400 E113.80987
G1 X64.400 Y45.061 E114.04428
G1 X63.737 Y45.061 E114.07723
G1 X61.061 Y47.737 E114.26504
G1 X61.061 Y47.073 E114.29799
G1 X63.073 Y45.061 E114.43919
G1 X62.409 Y45.061 E114.47214
G1 X61.061 Y46.409 E114.56675
G1 X61.061 Y45.745 E114.59970
G1 X61.745 Y45.061 E114.64770
G1 X61.081 Y45.061 E114.68065
G1 X61.061 Y45.081 E114.68205
G1 F2400.000 E111.98205
G92 E0
G1 Z0.732 F12000.000
G1 X60.724 Y44.724 F12000.000
G1 E2.70000 F2400.000
G1 X79.276 Y44.724 E3.64997 F3000
G1 X79.276 Y95.276 E6.23856
G1 X60.724 Y95.276 E7.18853
G1 X60.724 Y44.797 E9.77340
G1 X60.240 Y44.240 F12000.000
G1 X79.760 Y44.240 E10.77297 F2400
G1 X79.760 Y95.760 E13.41116
G1 X60.240 Y95.760 E14.41072
G1 X60.240 Y44.313 E17.04520
G1 X60.659 Y44.482 F12000.000
G1 X63.551 Y45.071 F12000.000
G1 X63.963 Y45.484 E17.07557 F3000
G1 X63.301 Y47.954 E17.20865
G1 X61.655 Y48.395 E17.29736
G1 X61.071 Y50.573 E17.41469
G1 X61.071 Y50.944 E17.43397
G1 X62.198 Y52.071 E17.51693
G1 X61.536 Y54.541 E17.65000
G1 X61.071 Y54.666 E17.67507
G1 X61.071 Y48.672 F12000.000
G1 X61.179 Y48.268 E17.69682 F3000
