; generated by Slic3r 1.0.0 on 2014-04-28 at 18:07:02

; layer_height = 0.24
; perimeters = 2
; top_solid_layers = 2
; bottom_solid_layers = 2
; fill_density = 0.25
; perimeter_speed = 50
; infill_speed = 50
; travel_speed = 200
; nozzle_diameter = 0.5
; filament_diameter = 1.70
; extrusion_multiplier = 1
; perimeters extrusion width = 0.48mm
; infill extrusion width = 0.49mm
; solid infill extrusion width = 0.46mm
; top infill extrusion width = 0.41mm
; first layer extrusion width = 0.50mm

G21 ; set units to millimeters
M107
M190 S60 ; wait for bed temperature to be reached
G21           ;metric is good!
G90           ;absolute positioning
G28           ;go home
G92 E0        ;reset extruder
G90 ; use absolute coordinates
G92 E0
M82 ; use absolute distances for extrusion
G1 F2400.000 E-2.70000
G92 E0
G1 Z0.240 F12000.000
G1 X33.740 Y61.570 F12000.000
G1 E2.70000 F2400.000
G1 X34.570 Y61.150 E2.74918 F900.000
G1 X35.500 Y61.000 E2.79898
G1 X104.500 Y61.000 E6.44688
G1 X105.430 Y61.150 E6.49668
G1 X106.260 Y61.570 E6.54586
G1 X106.930 Y62.240 E6.59595
G1 X107.350 Y63.070 E6.64513
G1 X107.500 Y64.000 E6.69494
G1 X107.500 Y76.000 E7.32935
G1 X107.350 Y76.930 E7.37916
G1 X106.930 Y77.760 E7.42833
G1 X106.260 Y78.430 E7.47843
G1 X105.430 Y78.850 E7.52761
G1 X104.500 Y79.000 E7.57741
G1 X55.500 Y79.000 E10.16794
G1 X55.200 Y78.990 E10.18381
G1 X35.200 Y76.990 E11.24645
G1 X34.350 Y76.770 E11.29287
G1 X33.590 Y76.320 E11.33956
G1 X33.000 Y75.670 E11.38597
G1 X32.630 Y74.870 E11.43257
G1 X32.500 Y74.000 E11.47908
G1 X32.500 Y64.000 E12.00776
G1 X32.650 Y63.070 E12.05756
G1 X33.070 Y62.240 E12.10674
G1 X33.687 Y61.623 E12.15287
G1 X34.030 Y61.980 F12000.000
G1 X34.730 Y61.620 E12.19448 F900.000
G1 X35.500 Y61.500 E12.23568
G1 X104.500 Y61.500 E15.88358
G1 X105.270 Y61.620 E15.92478
G1 X105.970 Y61.980 E15.96639
G1 X106.520 Y62.530 E16.00752
G1 X106.880 Y63.230 E16.04913
G1 X107.000 Y64.000 E16.09033
G1 X107.000 Y76.000 E16.72475
G1 X106.880 Y76.770 E16.76595
G1 X106.520 Y77.470 E16.80756
G1 X105.970 Y78.020 E16.84868
G1 X105.270 Y78.380 E16.89030
G1 X104.500 Y78.500 E16.93150
G1 X55.500 Y78.500 E19.52204
G1 X55.250 Y78.490 E19.53526
G1 X35.250 Y76.490 E20.59790
G1 X34.370 Y76.230 E20.64641
G1 X33.650 Y75.680 E20.69431
G1 X33.170 Y74.900 E20.74273
G1 X33.000 Y74.000 E20.79115
G1 X33.000 Y64.000 E21.31983
G1 X33.120 Y63.230 E21.36103
G1 X33.480 Y62.530 E21.40265
G1 X33.977 Y62.033 E21.43980
G1 F2400.000 E18.73980
G92 E0
G1 X36.250 Y64.750 F12000.000
G1 E2.70000 F2400.000
G1 X54.750 Y64.750 E3.67806 F900.000
G1 X54.750 Y64.870 E3.68440
G1 X79.250 Y64.870 E4.97967
G1 X79.250 Y64.750 E4.98602
G1 X103.750 Y64.750 E6.28128
G1 X103.750 Y75.250 E6.83640
G1 X56.250 Y75.250 E9.34763
G1 X56.250 Y73.250 E9.45337
G1 X36.250 Y73.250 E10.51073
G1 X36.250 Y64.825 E10.95614
G1 X35.750 Y64.250 F12000.000
G1 X55.250 Y64.250 E11.98707 F720.000
G1 X55.250 Y64.370 E11.99341
G1 X78.750 Y64.370 E13.23581
G1 X78.750 Y64.250 E13.24216
G1 X104.250 Y64.250 E14.59029
G1 X104.250 Y75.750 E15.19828
G1 X55.750 Y75.750 E17.76238
G1 X55.750 Y73.750 E17.86812
G1 X35.750 Y73.750 E18.92548
G1 X35.750 Y64.325 E19.42376
G1 X36.183 Y64.500 F12000.000
G1 X36.622 Y72.898 F12000.000
G1 X36.602 Y72.878 E19.42526 F900.000
G1 X36.602 Y72.168 E19.46295
G1 X37.332 Y72.898 E19.51775
G1 X38.042 Y72.898 E19.55544
G1 X36.602 Y71.458 E19.66355
G1 X36.602 Y70.748 E19.70124
G1 X38.752 Y72.898 E19.86265
G1 X39.462 Y72.898 E19.90034
G1 X36.602 Y70.038 E20.11504
G1 X36.602 Y69.328 E20.15273
G1 X40.172 Y72.898 E20.42074
G1 X40.882 Y72.898 E20.45843
G1 X36.602 Y68.618 E20.77975
G1 X36.602 Y67.908 E20.81744
G1 X41.592 Y72.898 E21.19205
G1 X42.302 Y72.898 E21.22974
G1 X36.602 Y67.198 E21.65765
G1 X36.602 Y66.488 E21.69534
G1 X43.012 Y72.898 E22.17656
G1 X43.722 Y72.898 E22.21425
G1 X36.602 Y65.778 E22.74877
G1 X36.637 Y65.102 E22.78465
G1 X44.432 Y72.898 E23.36985
G1 X45.142 Y72.898 E23.40754
G1 X37.347 Y65.102 E23.99273
G1 X38.057 Y65.102 E24.03042
G1 X45.852 Y72.898 E24.61562
G1 X46.562 Y72.898 E24.65331
G1 X38.767 Y65.102 E25.23850
G1 X39.477 Y65.102 E25.27619
G1 X47.272 Y72.898 E25.86139
G1 X47.982 Y72.898 E25.89908
G1 X40.187 Y65.102 E26.48427
G1 X40.897 Y65.102 E26.52196
G1 X48.692 Y72.898 E27.10716
G1 X49.402 Y72.898 E27.14485
G1 X41.607 Y65.102 E27.73004
G1 X42.317 Y65.102 E27.76773
G1 X50.112 Y72.898 E28.35293
G1 X50.822 Y72.898 E28.39062
G1 X43.027 Y65.102 E28.97581
G1 X43.737 Y65.102 E29.01350
G1 X51.532 Y72.898 E29.59870
G1 X52.242 Y72.898 E29.63639
G1 X44.447 Y65.102 E30.22158
G1 X45.157 Y65.102 E30.25927
G1 X52.952 Y72.898 E30.84447
G1 X53.662 Y72.898 E30.88216
G1 X45.867 Y65.102 E31.46735
G1 X46.577 Y65.102 E31.50504
G1 X54.372 Y72.898 E32.09024
G1 X55.082 Y72.898 E32.12793
G1 X47.287 Y65.102 E32.71312
G1 X47.997 Y65.102 E32.75081
G1 X55.793 Y72.898 E33.33601
G1 X56.503 Y72.898 E33.37370
G1 X48.707 Y65.102 E33.95889
G1 X49.417 Y65.102 E33.99658
G1 X59.213 Y74.898 E34.73192
G1 X58.503 Y74.898 E34.76961
G1 X56.602 Y72.997 E34.91225
G1 X56.602 Y73.707 E34.94994
G1 X57.793 Y74.898 E35.03928
G1 X57.082 Y74.898 E35.07697
G1 X56.602 Y74.417 E35.11301
G1 X59.923 Y74.898 F12000.000
G1 X50.127 Y65.102 E35.84835 F900.000
G1 X50.837 Y65.102 E35.88604
G1 X60.633 Y74.898 E36.62138
G1 X61.343 Y74.898 E36.65907
G1 X51.547 Y65.102 E37.39441
G1 X52.257 Y65.102 E37.43210
G1 X62.053 Y74.898 E38.16744
G1 X62.763 Y74.898 E38.20513
G1 X52.967 Y65.102 E38.94047
G1 X53.677 Y65.102 E38.97816
G1 X63.473 Y74.898 E39.71350
G1 X64.183 Y74.898 E39.75119
G1 X54.387 Y65.102 E40.48653
G1 X55.217 Y65.222 E40.53105
G1 X64.893 Y74.898 E41.25738
G1 X65.603 Y74.898 E41.29507
G1 X55.927 Y65.222 E42.02140
G1 X56.637 Y65.222 E42.05909
G1 X66.313 Y74.898 E42.78543
G1 X67.023 Y74.898 E42.82312
G1 X57.347 Y65.222 E43.54945
G1 X58.057 Y65.222 E43.58714
G1 X67.733 Y74.898 E44.31347
G1 X68.443 Y74.898 E44.35116
G1 X58.767 Y65.222 E45.07749
G1 X59.477 Y65.222 E45.11518
G1 X69.153 Y74.898 E45.84151
G1 X69.863 Y74.898 E45.87920
G1 X60.187 Y65.222 E46.60554
G1 X60.897 Y65.222 E46.64323
G1 X70.573 Y74.898 E47.36956
G1 X71.283 Y74.898 E47.40725
G1 X61.607 Y65.222 E48.13358
G1 X62.317 Y65.222 E48.17127
G1 X71.993 Y74.898 E48.89760
G1 X72.703 Y74.898 E48.93529
G1 X63.027 Y65.222 E49.66162
G1 X63.737 Y65.222 E49.69931
G1 X73.413 Y74.898 E50.42565
G1 X74.123 Y74.898 E50.46334
G1 X64.447 Y65.222 E51.18967
G1 X65.157 Y65.222 E51.22736
G1 X74.833 Y74.898 E51.95369
G1 X75.543 Y74.898 E51.99138
G1 X65.867 Y65.222 E52.71771
G1 X66.577 Y65.222 E52.75540
G1 X76.253 Y74.898 E53.48173
G1 X76.963 Y74.898 E53.51942
G1 X67.287 Y65.222 E54.24576
G1 X67.997 Y65.222 E54.28345
G1 X77.673 Y74.898 E55.00978
G1 X78.383 Y74.898 E55.04747
G1 X68.707 Y65.222 E55.77380
G1 X69.417 Y65.222 E55.81149
G1 X79.093 Y74.898 E56.53782
G1 X79.803 Y74.898 E56.57551
G1 X70.127 Y65.222 E57.30184
G1 X70.837 Y65.222 E57.33953
G1 X80.513 Y74.898 E58.06587
G1 X81.223 Y74.898 E58.10356
G1 X71.547 Y65.222 E58.82989
G1 X72.257 Y65.222 E58.86758
G1 X81.933 Y74.898 E59.59391
G1 X82.643 Y74.898 E59.63160
G1 X72.967 Y65.222 E60.35793
G1 X73.677 Y65.222 E60.39562
G1 X83.353 Y74.898 E61.12195
G1 X84.063 Y74.898 E61.15964
G1 X74.387 Y65.222 E61.88598
G1 X75.097 Y65.222 E61.92367
G1 X84.773 Y74.898 E62.65000
G1 X85.483 Y74.898 E62.68769
G1 X75.807 Y65.222 E63.41402
G1 X76.517 Y65.222 E63.45171
G1 X86.193 Y74.898 E64.17804
G1 X86.903 Y74.898 E64.21573
G1 X77.227 Y65.222 E64.94206
G1 X77.937 Y65.222 E64.97975
G1 X87.613 Y74.898 E65.70609
G1 X88.323 Y74.898 E65.74378
G1 X78.647 Y65.222 E66.47011
G1 X79.357 Y65.222 E66.50780
G1 X89.033 Y74.898 E67.23413
G1 X89.743 Y74.898 E67.27182
G1 X79.947 Y65.102 E68.00716
G1 X80.657 Y65.102 E68.04485
G1 X90.453 Y74.898 E68.78019
G1 X91.163 Y74.898 E68.81788
G1 X81.367 Y65.102 E69.55322
G1 X82.077 Y65.102 E69.59091
G1 X91.873 Y74.898 E70.32625
G1 X92.583 Y74.898 E70.36394
G1 X82.787 Y65.102 E71.09928
G1 X83.497 Y65.102 E71.13697
G1 X93.293 Y74.898 E71.87231
G1 X94.003 Y74.898 E71.91000
G1 X84.207 Y65.102 E72.64534
G1 X84.917 Y65.102 E72.68303
G1 X94.713 Y74.898 E73.41838
G1 X95.423 Y74.898 E73.45606
G1 X85.627 Y65.102 E74.19141
G1 X86.338 Y65.102 E74.22910
G1 X96.133 Y74.898 E74.96444
G1 X96.843 Y74.898 E75.00213
G1 X87.048 Y65.102 E75.73747
G1 X87.758 Y65.102 E75.77516
G1 X97.553 Y74.898 E76.51050
G1 X98.263 Y74.898 E76.54819
G1 X88.468 Y65.102 E77.28353
G1 X89.178 Y65.102 E77.32122
G1 X98.973 Y74.898 E78.05656
G1 X99.683 Y74.898 E78.09425
G1 X89.888 Y65.102 E78.82959
G1 X90.598 Y65.102 E78.86728
G1 X100.393 Y74.898 E79.60262
G1 X101.103 Y74.898 E79.64031
G1 X91.308 Y65.102 E80.37565
G1 X92.018 Y65.102 E80.41334
G1 X101.813 Y74.898 E81.14868
G1 X102.523 Y74.898 E81.18637
G1 X92.728 Y65.102 E81.92171
G1 X93.438 Y65.102 E81.95940
G1 X103.233 Y74.898 E82.69474
G1 X103.398 Y74.352 E82.72497
G1 X94.148 Y65.102 E83.41940
G1 X94.858 Y65.102 E83.45709
G1 X103.398 Y73.642 E84.09821
G1 X103.398 Y72.932 E84.13590
G1 X95.568 Y65.102 E84.72372
G1 X96.278 Y65.102 E84.76141
G1 X103.398 Y72.222 E85.29593
G1 X103.398 Y71.512 E85.33362
G1 X96.988 Y65.102 E85.81483
G1 X97.698 Y65.102 E85.85252
G1 X103.398 Y70.802 E86.28044
G1 X103.398 Y70.092 E86.31813
G1 X98.408 Y65.102 E86.69274
G1 X99.118 Y65.102 E86.73043
G1 X103.398 Y69.382 E87.05174
G1 X103.398 Y68.672 E87.08943
G1 X99.828 Y65.102 E87.35744
G1 X100.538 Y65.102 E87.39513
G1 X103.398 Y67.962 E87.60984
G1 X103.398 Y67.252 E87.64753
G1 X101.248 Y65.102 E87.80894
G1 X101.958 Y65.102 E87.84663
G1 X103.398 Y66.542 E87.95473
G1 X103.398 Y65.832 E87.99242
G1 X102.668 Y65.102 E88.04723
G1 X103.378 Y65.102 E88.08492
G1 X103.398 Y65.122 E88.08642
G1 F2400.000 E85.38642
G92 E0
G1 Z0.480 F12000.000
G1 X103.776 Y64.724 F12000.000
G1 E2.70000 F2400.000
G1 X103.776 Y75.276 E3.24031 F3000
G1 X56.224 Y75.276 E5.67528
G1 X56.224 Y73.276 E5.77770
G1 X36.224 Y73.276 E6.80184
G1 X36.224 Y64.724 E7.23973
G1 X54.776 Y64.724 E8.18970
G1 X54.776 Y65.084 E8.20813
G1 X79.224 Y65.084 E9.46008
G1 X79.224 Y64.724 E9.47851
G1 X103.703 Y64.724 E10.73200
G1 X104.260 Y64.240 F12000.000
G1 X104.260 Y75.760 E11.32191 F2400
G1 X55.740 Y75.760 E13.80648
G1 X55.740 Y73.760 E13.90889
G1 X35.740 Y73.760 E14.93304
G1 X35.740 Y64.240 E15.42053
G1 X55.260 Y64.240 E16.42009
G1 X55.260 Y64.600 E16.43853
G1 X78.740 Y64.600 E17.64087
G1 X78.740 Y64.240 E17.65931
G1 X104.187 Y64.240 E18.96239
G1 X104.018 Y64.659 F12000.000
G1 X103.439 Y74.919 F12000.000
G1 X103.419 Y74.939 E18.96379 F3000
G1 X102.758 Y74.939 E18.99649
G1 X103.439 Y74.258 E19.04414
G1 X103.439 Y73.596 E19.07684
G1 X102.096 Y74.939 E19.17073
G1 X101.435 Y74.939 E19.20343
G1 X103.439 Y72.935 E19.34357
G1 X103.439 Y72.273 E19.37627
G1 X100.773 Y74.939 E19.56265
G1 X100.112 Y74.939 E19.59535
G1 X103.439 Y71.612 E19.82798
G1 X103.439 Y70.951 E19.86068
G1 X99.451 Y74.939 E20.13955
G1 X98.789 Y74.939 E20.17226
G1 X103.439 Y70.289 E20.49738
G1 X103.439 Y69.628 E20.53008
G1 X98.128 Y74.939 E20.90144
G1 X97.467 Y74.939 E20.93414
G1 X103.439 Y68.967 E21.35176
G1 X103.439 Y68.305 E21.38446
G1 X96.805 Y74.939 E21.84831
G1 X96.144 Y74.939 E21.88102
G1 X103.439 Y67.644 E22.39112
G1 X103.439 Y66.983 E22.42382
G1 X95.483 Y74.939 E22.98017
G1 X94.821 Y74.939 E23.01287
G1 X103.439 Y66.321 E23.61547
G1 X103.439 Y65.660 E23.64817
G1 X94.160 Y74.939 E24.29701
G1 X93.499 Y74.939 E24.32971
G1 X103.376 Y65.061 E25.02044
G1 X102.715 Y65.061 E25.05314
G1 X92.837 Y74.939 E25.74386
G1 X92.176 Y74.939 E25.77656
G1 X102.054 Y65.061 E26.46729
G1 X101.392 Y65.061 E26.49999
G1 X91.515 Y74.939 E27.19071
G1 X90.853 Y74.939 E27.22341
G1 X100.731 Y65.061 E27.91414
G1 X100.070 Y65.061 E27.94684
G1 X90.192 Y74.939 E28.63756
G1 X89.531 Y74.939 E28.67026
G1 X99.408 Y65.061 E29.36099
G1 X98.747 Y65.061 E29.39369
G1 X88.869 Y74.939 E30.08442
G1 X88.208 Y74.939 E30.11712
G1 X98.086 Y65.061 E30.80784
G1 X97.424 Y65.061 E30.84054
G1 X87.547 Y74.939 E31.53127
G1 X86.885 Y74.939 E31.56397
G1 X96.763 Y65.061 E32.25469
G1 X96.102 Y65.061 E32.28739
G1 X86.224 Y74.939 E32.97812
G1 X85.563 Y74.939 E33.01082
G1 X95.440 Y65.061 E33.70154
G1 X94.779 Y65.061 E33.73424
G1 X84.901 Y74.939 E34.42497
G1 X84.240 Y74.939 E34.45767
G1 X94.118 Y65.061 E35.14839
G1 X93.456 Y65.061 E35.18110
G1 X83.579 Y74.939 E35.87182
G1 X82.917 Y74.939 E35.90452
G1 X92.795 Y65.061 E36.59525
G1 X92.134 Y65.061 E36.62795
G1 X82.256 Y74.939 E37.31867
G1 X81.595 Y74.939 E37.35137
G1 X91.472 Y65.061 E38.04210
G1 X90.811 Y65.061 E38.07480
G1 X80.933 Y74.939 E38.76552
G1 X80.272 Y74.939 E38.79822
G1 X90.150 Y65.061 E39.48895
G1 X89.488 Y65.061 E39.52165
G1 X79.611 Y74.939 E40.21237
G1 X78.949 Y74.939 E40.24507
G1 X88.827 Y65.061 E40.93580
G1 X88.166 Y65.061 E40.96850
G1 X78.288 Y74.939 E41.65923
G1 X77.627 Y74.939 E41.69193
G1 X87.504 Y65.061 E42.38265
G1 X86.843 Y65.061 E42.41535
G1 X76.965 Y74.939 E43.10608
G1 X76.304 Y74.939 E43.13878
G1 X86.182 Y65.061 E43.82950
G1 X85.520 Y65.061 E43.86220
G1 X75.643 Y74.939 E44.55293
G1 X74.981 Y74.939 E44.58563
G1 X84.859 Y65.061 E45.27635
G1 X84.198 Y65.061 E45.30905
G1 X74.320 Y74.939 E45.99978
G1 X73.659 Y74.939 E46.03248
G1 X83.536 Y65.061 E46.72320
G1 X82.875 Y65.061 E46.75591
G1 X72.997 Y74.939 E47.44663
G1 X72.336 Y74.939 E47.47933
G1 X82.214 Y65.061 E48.17006
G1 X81.552 Y65.061 E48.20276
G1 X71.675 Y74.939 E48.89348
G1 X71.013 Y74.939 E48.92618
G1 X80.891 Y65.061 E49.61691
G1 X80.230 Y65.061 E49.64961
G1 X70.352 Y74.939 E50.34033
G1 X69.690 Y74.939 E50.37303
G1 X79.568 Y65.061 E51.06376
G1 X78.547 Y65.421 F12000.000
G1 X69.029 Y74.939 E51.72931 F3000
G1 X68.368 Y74.939 E51.76201
G1 X77.886 Y65.421 E52.42756
G1 X77.224 Y65.421 E52.46026
G1 X67.706 Y74.939 E53.12581
G1 X67.045 Y74.939 E53.15851
G1 X76.563 Y65.421 E53.82406
G1 X75.901 Y65.421 E53.85676
G1 X66.384 Y74.939 E54.52232
G1 X65.722 Y74.939 E54.55502
G1 X75.240 Y65.421 E55.22057
G1 X74.579 Y65.421 E55.25327
G1 X65.061 Y74.939 E55.91882
G1 X64.400 Y74.939 E55.95152
G1 X73.917 Y65.421 E56.61707
G1 X73.256 Y65.421 E56.64977
G1 X63.738 Y74.939 E57.31532
G1 X63.077 Y74.939 E57.34802
G1 X72.595 Y65.421 E58.01357
G1 X71.933 Y65.421 E58.04628
G1 X62.416 Y74.939 E58.71183
G1 X61.754 Y74.939 E58.74453
G1 X71.272 Y65.421 E59.41008
G1 X70.611 Y65.421 E59.44278
G1 X61.093 Y74.939 E60.10833
G1 X60.432 Y74.939 E60.14103
G1 X69.949 Y65.421 E60.80658
G1 X69.288 Y65.421 E60.83928
G1 X59.770 Y74.939 E61.50483
G1 X59.109 Y74.939 E61.53753
G1 X68.627 Y65.421 E62.20309
G1 X67.965 Y65.421 E62.23579
G1 X58.448 Y74.939 E62.90134
G1 X57.786 Y74.939 E62.93404
G1 X67.304 Y65.421 E63.59959
G1 X66.643 Y65.421 E63.63229
G1 X57.125 Y74.939 E64.29784
G1 X56.561 Y74.841 E64.32614
G1 X65.981 Y65.421 E64.98487
G1 X65.320 Y65.421 E65.01757
G1 X56.561 Y74.180 E65.63006
G1 X56.561 Y73.519 E65.66276
G1 X64.659 Y65.421 E66.22900
G1 X63.997 Y65.421 E66.26171
G1 X56.480 Y72.939 E66.78740
G1 X55.818 Y72.939 E66.82010
G1 X63.336 Y65.421 E67.34580
G1 X62.675 Y65.421 E67.37850
G1 X55.157 Y72.939 E67.90419
G1 X54.496 Y72.939 E67.93690
G1 X62.013 Y65.421 E68.46259
G1 X61.352 Y65.421 E68.49529
G1 X53.834 Y72.939 E69.02099
G1 X53.173 Y72.939 E69.05369
G1 X60.691 Y65.421 E69.57938
G1 X60.029 Y65.421 E69.61208
G1 X52.512 Y72.939 E70.13778
G1 X51.850 Y72.939 E70.17048
G1 X59.368 Y65.421 E70.69618
G1 X58.707 Y65.421 E70.72888
G1 X51.189 Y72.939 E71.25457
G1 X50.528 Y72.939 E71.28727
G1 X58.045 Y65.421 E71.81297
G1 X57.384 Y65.421 E71.84567
G1 X49.866 Y72.939 E72.37137
G1 X49.205 Y72.939 E72.40407
G1 X56.723 Y65.421 E72.92976
G1 X56.061 Y65.421 E72.96246
G1 X48.544 Y72.939 E73.48816
G1 X47.882 Y72.939 E73.52086
G1 X55.400 Y65.421 E74.04656
G1 X54.739 Y65.421 E74.07926
