; generated by Slic3r 1.2.0 on 2015-02-24 at 07:53:35

; external perimeters extrusion width = 0.30mm
; perimeters extrusion width = 0.90mm
; infill extrusion width = 0.50mm
; solid infill extrusion width = 0.50mm
; top infill extrusion width = 0.60mm

G21 ; set units to millimeters
M107
M104 S210 ; set temperature
G21           ;metric is good!
G90           ;absolute positioning
G28           ;go home
G92 E0        ;reset extruder
M109 S210 ; wait for temperature to be reached
G90 ; use absolute coordinates
G92 E0
M82 ; use absolute distances for extrusion
G1 F2400.000 E-2.70000
G92 E0
G1 Z0.150 F4800.000
G1 X60.147 Y59.226 F4800.000
G1 E2.70000 F2400.000
G1 X62.000 Y58.664 E2.79181 F900.000
G1 X78.000 Y58.664 E3.55058
G1 X79.573 Y59.058 E3.62747
G1 X80.774 Y60.147 E3.70435 F900.000
G1 X81.336 Y62.000 E3.79616
G1 X81.336 Y78.000 E4.55493
G1 X80.942 Y79.573 E4.63182
G1 X79.853 Y80.774 E4.70870
G1 X78.000 Y81.336 E4.80051
G1 X62.000 Y81.336 E5.55928
G1 X60.427 Y80.942 E5.63617
G1 X59.226 Y79.853 E5.71305
G1 X58.664 Y78.000 E5.80486
G1 X58.664 Y62.000 E6.56363
G1 X59.058 Y60.427 E6.64052
G1 X60.117 Y59.260 E6.71527
G1 X60.608 Y59.790 F4800.000
G1 X60.787 Y59.624 E6.72683 F900.000
G1 X62.000 Y59.332 E6.78601
G1 X78.000 Y59.332 E7.54478
G1 X79.393 Y59.725 E7.61341
G1 X80.376 Y60.787 E7.68204 F900.000
G1 X80.668 Y62.000 E7.74122
G1 X80.668 Y78.000 E8.49999
G1 X80.275 Y79.393 E8.56862
G1 X79.213 Y80.376 E8.63724
G1 X78.000 Y80.668 E8.69642
G1 X62.000 Y80.668 E9.45519
G1 X60.607 Y80.275 E9.52382
G1 X59.624 Y79.213 E9.59245
G1 X59.332 Y78.000 E9.65163
G1 X59.332 Y62.000 E10.41040
G1 X59.725 Y60.607 E10.47903
G1 X60.575 Y59.820 E10.53396
G1 F2400.000 E7.83396
G92 E0
G1 X62.350 Y62.350 F4800.000
G1 E2.70000 F2400.000
G1 X77.650 Y62.350 E3.42557 F900.000
G1 X77.650 Y77.650 E4.15115
G1 X62.350 Y77.650 E4.87672 F900.000
G1 X62.350 Y62.395 E5.60016
G1 X62.854 Y77.186 F4800.000
G1 X62.814 Y77.146 E5.60284 F900.000
G1 X62.814 Y76.190 E5.64815
G1 X63.810 Y77.186 E5.71491
G1 X64.765 Y77.186 E5.76022
G1 X62.814 Y75.235 E5.89106
G1 X62.814 Y74.280 E5.93637
G1 X65.720 Y77.186 E6.13129
G1 X66.676 Y77.186 E6.17660
G1 X62.814 Y73.324 E6.43560
G1 X62.814 Y72.369 E6.48091
G1 X67.631 Y77.186 E6.80398
G1 X68.587 Y77.186 E6.84929
G1 X62.814 Y71.413 E7.23645
G1 X62.814 Y70.458 E7.28176
G1 X69.542 Y77.186 E7.73299
G1 X70.498 Y77.186 E7.77830
G1 X62.814 Y69.502 E8.29361
G1 X62.814 Y68.547 E8.33892
G1 X71.453 Y77.186 E8.91831
G1 X72.409 Y77.186 E8.96362
G1 X62.814 Y67.591 E9.60709
G1 X62.814 Y66.636 E9.65240
G1 X73.364 Y77.186 E10.35994
G1 X74.320 Y77.186 E10.40525
G1 X62.814 Y65.680 E11.17688
G1 X62.814 Y64.725 E11.22219
G1 X75.275 Y77.186 E12.05789
G1 X76.230 Y77.186 E12.10320
G1 X62.814 Y63.770 E13.00298
G1 X62.834 Y62.834 E13.04735
G1 X77.166 Y77.166 E14.00853
G1 X77.186 Y76.230 E14.05290
G1 X63.770 Y62.814 E14.95268
G1 X64.725 Y62.814 E14.99799
G1 X77.186 Y75.275 E15.83369
G1 X77.186 Y74.320 E15.87900
G1 X65.680 Y62.814 E16.65063
G1 X66.636 Y62.814 E16.69594
G1 X77.186 Y73.364 E17.40348
G1 X77.186 Y72.409 E17.44879
G1 X67.591 Y62.814 E18.09226
G1 X68.547 Y62.814 E18.13757
G1 X77.186 Y71.453 E18.71696
G1 X77.186 Y70.498 E18.76227
G1 X69.502 Y62.814 E19.27758
G1 X70.458 Y62.814 E19.32289
G1 X77.186 Y69.542 E19.77412
G1 X77.186 Y68.587 E19.81943
G1 X71.413 Y62.814 E20.20659
G1 X72.369 Y62.814 E20.25190
G1 X77.186 Y67.631 E20.57497
G1 X77.186 Y66.676 E20.62028
G1 X73.324 Y62.814 E20.87928
G1 X74.280 Y62.814 E20.92459
G1 X77.186 Y65.720 E21.11951
G1 X77.186 Y64.765 E21.16482
G1 X75.235 Y62.814 E21.29566
G1 X76.190 Y62.814 E21.34097
G1 X77.186 Y63.810 E21.40773
G1 X77.186 Y62.854 E21.45304
G1 X77.146 Y62.814 E21.45572
M104 S197 ; set temperature
G1 F2400.000 E18.75572
G92 E0
G1 Z0.350 F4800.000
G1 X77.146 Y62.150 F4800.000
G1 E2.70000 F2400.000
G1 X77.850 Y62.150 E2.71714 F2178.318
G1 X77.850 Y77.850 E3.09930
G1 X62.150 Y77.850 E3.48146 F2178.318
G1 X62.150 Y62.150 E3.86361
G1 X77.101 Y62.150 E4.22754
G1 X62.701 Y62.661 F4800.000
G1 X62.661 Y62.701 E4.22999 F2904.424
G1 X62.661 Y63.352 E4.25814
G1 X63.352 Y62.661 E4.30040
G1 X64.002 Y62.661 E4.32856
G1 X62.661 Y64.002 E4.41064
G1 X62.661 Y64.653 E4.43879
G1 X64.653 Y62.661 E4.56069
G1 X65.304 Y62.661 E4.58885
G1 X62.661 Y65.304 E4.75056
G1 X62.661 Y65.954 E4.77871
G1 X65.954 Y62.661 E4.98024
G1 X66.605 Y62.661 E5.00840
G1 X62.661 Y66.605 E5.24974
G1 X62.661 Y67.255 E5.27790
G1 X67.255 Y62.661 E5.55906
G1 X67.906 Y62.661 E5.58721
G1 X62.661 Y67.906 E5.90819
G1 X62.661 Y68.556 E5.93635
G1 X68.556 Y62.661 E6.29714
G1 X69.207 Y62.661 E6.32529
G1 X62.661 Y69.207 E6.72591
G1 X62.661 Y69.857 E6.75406
G1 X69.857 Y62.661 E7.19449
G1 X70.508 Y62.661 E7.22264
G1 X62.661 Y70.508 E7.70288
G1 X62.661 Y71.158 E7.73104
G1 X71.158 Y62.661 E8.25110
G1 X71.809 Y62.661 E8.27925
G1 X62.661 Y71.809 E8.83913
G1 X62.661 Y72.460 E8.86728
G1 X72.460 Y62.661 E9.46697
G1 X73.110 Y62.661 E9.49513
G1 X62.661 Y73.110 E10.13464
G1 X62.661 Y73.761 E10.16279
G1 X73.761 Y62.661 E10.84212
G1 X74.411 Y62.661 E10.87027
G1 X62.661 Y74.411 E11.58941
G1 X62.661 Y75.062 E11.61757
G1 X75.062 Y62.661 E12.37652
G1 X75.712 Y62.661 E12.40468
G1 X62.661 Y75.712 E13.20345
G1 X62.661 Y76.363 E13.23160
G1 X76.363 Y62.661 E14.07019
G1 X77.013 Y62.661 E14.09835
G1 X62.661 Y77.013 E14.97675
G1 X62.987 Y77.339 E14.99666
G1 X77.339 Y62.987 E15.87507
G1 X77.339 Y63.637 E15.90322
G1 X63.637 Y77.339 E16.74181
G1 X64.288 Y77.339 E16.76997
G1 X77.339 Y64.288 E17.56874
G1 X77.339 Y64.938 E17.59690
G1 X64.938 Y77.339 E18.35585
G1 X65.589 Y77.339 E18.38401
G1 X77.339 Y65.589 E19.10315
G1 X77.339 Y66.239 E19.13130
G1 X66.239 Y77.339 E19.81063
G1 X66.890 Y77.339 E19.83878
G1 X77.339 Y66.890 E20.47829
G1 X77.339 Y67.540 E20.50644
G1 X67.540 Y77.339 E21.10614
G1 X68.191 Y77.339 E21.13429
G1 X77.339 Y68.191 E21.69417
G1 X77.339 Y68.842 E21.72232
G1 X68.842 Y77.339 E22.24238
G1 X69.492 Y77.339 E22.27054
G1 X77.339 Y69.492 E22.75078
G1 X77.339 Y70.143 E22.77893
G1 X70.143 Y77.339 E23.21936
G1 X70.793 Y77.339 E23.24752
G1 X77.339 Y70.793 E23.64813
G1 X77.339 Y71.444 E23.67628
G1 X71.444 Y77.339 E24.03707
G1 X72.094 Y77.339 E24.06523
G1 X77.339 Y72.094 E24.38621
G1 X77.339 Y72.745 E24.41436
G1 X72.745 Y77.339 E24.69552
G1 X73.395 Y77.339 E24.72368
G1 X77.339 Y73.395 E24.96502
G1 X77.339 Y74.046 E24.99318
G1 X74.046 Y77.339 E25.19471
G1 X74.696 Y77.339 E25.22286
G1 X77.339 Y74.696 E25.38458
G1 X77.339 Y75.347 E25.41273
G1 X75.347 Y77.339 E25.53463
G1 X75.998 Y77.339 E25.56278
G1 X77.339 Y75.998 E25.64486
G1 X77.339 Y76.648 E25.67302
G1 X76.648 Y77.339 E25.71528
G1 X77.299 Y77.339 E25.74344
G1 X77.339 Y77.299 E25.74588
G1 F2400.000 E23.04588
G92 E0
G1 Z0.550 F4800.000
G1 X77.850 Y77.299 F4800.000
G1 E2.70000 F2400.000
G1 X77.850 Y77.850 E2.71342 F2178.318
G1 X62.150 Y77.850 E3.09558 F2178.318
G1 X62.150 Y62.150 E3.47774
G1 X77.850 Y62.150 E3.85990
G1 X77.850 Y77.254 E4.22754
G1 X77.299 Y62.661 F4800.000
G1 X77.339 Y62.701 E4.22999 F2904.424
G1 X77.339 Y63.352 E4.25814
G1 X76.648 Y62.661 E4.30040
G1 X75.998 Y62.661 E4.32856
G1 X77.339 Y64.002 E4.41064
G1 X77.339 Y64.653 E4.43879
G1 X75.347 Y62.661 E4.56069
G1 X74.696 Y62.661 E4.58885
G1 X77.339 Y65.304 E4.75056
G1 X77.339 Y65.954 E4.77871
G1 X74.046 Y62.661 E4.98024
G1 X73.395 Y62.661 E5.00840
G1 X77.339 Y66.605 E5.24974
G1 X77.339 Y67.255 E5.27790
G1 X72.745 Y62.661 E5.55906
G1 X72.094 Y62.661 E5.58721
G1 X77.339 Y67.906 E5.90819
G1 X77.339 Y68.556 E5.93635
G1 X71.444 Y62.661 E6.29714
G1 X70.793 Y62.661 E6.32530
G1 X77.339 Y69.207 E6.72591
G1 X77.339 Y69.857 E6.75406
G1 X70.143 Y62.661 E7.19449
G1 X69.492 Y62.661 E7.22264
G1 X77.339 Y70.508 E7.70289
G1 X77.339 Y71.158 E7.73104
G1 X68.842 Y62.661 E8.25110
G1 X68.191 Y62.661 E8.27925
G1 X77.339 Y71.809 E8.83913
G1 X77.339 Y72.460 E8.86728
G1 X67.540 Y62.661 E9.46698
G1 X66.890 Y62.661 E9.49513
G1 X77.339 Y73.110 E10.13464
G1 X77.339 Y73.761 E10.16279
G1 X66.239 Y62.661 E10.84212
G1 X65.589 Y62.661 E10.87027
G1 X77.339 Y74.411 E11.58941
G1 X77.339 Y75.062 E11.61757
G1 X64.938 Y62.661 E12.37653
G1 X64.288 Y62.661 E12.40468
G1 X77.339 Y75.712 E13.20345
G1 X77.339 Y76.363 E13.23161
G1 X63.637 Y62.661 E14.07020
G1 X62.987 Y62.661 E14.09835
G1 X77.339 Y77.013 E14.97676
G1 X77.013 Y77.339 E14.99667
G1 X62.661 Y62.987 E15.87507
G1 X62.661 Y63.637 E15.90323
G1 X76.363 Y77.339 E16.74182
G1 X75.712 Y77.339 E16.76997
G1 X62.661 Y64.288 E17.56874
G1 X62.661 Y64.938 E17.59690
G1 X75.062 Y77.339 E18.35586
G1 X74.411 Y77.339 E18.38401
G1 X62.661 Y65.589 E19.10315
G1 X62.661 Y66.239 E19.13131
G1 X73.761 Y77.339 E19.81063
G1 X73.110 Y77.339 E19.83878
G1 X62.661 Y66.890 E20.47829
G1 X62.661 Y67.540 E20.50645
G1 X72.460 Y77.339 E21.10614
G1 X71.809 Y77.339 E21.13429
G1 X62.661 Y68.191 E21.69417
G1 X62.661 Y68.842 E21.72232
G1 X71.158 Y77.339 E22.24238
G1 X70.508 Y77.339 E22.27054
G1 X62.661 Y69.492 E22.75078
G1 X62.661 Y70.143 E22.77894
G1 X69.857 Y77.339 E23.21936
G1 X69.207 Y77.339 E23.24752
G1 X62.661 Y70.793 E23.64813
G1 X62.661 Y71.444 E23.67628
G1 X68.556 Y77.339 E24.03708
G1 X67.906 Y77.339 E24.06523
G1 X62.661 Y72.094 E24.38621
G1 X62.661 Y72.745 E24.41436
G1 X67.255 Y77.339 E24.69553
G1 X66.605 Y77.339 E24.72368
G1 X62.661 Y73.395 E24.96503
G1 X62.661 Y74.046 E24.99318
G1 X65.954 Y77.339 E25.19471
G1 X65.304 Y77.339 E25.22286
G1 X62.661 Y74.696 E25.38458
G1 X62.661 Y75.347 E25.41273
G1 X64.653 Y77.339 E25.53463
G1 X64.002 Y77.339 E25.56278
G1 X62.661 Y75.998 E25.64486
G1 X62.661 Y76.648 E25.67302
G1 X63.352 Y77.339 E25.71528
G1 X62.701 Y77.339 E25.74344
G1 X62.661 Y77.299 E25.74589
M106 S255
G1 F2400.000 E23.04589
G92 E0
G1 Z0.750 F4800.000
G1 X62.150 Y77.299 F4800.000
G1 E2.70000 F2400.000
G1 X62.150 Y62.150 E3.06874 F1514.572
G1 X77.850 Y62.150 E3.45090
G1 X77.850 Y77.850 E3.83305
G1 X62.150 Y77.850 E4.21521 F1514.572
G1 X62.150 Y77.344 E4.22754
G1 X62.681 Y77.289 F4800.000
G1 X62.866 Y77.104 E4.23886 F2187.715
G1 X63.206 Y77.195 E4.25409
G1 X64.015 Y76.386 E4.30358
G1 X63.924 Y76.046 E4.31881
G1 X64.732 Y75.238 E4.36830
G1 X65.072 Y75.329 E4.38352
G1 X65.881 Y74.520 E4.43302
G1 X65.790 Y74.180 E4.44824
G1 X66.598 Y73.372 E4.49773
G1 X66.938 Y73.463 E4.51296
G1 X67.747 Y72.654 E4.56245
G1 X67.656 Y72.314 E4.57768
G1 X68.464 Y71.506 E4.62717
G1 X68.804 Y71.597 E4.64240
G1 X69.613 Y70.788 E4.69189
G1 X69.522 Y70.448 E4.70712
G1 X70.330 Y69.640 E4.75661
G1 X70.670 Y69.731 E4.77183
G1 X71.479 Y68.922 E4.82132
G1 X71.388 Y68.582 E4.83655
G1 X72.196 Y67.774 E4.88604
G1 X72.536 Y67.865 E4.90127
G1 X73.345 Y67.056 E4.95076
G1 X73.254 Y66.716 E4.96599
G1 X74.062 Y65.908 E5.01548
G1 X74.402 Y65.999 E5.03071
G1 X75.211 Y65.190 E5.08020
G1 X75.120 Y64.850 E5.09542
G1 X75.928 Y64.042 E5.14491
G1 X76.268 Y64.133 E5.16014
G1 X77.077 Y63.324 E5.20963
G1 X76.986 Y62.984 E5.22486
G1 X77.289 Y62.681 E5.24340
G1 X77.319 Y63.729 E5.28875
G1 X76.592 Y64.456 E5.33325
G1 X76.683 Y64.796 E5.34847
G1 X75.874 Y65.604 E5.39796
G1 X75.534 Y65.513 E5.41319
G1 X74.726 Y66.322 E5.46268
G1 X74.817 Y66.662 E5.47791
G1 X74.008 Y67.470 E5.52740
G1 X73.668 Y67.379 E5.54263
G1 X72.860 Y68.188 E5.59212
G1 X72.951 Y68.528 E5.60735
G1 X72.142 Y69.336 E5.65684
G1 X71.802 Y69.245 E5.67207
G1 X70.994 Y70.054 E5.72156
G1 X71.085 Y70.394 E5.73678
G1 X70.276 Y71.202 E5.78627
G1 X69.936 Y71.111 E5.80150
G1 X69.128 Y71.920 E5.85099
G1 X69.219 Y72.260 E5.86622
G1 X68.410 Y73.068 E5.91571
G1 X68.070 Y72.977 E5.93094
G1 X67.261 Y73.786 E5.98043
G1 X67.353 Y74.126 E5.99566
G1 X66.544 Y74.934 E6.04515
G1 X66.204 Y74.843 E6.06037
G1 X65.395 Y75.652 E6.10986
G1 X65.487 Y75.992 E6.12509
G1 X64.678 Y76.800 E6.17458
G1 X64.338 Y76.709 E6.18981
G1 X63.729 Y77.319 E6.22710
G1 X65.053 Y77.319 E6.28442
G1 X65.001 Y77.124 E6.29315
G1 X65.810 Y76.315 E6.34264
G1 X66.150 Y76.406 E6.35787
G1 X66.958 Y75.598 E6.40736
G1 X66.867 Y75.258 E6.42259
G1 X67.676 Y74.449 E6.47208
G1 X68.016 Y74.540 E6.48731
G1 X68.824 Y73.732 E6.53680
G1 X68.733 Y73.392 E6.55203
G1 X69.542 Y72.583 E6.60152
G1 X69.882 Y72.674 E6.61674
G1 X70.690 Y71.866 E6.66623
G1 X70.599 Y71.526 E6.68146
G1 X71.408 Y70.717 E6.73095
G1 X71.748 Y70.808 E6.74618
G1 X72.556 Y69.999 E6.79567
G1 X72.465 Y69.660 E6.81090
G1 X73.274 Y68.851 E6.86039
G1 X73.614 Y68.942 E6.87562
G1 X74.422 Y68.133 E6.92511
G1 X74.331 Y67.794 E6.94034
G1 X75.140 Y66.985 E6.98983
G1 X75.480 Y67.076 E7.00505
G1 X76.288 Y66.267 E7.05454
G1 X76.197 Y65.928 E7.06977
G1 X77.006 Y65.119 E7.11926
G1 X77.319 Y65.203 E7.13328
G1 X77.319 Y66.314 E7.18139
G1 X76.951 Y66.682 E7.20387
G1 X76.612 Y66.591 E7.21909
G1 X75.803 Y67.399 E7.26858
G1 X75.894 Y67.739 E7.28381
G1 X75.085 Y68.548 E7.33330
G1 X74.745 Y68.457 E7.34853
G1 X73.937 Y69.265 E7.39802
G1 X74.028 Y69.605 E7.41325
G1 X73.219 Y70.414 E7.46274
G1 X72.879 Y70.323 E7.47797
G1 X72.071 Y71.131 E7.52746
G1 X72.162 Y71.471 E7.54268
G1 X71.353 Y72.280 E7.59217
G1 X71.013 Y72.189 E7.60740
G1 X70.205 Y72.997 E7.65689
G1 X70.296 Y73.337 E7.67212
G1 X69.487 Y74.146 E7.72161
G1 X69.147 Y74.055 E7.73684
G1 X68.339 Y74.863 E7.78633
G1 X68.430 Y75.203 E7.80156
G1 X67.621 Y76.012 E7.85105
G1 X67.281 Y75.921 E7.86627
G1 X66.473 Y76.729 E7.91576
G1 X66.564 Y77.069 E7.93099
G1 X66.314 Y77.319 E7.94626
G1 X67.392 Y77.319 E7.99288
G1 X68.036 Y76.675 E8.03228
G1 X67.944 Y76.335 E8.04751
G1 X68.753 Y75.526 E8.09700
G1 X69.093 Y75.617 E8.11223
G1 X69.902 Y74.809 E8.16172
G1 X69.811 Y74.469 E8.17695
G1 X70.619 Y73.660 E8.22644
G1 X70.959 Y73.751 E8.24166
G1 X71.768 Y72.943 E8.29116
G1 X71.677 Y72.603 E8.30638
G1 X72.485 Y71.794 E8.35587
G1 X72.825 Y71.885 E8.37110
G1 X73.634 Y71.077 E8.42059
G1 X73.543 Y70.737 E8.43582
G1 X74.351 Y69.928 E8.48531
G1 X74.691 Y70.019 E8.50054
G1 X75.500 Y69.211 E8.55003
G1 X75.409 Y68.871 E8.56526
G1 X76.217 Y68.062 E8.61475
G1 X76.557 Y68.153 E8.62997
G1 X77.319 Y67.392 E8.67659
G1 X77.319 Y67.169 E8.68622
G1 X77.275 Y67.005 E8.69358
G1 X77.319 Y66.961 E8.69628
G1 X77.319 Y68.038 E8.74290
G1 X76.880 Y68.477 E8.76973
G1 X76.971 Y68.816 E8.78496
G1 X76.163 Y69.625 E8.83445
G1 X75.823 Y69.534 E8.84968
G1 X75.014 Y70.343 E8.89917
G1 X75.105 Y70.682 E8.91440
G1 X74.297 Y71.491 E8.96389
G1 X73.957 Y71.400 E8.97912
G1 X73.148 Y72.209 E9.02861
G1 X73.239 Y72.549 E9.04383
G1 X72.431 Y73.357 E9.09332
G1 X72.091 Y73.266 E9.10855
G1 X71.282 Y74.075 E9.15804
G1 X71.373 Y74.415 E9.17327
G1 X70.565 Y75.223 E9.22276
G1 X70.225 Y75.132 E9.23799
G1 X69.416 Y75.941 E9.28748
G1 X69.507 Y76.281 E9.30271
G1 X68.699 Y77.089 E9.35220
G1 X68.359 Y76.998 E9.36742
G1 X68.038 Y77.319 E9.38704
G1 X69.116 Y77.319 E9.43367
G1 X69.830 Y76.604 E9.47742
G1 X70.170 Y76.695 E9.49265
G1 X70.979 Y75.886 E9.54214
G1 X70.888 Y75.546 E9.55737
G1 X71.696 Y74.738 E9.60686
G1 X72.036 Y74.829 E9.62209
G1 X72.845 Y74.020 E9.67158
G1 X72.754 Y73.680 E9.68680
G1 X73.562 Y72.872 E9.73629
G1 X73.902 Y72.963 E9.75152
G1 X74.711 Y72.154 E9.80101
G1 X74.620 Y71.814 E9.81624
G1 X75.428 Y71.006 E9.86573
G1 X75.768 Y71.097 E9.88096
G1 X76.577 Y70.288 E9.93045
G1 X76.486 Y69.948 E9.94568
G1 X77.295 Y69.140 E9.99517
G1 X77.319 Y69.146 E9.99625
G1 X77.319 Y70.624 E10.06020
G1 X77.240 Y70.702 E10.06501
G1 X76.900 Y70.611 E10.08024
G1 X76.092 Y71.420 E10.12973
G1 X76.183 Y71.760 E10.14496
G1 X75.374 Y72.568 E10.19445
G1 X75.034 Y72.477 E10.20967
G1 X74.226 Y73.286 E10.25916
G1 X74.317 Y73.626 E10.27439
G1 X73.508 Y74.434 E10.32388
G1 X73.168 Y74.343 E10.33911
G1 X72.360 Y75.152 E10.38860
G1 X72.451 Y75.492 E10.40383
G1 X71.642 Y76.300 E10.45332
G1 X71.302 Y76.209 E10.46855
G1 X70.494 Y77.018 E10.51804
G1 X70.574 Y77.319 E10.53150
G1 X71.701 Y77.319 E10.58028
G1 X72.056 Y76.964 E10.60202
G1 X71.965 Y76.624 E10.61724
G1 X72.774 Y75.815 E10.66673
G1 X73.114 Y75.906 E10.68196
G1 X73.922 Y75.098 E10.73145
G1 X73.831 Y74.758 E10.74668
G1 X74.640 Y73.949 E10.79617
G1 X74.980 Y74.040 E10.81140
G1 X75.788 Y73.232 E10.86089
G1 X75.697 Y72.892 E10.87612
G1 X76.506 Y72.083 E10.92561
G1 X76.846 Y72.174 E10.94084
G1 X77.319 Y71.701 E10.96978
G1 X77.319 Y72.348 E10.99775
G1 X77.169 Y72.497 E11.00692
G1 X77.260 Y72.837 E11.02215
G1 X76.451 Y73.646 E11.07164
G1 X76.112 Y73.555 E11.08686
