; generated by Slic3r 1.2.0 on 2015-01-05 at 16:12:24

; external perimeters extrusion width = 0.30mm
; perimeters extrusion width = 0.90mm
; infill extrusion width = 0.50mm
; solid infill extrusion width = 0.50mm
; top infill extrusion width = 0.60mm

G21 ; set units to millimeters
M107
M104 S210 ; set temperature
G21           ;metric is good!
G90           ;absolute positioning
G28           ;go home
G92 E0        ;reset extruder
M109 S210 ; wait for temperature to be reached
G90 ; use absolute coordinates
G92 E0
M82 ; use absolute distances for extrusion
G1 F2400.000 E-2.70000
G92 E0
G1 Z0.150 F6000.000
G1 X61.348 Y59.870 F6000.000
G1 E2.70000 F2400.000
G1 X63.643 Y58.293 E2.82759 F600.000
G1 X66.216 Y57.227 E2.95517
G1 X68.955 Y56.719 E3.08276
G1 X71.739 Y56.792 E3.21034
G1 X74.447 Y57.442 E3.33793 F600.000
G1 X76.961 Y58.641 E3.46551
G1 X79.170 Y60.337 E3.59310
G1 X80.979 Y62.454 E3.72068
G1 X82.308 Y64.902 E3.84827
G1 X83.099 Y67.572 E3.97586
G1 X83.115 Y67.728 E3.98304
G1 X83.317 Y70.349 E4.10344
G1 X83.115 Y72.272 E4.19203
G1 X82.954 Y73.110 E4.23113
G1 X82.356 Y74.949 E4.31972
G1 X82.024 Y75.735 E4.35881
G1 X80.569 Y78.110 E4.48640
G1 X79.275 Y79.547 E4.57499
G1 X78.652 Y80.130 E4.61409
G1 X76.357 Y81.707 E4.74167
G1 X73.784 Y82.773 E4.86926
G1 X71.045 Y83.281 E4.99684
G1 X68.261 Y83.208 E5.12443
G1 X65.553 Y82.558 E5.25201
G1 X63.787 Y81.771 E5.34060
G1 X63.039 Y81.359 E5.37970
G1 X61.475 Y80.222 E5.46829
G1 X60.830 Y79.663 E5.50738
G1 X59.536 Y78.226 E5.59597
G1 X59.021 Y77.546 E5.63507
G1 X58.054 Y75.871 E5.72366
G1 X57.692 Y75.098 E5.76275
G1 X57.095 Y73.259 E5.85134
G1 X56.901 Y72.428 E5.89044
G1 X56.683 Y69.651 E6.01802
G1 X57.046 Y66.890 E6.14561
G1 X57.976 Y64.265 E6.27319
G1 X58.054 Y64.129 E6.28038
G1 X59.431 Y61.890 E6.40078
G1 X61.317 Y59.903 E6.52631
G1 X61.741 Y60.410 F6000.000
G1 X63.915 Y58.903 E6.64752 F600.000
G1 X66.355 Y57.880 E6.76873
G1 X68.955 Y57.387 E6.88994
G1 X71.600 Y57.445 E7.01115
G1 X74.175 Y58.052 E7.13236 F600.000
G1 X76.568 Y59.181 E7.25357
G1 X78.674 Y60.783 E7.37478
G1 X80.401 Y62.788 E7.49599
G1 X81.673 Y65.108 E7.61720
G1 X82.435 Y67.642 E7.73841
G1 X82.451 Y67.798 E7.74560
G1 X82.653 Y70.279 E7.85963
G1 X82.451 Y72.202 E7.94822
G1 X82.319 Y72.904 E7.98092
G1 X81.721 Y74.743 E8.06950
G1 X81.446 Y75.401 E8.10221
G1 X80.073 Y77.663 E8.22342
G1 X78.779 Y79.100 E8.31201
G1 X78.259 Y79.590 E8.34471
G1 X76.085 Y81.097 E8.46592
G1 X73.645 Y82.120 E8.58713
G1 X71.045 Y82.613 E8.70834
G1 X68.400 Y82.555 E8.82955
G1 X65.825 Y81.948 E8.95076
G1 X64.058 Y81.161 E9.03935
G1 X63.432 Y80.819 E9.07205
G1 X61.867 Y79.682 E9.16064
G1 X61.326 Y79.217 E9.19334
G1 X60.032 Y77.779 E9.28193
G1 X59.599 Y77.212 E9.31463
G1 X58.633 Y75.537 E9.40322
G1 X58.327 Y74.892 E9.43592
G1 X57.730 Y73.053 E9.52451
G1 X57.565 Y72.358 E9.55721
G1 X57.347 Y69.721 E9.67842
G1 X57.681 Y67.097 E9.79963
G1 X58.554 Y64.599 E9.92085
G1 X58.633 Y64.463 E9.92803
G1 X59.927 Y62.337 E10.04206
G1 X61.710 Y60.443 E10.16121
G1 F2400.000 E7.46121
G92 E0
G1 X63.993 Y63.329 F6000.000
G1 E2.70000 F2400.000
G1 X65.512 Y62.226 E2.78597 F600.000
G1 X67.226 Y61.463 E2.87194
G1 X69.062 Y61.073 E2.95791
G1 X70.664 Y61.073 E3.03133
G1 X70.664 Y61.014 E3.03400 F600.000
G1 X72.774 Y61.463 E3.13280
G1 X74.488 Y62.226 E3.21877
G1 X76.007 Y63.329 E3.30474
G1 X77.262 Y64.724 E3.39071
G1 X78.201 Y66.349 E3.47668
G1 X78.780 Y68.134 E3.56265
G1 X78.977 Y70.000 E3.64862
G1 X78.780 Y71.866 E3.73459
G1 X78.201 Y73.651 E3.82056
G1 X77.262 Y75.276 E3.90653
G1 X76.007 Y76.671 E3.99250
G1 X74.488 Y77.774 E4.07847
G1 X72.774 Y78.537 E4.16444
G1 X70.938 Y78.927 E4.25041
G1 X69.062 Y78.927 E4.33638
G1 X67.226 Y78.537 E4.42235
G1 X65.512 Y77.774 E4.50832
G1 X63.993 Y76.671 E4.59429
G1 X62.738 Y75.276 E4.68026
G1 X61.799 Y73.651 E4.76623
G1 X61.220 Y71.866 E4.85219
G1 X61.023 Y70.000 E4.93817
G1 X61.220 Y68.134 E5.02414
G1 X61.799 Y66.349 E5.11010
G1 X62.738 Y64.724 E5.19608
G1 X63.963 Y63.363 E5.27998
G1 X63.467 Y62.916 F6000.000
G1 X63.531 Y62.840 E5.28454 F600.000
G1 X65.176 Y61.645 E5.37768
G1 X67.019 Y60.824 E5.47008
G1 X68.991 Y60.405 E5.56248
G1 X71.009 Y60.405 E5.65488
G1 X71.126 Y60.430 E5.66038
G1 X72.981 Y60.824 E5.74728 F600.000
G1 X74.824 Y61.645 E5.83968
G1 X76.456 Y62.830 E5.93208
G1 X77.805 Y64.329 E6.02449
G1 X78.814 Y66.076 E6.11689
G1 X79.437 Y67.994 E6.20929
G1 X79.648 Y70.000 E6.30169
G1 X79.437 Y72.006 E6.39409
G1 X78.814 Y73.924 E6.48649
G1 X77.805 Y75.671 E6.57889
G1 X76.456 Y77.170 E6.67129
G1 X74.824 Y78.355 E6.76369
G1 X72.981 Y79.176 E6.85609
G1 X71.009 Y79.595 E6.94849
G1 X68.991 Y79.595 E7.04090
G1 X67.019 Y79.176 E7.13330
G1 X65.176 Y78.355 E7.22570
G1 X63.544 Y77.170 E7.31810
G1 X62.195 Y75.671 E7.41050
G1 X61.186 Y73.924 E7.50290
G1 X60.563 Y72.006 E7.59530
G1 X60.352 Y70.000 E7.68770
G1 X60.563 Y67.994 E7.78010
G1 X61.186 Y66.076 E7.87250
G1 X62.195 Y64.329 E7.96490
G1 X63.437 Y62.949 E8.04997
G1 X64.420 Y63.803 F6000.000
G1 X65.831 Y62.778 E8.12983 F600.000
G1 X67.423 Y62.069 E8.20969
G1 X69.128 Y61.707 E8.28955
G1 X70.872 Y61.707 E8.36941
G1 X72.577 Y62.069 E8.44927
G1 X74.169 Y62.778 E8.52913
G1 X75.580 Y63.803 E8.60899
G1 X76.746 Y65.099 E8.68885
G1 X77.618 Y66.608 E8.76871
G1 X78.156 Y68.266 E8.84857
G1 X78.339 Y70.000 E8.92843
G1 X78.156 Y71.734 E9.00829
G1 X77.618 Y73.392 E9.08815
G1 X76.746 Y74.901 E9.16802
G1 X75.580 Y76.197 E9.24788
G1 X74.169 Y77.222 E9.32774
G1 X72.577 Y77.931 E9.40760
G1 X70.872 Y78.293 E9.48746
G1 X69.128 Y78.293 E9.56732
G1 X67.423 Y77.931 E9.64718
G1 X65.831 Y77.222 E9.72704
G1 X64.420 Y76.197 E9.80690
G1 X63.254 Y74.901 E9.88676
G1 X62.382 Y73.392 E9.96662
G1 X61.844 Y71.734 E10.04648
G1 X61.661 Y70.000 E10.12634
G1 X61.844 Y68.266 E10.20621
G1 X62.382 Y66.608 E10.28607
G1 X63.254 Y65.099 E10.36593
G1 X64.390 Y63.837 E10.44373
G1 X64.877 Y64.311 F6000.000
G1 X66.172 Y63.370 E10.51705 F600.000
G1 X67.634 Y62.719 E10.59037
G1 X69.200 Y62.386 E10.66369
G1 X70.800 Y62.386 E10.73701
G1 X72.366 Y62.719 E10.81033
G1 X73.828 Y63.370 E10.88365
G1 X75.123 Y64.311 E10.95697
G1 X76.194 Y65.500 E11.03029
G1 X76.994 Y66.886 E11.10361
G1 X77.488 Y68.408 E11.17693
G1 X77.656 Y70.000 E11.25025
G1 X77.488 Y71.592 E11.32357
G1 X76.994 Y73.114 E11.39689
G1 X76.194 Y74.500 E11.47021
G1 X75.123 Y75.689 E11.54353
G1 X73.828 Y76.630 E11.61685
G1 X72.366 Y77.281 E11.69017
G1 X70.800 Y77.614 E11.76349
G1 X69.200 Y77.614 E11.83681
G1 X67.634 Y77.281 E11.91013
G1 X66.172 Y76.630 E11.98345
G1 X64.877 Y75.689 E12.05677
G1 X63.806 Y74.500 E12.13009
G1 X63.006 Y73.114 E12.20341
G1 X62.512 Y71.592 E12.27673
G1 X62.344 Y70.000 E12.35005
G1 X62.512 Y68.408 E12.42337
G1 X63.006 Y66.886 E12.49669
G1 X63.806 Y65.500 E12.57001
G1 X64.847 Y64.344 E12.64127
G1 X65.334 Y64.818 F6000.000
G1 X66.514 Y63.961 E12.70805 F600.000
G1 X67.845 Y63.368 E12.77483
G1 X69.271 Y63.065 E12.84161
G1 X70.729 Y63.065 E12.90839
G1 X72.155 Y63.368 E12.97517
G1 X73.486 Y63.961 E13.04195
G1 X74.666 Y64.818 E13.10873
G1 X75.641 Y65.901 E13.17551
G1 X76.370 Y67.164 E13.24229
G1 X76.820 Y68.550 E13.30907
G1 X76.973 Y70.000 E13.37585
G1 X76.820 Y71.450 E13.44263
G1 X76.370 Y72.836 E13.50941
G1 X75.641 Y74.099 E13.57619
G1 X74.666 Y75.182 E13.64297
G1 X73.486 Y76.039 E13.70975
G1 X72.155 Y76.632 E13.77653
G1 X70.729 Y76.935 E13.84331
G1 X69.271 Y76.935 E13.91009
G1 X67.845 Y76.632 E13.97687
G1 X66.514 Y76.039 E14.04365
G1 X65.334 Y75.182 E14.11043
G1 X64.359 Y74.099 E14.17721
G1 X63.630 Y72.836 E14.24399
G1 X63.180 Y71.450 E14.31077
G1 X63.027 Y70.000 E14.37755
G1 X63.180 Y68.550 E14.44433
G1 X63.630 Y67.164 E14.51111
G1 X64.359 Y65.901 E14.57789
G1 X65.304 Y64.852 E14.64261
G1 X65.791 Y65.326 F6000.000
G1 X66.855 Y64.553 E14.70284 F600.000
G1 X68.056 Y64.018 E14.76308
G1 X69.343 Y63.745 E14.82332
G1 X70.657 Y63.745 E14.88356
G1 X71.944 Y64.018 E14.94380
G1 X73.145 Y64.553 E15.00404
G1 X74.209 Y65.326 E15.06428
G1 X75.089 Y66.303 E15.12452
G1 X75.746 Y67.442 E15.18476
G1 X76.152 Y68.692 E15.24500
G1 X76.290 Y70.000 E15.30524
G1 X76.152 Y71.308 E15.36548
G1 X75.746 Y72.558 E15.42572
G1 X75.089 Y73.697 E15.48596
G1 X74.209 Y74.674 E15.54620
G1 X73.145 Y75.447 E15.60644
G1 X71.944 Y75.982 E15.66668
G1 X70.657 Y76.255 E15.72691
G1 X69.343 Y76.255 E15.78715
G1 X68.056 Y75.982 E15.84739
G1 X66.855 Y75.447 E15.90763
G1 X65.791 Y74.674 E15.96787
G1 X64.911 Y73.697 E16.02811
G1 X64.254 Y72.558 E16.08835
G1 X63.848 Y71.308 E16.14859
G1 X63.710 Y70.000 E16.20883
G1 X63.848 Y68.692 E16.26907
G1 X64.254 Y67.442 E16.32931
G1 X64.911 Y66.303 E16.38955
G1 X65.761 Y65.359 E16.44773
G1 X66.248 Y65.833 F6000.000
G1 X67.196 Y65.144 E16.50142 F600.000
G1 X68.267 Y64.667 E16.55512
G1 X69.414 Y64.424 E16.60882
G1 X70.586 Y64.424 E16.66252
G1 X71.733 Y64.667 E16.71622
G1 X72.803 Y65.144 E16.76992
G1 X73.752 Y65.833 E16.82362
G1 X74.536 Y66.704 E16.87732
G1 X75.122 Y67.719 E16.93102
G1 X75.484 Y68.834 E16.98471
G1 X75.607 Y70.000 E17.03841
G1 X75.484 Y71.166 E17.09211
G1 X75.122 Y72.281 E17.14581
G1 X74.536 Y73.296 E17.19951
G1 X73.752 Y74.167 E17.25321
G1 X72.804 Y74.856 E17.30691
G1 X71.733 Y75.333 E17.36061
G1 X70.586 Y75.576 E17.41431
G1 X69.414 Y75.576 E17.46801
G1 X68.267 Y75.333 E17.52170
G1 X67.196 Y74.856 E17.57540
G1 X66.248 Y74.167 E17.62910
G1 X65.464 Y73.296 E17.68280
G1 X64.878 Y72.281 E17.73650
G1 X64.516 Y71.166 E17.79020
G1 X64.393 Y70.000 E17.84390
G1 X64.516 Y68.834 E17.89760
G1 X64.878 Y67.719 E17.95130
G1 X65.464 Y66.704 E18.00500
G1 X66.218 Y65.867 E18.05663
G1 X66.705 Y66.341 F6000.000
G1 X67.538 Y65.736 E18.10379 F600.000
G1 X68.478 Y65.317 E18.15095
G1 X69.485 Y65.103 E18.19811
G1 X70.515 Y65.103 E18.24527
G1 X71.522 Y65.317 E18.29243
G1 X72.462 Y65.736 E18.33958
G1 X73.295 Y66.341 E18.38674
G1 X73.984 Y67.106 E18.43390
G1 X74.498 Y67.997 E18.48106
G1 X74.816 Y68.976 E18.52822
G1 X74.924 Y70.000 E18.57538
G1 X74.816 Y71.024 E18.62254
G1 X74.498 Y72.003 E18.66969
G1 X73.984 Y72.894 E18.71685
G1 X73.295 Y73.659 E18.76401
G1 X72.462 Y74.264 E18.81117
G1 X71.522 Y74.683 E18.85833
G1 X70.515 Y74.897 E18.90549
G1 X69.485 Y74.897 E18.95264
G1 X68.478 Y74.683 E18.99980
G1 X67.538 Y74.264 E19.04696
G1 X66.705 Y73.659 E19.09412
G1 X66.016 Y72.894 E19.14128
G1 X65.502 Y72.003 E19.18844
G1 X65.184 Y71.024 E19.23559
G1 X65.076 Y70.000 E19.28275
G1 X65.184 Y68.976 E19.32991
G1 X65.502 Y67.997 E19.37707
G1 X66.016 Y67.106 E19.42423
G1 X66.675 Y66.374 E19.46933
G1 X67.162 Y66.848 F6000.000
G1 X67.879 Y66.327 E19.50994 F600.000
G1 X68.689 Y65.966 E19.55056
G1 X69.557 Y65.782 E19.59118
G1 X70.443 Y65.782 E19.63180
G1 X71.311 Y65.966 E19.67242
G1 X72.121 Y66.327 E19.71304
G1 X72.838 Y66.848 E19.75365
G1 X73.431 Y67.507 E19.79427
G1 X73.874 Y68.275 E19.83489
G1 X74.148 Y69.118 E19.87551
G1 X74.241 Y70.000 E19.91612
G1 X74.148 Y70.882 E19.95674
G1 X73.874 Y71.725 E19.99736
G1 X73.431 Y72.493 E20.03798
G1 X72.838 Y73.152 E20.07860
G1 X72.121 Y73.673 E20.11921
G1 X71.311 Y74.034 E20.15983
G1 X70.443 Y74.218 E20.20045
G1 X69.557 Y74.218 E20.24107
G1 X68.689 Y74.034 E20.28169
G1 X67.879 Y73.673 E20.32231
G1 X67.162 Y73.152 E20.36292
G1 X66.569 Y72.493 E20.40354
G1 X66.126 Y71.725 E20.44416
G1 X65.852 Y70.882 E20.48478
G1 X65.759 Y70.000 E20.52540
G1 X65.852 Y69.118 E20.56601
G1 X66.126 Y68.275 E20.60663
G1 X66.569 Y67.507 E20.64725
G1 X67.132 Y66.882 E20.68581
G1 X67.619 Y67.356 F6000.000
G1 X68.221 Y66.918 E20.71988 F600.000
G1 X68.900 Y66.616 E20.75396
G1 X69.628 Y66.461 E20.78804
G1 X70.372 Y66.461 E20.82212
G1 X71.100 Y66.616 E20.85619
G1 X71.779 Y66.918 E20.89027
G1 X72.381 Y67.356 E20.92435
G1 X72.879 Y67.909 E20.95843
G1 X73.251 Y68.553 E20.99250
G1 X73.480 Y69.260 E21.02658
G1 X73.558 Y70.000 E21.06066
G1 X73.480 Y70.740 E21.09474
G1 X73.251 Y71.447 E21.12882
G1 X72.879 Y72.091 E21.16289
G1 X72.381 Y72.644 E21.19697
G1 X71.779 Y73.081 E21.23105
G1 X71.100 Y73.384 E21.26513
G1 X70.372 Y73.539 E21.29920
G1 X69.628 Y73.539 E21.33328
G1 X68.900 Y73.384 E21.36736
G1 X68.221 Y73.081 E21.40144
G1 X67.619 Y72.644 E21.43551
G1 X67.121 Y72.091 E21.46959
G1 X66.749 Y71.447 E21.50367
G1 X66.520 Y70.740 E21.53775
G1 X66.442 Y70.000 E21.57182
G1 X66.520 Y69.260 E21.60590
G1 X66.749 Y68.553 E21.63998
G1 X67.121 Y67.909 E21.67406
G1 X67.589 Y67.389 E21.70607
G1 X68.076 Y67.863 F6000.000
G1 X68.562 Y67.510 E21.73361 F600.000
G1 X69.111 Y67.265 E21.76115
G1 X69.699 Y67.140 E21.78868
G1 X70.301 Y67.140 E21.81622
G1 X70.889 Y67.265 E21.84376
G1 X71.438 Y67.510 E21.87130
G1 X71.924 Y67.863 E21.89883
G1 X72.326 Y68.310 E21.92637
G1 X72.627 Y68.831 E21.95391
G1 X72.812 Y69.402 E21.98144
G1 X72.875 Y70.000 E22.00898
G1 X72.812 Y70.598 E22.03652
G1 X72.627 Y71.169 E22.06406
G1 X72.326 Y71.690 E22.09159
G1 X71.924 Y72.137 E22.11913
G1 X71.438 Y72.490 E22.14667
G1 X70.888 Y72.735 E22.17421
G1 X70.301 Y72.860 E22.20174
G1 X69.699 Y72.860 E22.22928
G1 X69.111 Y72.735 E22.25682
G1 X68.562 Y72.490 E22.28435
G1 X68.076 Y72.137 E22.31189
G1 X67.674 Y71.690 E22.33943
G1 X67.373 Y71.169 E22.36697
G1 X67.188 Y70.598 E22.39450
G1 X67.125 Y70.000 E22.42204
G1 X67.188 Y69.402 E22.44958
G1 X67.373 Y68.831 E22.47711
G1 X67.674 Y68.310 E22.50465
G1 X68.046 Y67.897 E22.53013
G1 X68.533 Y68.371 F6000.000
G1 X68.904 Y68.101 E22.55112 F600.000
G1 X69.323 Y67.915 E22.57212
G1 X69.771 Y67.820 E22.59312
G1 X70.229 Y67.820 E22.61411
G1 X70.677 Y67.915 E22.63511
G1 X71.096 Y68.101 E22.65611
G1 X71.467 Y68.371 E22.67710
G1 X71.774 Y68.711 E22.69810
G1 X72.003 Y69.108 E22.71910
G1 X72.144 Y69.544 E22.74009
G1 X72.192 Y70.000 E22.76109
G1 X72.144 Y70.456 E22.78209
G1 X72.003 Y70.892 E22.80308
G1 X71.774 Y71.289 E22.82408
G1 X71.467 Y71.629 E22.84508
G1 X71.096 Y71.899 E22.86607
G1 X70.677 Y72.085 E22.88707
G1 X70.229 Y72.180 E22.90807
G1 X69.771 Y72.180 E22.92906
G1 X69.323 Y72.085 E22.95006
G1 X68.904 Y71.899 E22.97106
G1 X68.533 Y71.629 E22.99205
G1 X68.226 Y71.289 E23.01305
G1 X67.997 Y70.892 E23.03405
G1 X67.856 Y70.456 E23.05504
G1 X67.808 Y70.000 E23.07604
G1 X67.856 Y69.544 E23.09704
G1 X67.997 Y69.108 E23.11803
G1 X68.226 Y68.711 E23.13903
G1 X68.503 Y68.404 E23.15797
G1 X68.990 Y68.878 F6000.000
G1 X69.245 Y68.693 E23.17242 F600.000
G1 X69.534 Y68.564 E23.18688
G1 X69.842 Y68.499 E23.20134
G1 X70.158 Y68.499 E23.21579
G1 X70.466 Y68.564 E23.23025
G1 X70.755 Y68.693 E23.24470
G1 X71.010 Y68.878 E23.25916
G1 X71.221 Y69.113 E23.27362
G1 X71.379 Y69.386 E23.28807
G1 X71.476 Y69.686 E23.30253
G1 X71.509 Y70.000 E23.31699
G1 X71.476 Y70.314 E23.33144
G1 X71.379 Y70.614 E23.34590
G1 X71.221 Y70.887 E23.36035
G1 X71.010 Y71.122 E23.37481
G1 X70.755 Y71.307 E23.38927
G1 X70.466 Y71.436 E23.40372
G1 X70.158 Y71.501 E23.41818
G1 X69.842 Y71.501 E23.43264
G1 X69.534 Y71.436 E23.44709
G1 X69.245 Y71.307 E23.46155
G1 X68.990 Y71.122 E23.47600
G1 X68.779 Y70.887 E23.49046
G1 X68.621 Y70.614 E23.50492
G1 X68.524 Y70.314 E23.51937
G1 X68.491 Y70.000 E23.53383
G1 X68.524 Y69.686 E23.54829
G1 X68.621 Y69.386 E23.56274
G1 X68.779 Y69.113 E23.57720
G1 X68.960 Y68.912 E23.58959
G1 X69.447 Y69.386 F6000.000
G1 X69.587 Y69.284 E23.59751 F600.000
G1 X69.745 Y69.214 E23.60543
G1 X69.914 Y69.178 E23.61334
G1 X70.086 Y69.178 E23.62126
G1 X70.255 Y69.214 E23.62917
G1 X70.413 Y69.284 E23.63709
G1 X70.553 Y69.386 E23.64500
G1 X70.669 Y69.514 E23.65292
G1 X70.755 Y69.664 E23.66084
G1 X70.808 Y69.828 E23.66875
G1 X70.827 Y70.000 E23.67667
G1 X70.808 Y70.172 E23.68458
G1 X70.755 Y70.336 E23.69250
G1 X70.669 Y70.486 E23.70041
G1 X70.553 Y70.614 E23.70833
G1 X70.413 Y70.716 E23.71625
G1 X70.255 Y70.786 E23.72416
G1 X70.086 Y70.822 E23.73208
G1 X69.914 Y70.822 E23.73999
G1 X69.745 Y70.786 E23.74791
G1 X69.587 Y70.716 E23.75583
G1 X69.447 Y70.614 E23.76374
G1 X69.331 Y70.486 E23.77166
G1 X69.245 Y70.336 E23.77957
G1 X69.192 Y70.172 E23.78749
G1 X69.173 Y70.000 E23.79540
G1 X69.192 Y69.828 E23.80332
G1 X69.245 Y69.664 E23.81124
G1 X69.331 Y69.514 E23.81915
G1 X69.417 Y69.419 E23.82501
M104 S197 ; set temperature
G1 F2400.000 E21.12501
G92 E0
G1 Z0.350 F6000.000
G1 X63.162 Y63.788 F6000.000
G1 E2.70000 F2400.000
G1 X63.784 Y63.097 E2.77287 F1200.000
G1 X65.355 Y61.955 E2.92511
G1 X67.130 Y61.166 E3.07734
