; generated by Slic3r 1.2.0 on 2014-12-09 at 19:11:37

; external perimeters extrusion width = 0.30mm
; perimeters extrusion width = 0.90mm
; infill extrusion width = 0.50mm
; solid infill extrusion width = 0.50mm
; top infill extrusion width = 0.60mm

G21 ; set units to millimeters
M107
M104 S210 ; set temperature
G21           ;metric is good!
G90           ;absolute positioning
G28           ;go home
G92 E0        ;reset extruder
M109 S210 ; wait for temperature to be reached
G90 ; use absolute coordinates
G92 E0
M82 ; use absolute distances for extrusion
G1 F2400.000 E-2.70000
G92 E0
G1 Z0.300 F6000.000
G1 X58.147 Y57.226 F6000.000
G1 E2.70000 F2400.000
G1 X60.000 Y56.664 E2.78869 F600.000
G1 X80.000 Y56.664 E3.70491
G1 X81.573 Y57.058 E3.77918
G1 X82.774 Y58.147 E3.85346 F600.000
G1 X83.336 Y60.000 E3.94215
G1 X83.336 Y80.000 E4.85837
G1 X82.942 Y81.573 E4.93264
G1 X81.853 Y82.774 E5.00691
G1 X80.000 Y83.336 E5.09560
G1 X60.000 Y83.336 E6.01182
G1 X58.427 Y82.942 E6.08610
G1 X57.226 Y81.853 E6.16037
G1 X56.664 Y80.000 E6.24906
G1 X56.664 Y60.000 E7.16528
G1 X57.058 Y58.427 E7.23955
G1 X58.117 Y57.260 E7.31176
G1 X58.608 Y57.790 F6000.000
G1 X58.787 Y57.624 E7.32293 F600.000
G1 X60.000 Y57.332 E7.38010
G1 X80.000 Y57.332 E8.29632
G1 X81.393 Y57.725 E8.36262
G1 X82.376 Y58.787 E8.42891 F600.000
G1 X82.668 Y60.000 E8.48608
G1 X82.668 Y80.000 E9.40230
G1 X82.275 Y81.393 E9.46860
G1 X81.213 Y82.376 E9.53489
G1 X80.000 Y82.668 E9.59206
G1 X60.000 Y82.668 E10.50828
G1 X58.607 Y82.275 E10.57458
G1 X57.624 Y81.213 E10.64087
G1 X57.332 Y80.000 E10.69804
G1 X57.332 Y60.000 E11.61426
G1 X57.725 Y58.607 E11.68056
G1 X58.575 Y57.820 E11.73362
G1 F2400.000 E9.03362
G92 E0
G1 X60.350 Y60.350 F6000.000
G1 E2.70000 F2400.000
G1 X79.650 Y60.350 E3.58415 F600.000
G1 X79.650 Y79.650 E4.46831
G1 X60.350 Y79.650 E5.35246
G1 X60.350 Y60.395 E6.23456
G1 X60.984 Y60.984 F6000.000
G1 X79.016 Y60.984 E7.06058 F600.000
G1 X79.016 Y79.016 E7.88661
G1 X60.984 Y79.016 E8.71264
G1 X60.984 Y61.029 E9.53661
G1 X61.663 Y61.663 F6000.000
G1 X78.337 Y61.663 E10.30043 F600.000
G1 X78.337 Y78.337 E11.06426
G1 X61.663 Y78.337 E11.82808
G1 X61.663 Y61.708 E12.58984
G1 X62.342 Y62.342 F6000.000
G1 X77.658 Y62.342 E13.29145 F600.000
G1 X77.658 Y77.658 E13.99307
G1 X62.342 Y77.658 E14.69468
G1 X62.342 Y62.387 E15.39424
G1 X63.021 Y63.021 F6000.000
G1 X76.979 Y63.021 E16.03364 F600.000
G1 X76.979 Y76.979 E16.67305
G1 X63.021 Y76.979 E17.31246
G1 X63.021 Y63.066 E17.94981
G1 X63.700 Y63.700 F6000.000
G1 X76.300 Y63.700 E18.52701 F600.000
G1 X76.300 Y76.300 E19.10421
G1 X63.700 Y76.300 E19.68141
G1 X63.700 Y63.745 E20.25655
G1 X64.379 Y64.379 F6000.000
G1 X75.621 Y64.379 E20.77154 F600.000
G1 X75.621 Y75.621 E21.28653
G1 X64.379 Y75.621 E21.80153
G1 X64.379 Y64.424 E22.31446
G1 X65.058 Y65.058 F6000.000
G1 X74.942 Y65.058 E22.76725 F600.000
G1 X74.942 Y74.942 E23.22003
G1 X65.058 Y74.942 E23.67282
G1 X65.058 Y65.103 E24.12354
G1 X65.737 Y65.737 F6000.000
G1 X74.263 Y65.737 E24.51412 F600.000
G1 X74.263 Y74.263 E24.90470
G1 X65.737 Y74.263 E25.29528
G1 X65.737 Y65.782 E25.68380
G1 X66.416 Y66.416 F6000.000
G1 X73.584 Y66.416 E26.01217 F600.000
G1 X73.584 Y73.584 E26.34054
G1 X66.416 Y73.584 E26.66892
G1 X66.416 Y66.461 E26.99523
G1 X67.095 Y67.095 F6000.000
G1 X72.905 Y67.095 E27.26139 F600.000
G1 X72.905 Y72.905 E27.52756
G1 X67.095 Y72.905 E27.79372
G1 X67.095 Y67.140 E28.05783
G1 X67.774 Y67.774 F6000.000
G1 X72.226 Y67.774 E28.26178 F600.000
G1 X72.226 Y72.226 E28.46574
G1 X67.774 Y72.226 E28.66970
G1 X67.774 Y67.819 E28.87160
G1 X68.453 Y68.453 F6000.000
G1 X71.547 Y68.453 E29.01335 F600.000
G1 X71.547 Y71.547 E29.15510
G1 X68.453 Y71.547 E29.29685
G1 X68.453 Y68.498 E29.43654
G1 X69.132 Y69.132 F6000.000
G1 X70.868 Y69.132 E29.51608 F600.000
G1 X70.868 Y70.868 E29.59563
G1 X69.132 Y70.868 E29.67517
G1 X69.132 Y69.177 E29.75265
M104 S197 ; set temperature
G1 F2400.000 E27.05265
G92 E0
G1 Z0.500 F6000.000
G1 X60.150 Y60.150 F6000.000
G1 E2.70000 F2400.000
G1 X79.850 Y60.150 E3.16322 F1200.000
G1 X79.850 Y79.850 E3.62645
G1 X60.150 Y79.850 E4.08967
G1 X60.150 Y60.195 E4.55184
G1 X60.701 Y60.661 F6000.000
G1 X60.661 Y60.701 E4.55420 F4800.000
G1 X60.661 Y61.355 E4.58154
G1 X61.355 Y60.661 E4.62257
G1 X62.009 Y60.661 E4.64991
G1 X60.661 Y62.009 E4.72960
G1 X60.661 Y62.663 E4.75694
G1 X62.663 Y60.661 E4.87529
G1 X63.317 Y60.661 E4.90263
G1 X60.661 Y63.317 E5.05965
G1 X60.661 Y63.971 E5.08699
G1 X63.971 Y60.661 E5.28267
G1 X64.625 Y60.661 E5.31001
G1 X60.661 Y64.625 E5.54436
G1 X60.661 Y65.279 E5.57170
G1 X65.279 Y60.661 E5.84471
G1 X65.933 Y60.661 E5.87205
G1 X60.661 Y65.933 E6.18372
G1 X60.661 Y66.587 E6.21106
G1 X66.587 Y60.661 E6.56140
G1 X67.241 Y60.661 E6.58873
G1 X60.661 Y67.241 E6.97773
G1 X60.661 Y67.895 E7.00507
G1 X67.895 Y60.661 E7.43274
G1 X68.549 Y60.661 E7.46008
G1 X60.661 Y68.549 E7.92640
G1 X60.661 Y69.203 E7.95374
G1 X69.203 Y60.661 E8.45873
G1 X69.857 Y60.661 E8.48607
G1 X60.661 Y69.857 E9.02973
G1 X60.661 Y70.510 E9.05707
G1 X70.510 Y60.661 E9.63938
G1 X71.164 Y60.661 E9.66672
G1 X60.661 Y71.164 E10.28770
G1 X60.661 Y71.818 E10.31504
G1 X71.818 Y60.661 E10.97469
G1 X72.472 Y60.661 E11.00203
G1 X60.661 Y72.472 E11.70033
G1 X60.661 Y73.126 E11.72767
G1 X73.126 Y60.661 E12.46464
G1 X73.780 Y60.661 E12.49198
G1 X60.661 Y73.780 E13.26762
G1 X60.661 Y74.434 E13.29496
G1 X74.434 Y60.661 E14.10926
G1 X75.088 Y60.661 E14.13659
G1 X60.661 Y75.088 E14.98956
G1 X60.661 Y75.742 E15.01690
G1 X75.742 Y60.661 E15.90852
G1 X76.396 Y60.661 E15.93586
G1 X60.661 Y76.396 E16.86615
G1 X60.661 Y77.050 E16.89349
G1 X77.050 Y60.661 E17.86244
G1 X77.704 Y60.661 E17.88978
G1 X60.661 Y77.704 E18.89740
G1 X60.661 Y78.358 E18.92473
G1 X78.358 Y60.661 E19.97101
G1 X79.012 Y60.661 E19.99835
G1 X60.661 Y79.012 E21.08330
G1 X60.988 Y79.339 E21.10263
G1 X79.339 Y60.988 E22.18757
G1 X79.339 Y61.642 E22.21491
G1 X61.642 Y79.339 E23.26119
G1 X62.296 Y79.339 E23.28853
G1 X79.339 Y62.296 E24.29614
G1 X79.339 Y62.950 E24.32348
G1 X62.950 Y79.339 E25.29244
G1 X63.604 Y79.339 E25.31978
G1 X79.339 Y63.604 E26.25006
G1 X79.339 Y64.258 E26.27740
G1 X64.258 Y79.339 E27.16903
G1 X64.912 Y79.339 E27.19637
G1 X79.339 Y64.912 E28.04933
G1 X79.339 Y65.566 E28.07667
G1 X65.566 Y79.339 E28.89097
G1 X66.220 Y79.339 E28.91831
G1 X79.339 Y66.220 E29.69394
G1 X79.339 Y66.874 E29.72128
G1 X66.874 Y79.339 E30.45825
G1 X67.528 Y79.339 E30.48559
G1 X79.339 Y67.528 E31.18390
G1 X79.339 Y68.182 E31.21124
G1 X68.182 Y79.339 E31.87088
G1 X68.836 Y79.339 E31.89822
G1 X79.339 Y68.836 E32.51920
G1 X79.339 Y69.490 E32.54654
G1 X69.490 Y79.339 E33.12886
G1 X70.143 Y79.339 E33.15620
G1 X79.339 Y70.143 E33.69985
G1 X79.339 Y70.797 E33.72719
G1 X70.797 Y79.339 E34.23218
G1 X71.451 Y79.339 E34.25952
G1 X79.339 Y71.451 E34.72585
G1 X79.339 Y72.105 E34.75319
G1 X72.105 Y79.339 E35.18085
G1 X72.759 Y79.339 E35.20819
G1 X79.339 Y72.759 E35.59719
G1 X79.339 Y73.413 E35.62453
G1 X73.413 Y79.339 E35.97487
G1 X74.067 Y79.339 E36.00221
G1 X79.339 Y74.067 E36.31388
G1 X79.339 Y74.721 E36.34122
G1 X74.721 Y79.339 E36.61423
G1 X75.375 Y79.339 E36.64157
G1 X79.339 Y75.375 E36.87592
G1 X79.339 Y76.029 E36.90325
G1 X76.029 Y79.339 E37.09894
G1 X76.683 Y79.339 E37.12628
G1 X79.339 Y76.683 E37.28330
G1 X79.339 Y77.337 E37.31063
G1 X77.337 Y79.339 E37.42899
G1 X77.991 Y79.339 E37.45633
G1 X79.339 Y77.991 E37.53602
G1 X79.339 Y78.645 E37.56336
G1 X78.645 Y79.339 E37.60439
G1 X79.299 Y79.339 E37.63173
G1 X79.339 Y79.299 E37.63409
G1 F2400.000 E34.93409
G92 E0
G1 Z0.700 F6000.000
G1 X79.850 Y79.850 F6000.000
G1 E2.70000 F2400.000
G1 X60.150 Y79.850 E3.16322 F1200.000
G1 X60.150 Y60.150 E3.62645
G1 X79.850 Y60.150 E4.08967
G1 X79.850 Y79.805 E4.55184
G1 X79.299 Y60.661 F6000.000
G1 X79.339 Y60.701 E4.55420 F4800.000
G1 X79.339 Y61.355 E4.58154
G1 X78.645 Y60.661 E4.62257
G1 X77.991 Y60.661 E4.64991
G1 X79.339 Y62.009 E4.72960
G1 X79.339 Y62.663 E4.75694
G1 X77.337 Y60.661 E4.87529
G1 X76.683 Y60.661 E4.90263
G1 X79.339 Y63.317 E5.05965
G1 X79.339 Y63.971 E5.08699
G1 X76.029 Y60.661 E5.28267
G1 X75.375 Y60.661 E5.31001
G1 X79.339 Y64.625 E5.54436
G1 X79.339 Y65.279 E5.57170
G1 X74.721 Y60.661 E5.84471
G1 X74.067 Y60.661 E5.87205
G1 X79.339 Y65.933 E6.18372
G1 X79.339 Y66.587 E6.21106
G1 X73.413 Y60.661 E6.56140
G1 X72.759 Y60.661 E6.58874
G1 X79.339 Y67.241 E6.97774
G1 X79.339 Y67.895 E7.00507
G1 X72.105 Y60.661 E7.43274
G1 X71.451 Y60.661 E7.46008
G1 X79.339 Y68.549 E7.92640
G1 X79.339 Y69.203 E7.95374
G1 X70.797 Y60.661 E8.45873
G1 X70.143 Y60.661 E8.48607
G1 X79.339 Y69.857 E9.02973
G1 X79.339 Y70.510 E9.05707
G1 X69.490 Y60.661 E9.63938
G1 X68.836 Y60.661 E9.66672
G1 X79.339 Y71.164 E10.28770
G1 X79.339 Y71.818 E10.31504
G1 X68.182 Y60.661 E10.97469
G1 X67.528 Y60.661 E11.00203
G1 X79.339 Y72.472 E11.70034
G1 X79.339 Y73.126 E11.72767
G1 X66.874 Y60.661 E12.46465
G1 X66.220 Y60.661 E12.49199
G1 X79.339 Y73.780 E13.26762
G1 X79.339 Y74.434 E13.29496
G1 X65.566 Y60.661 E14.10926
G1 X64.912 Y60.661 E14.13660
G1 X79.339 Y75.088 E14.98956
G1 X79.339 Y75.742 E15.01690
G1 X64.258 Y60.661 E15.90852
G1 X63.604 Y60.661 E15.93586
G1 X79.339 Y76.396 E16.86615
G1 X79.339 Y77.050 E16.89349
G1 X62.950 Y60.661 E17.86244
G1 X62.296 Y60.661 E17.88978
G1 X79.339 Y77.704 E18.89740
G1 X79.339 Y78.358 E18.92474
G1 X61.642 Y60.661 E19.97102
G1 X60.988 Y60.661 E19.99836
G1 X79.339 Y79.012 E21.08330
G1 X79.012 Y79.339 E21.10263
G1 X60.661 Y60.988 E22.18757
G1 X60.661 Y61.642 E22.21491
G1 X78.358 Y79.339 E23.26119
G1 X77.704 Y79.339 E23.28853
G1 X60.661 Y62.296 E24.29615
G1 X60.661 Y62.950 E24.32349
G1 X77.050 Y79.339 E25.29244
G1 X76.396 Y79.339 E25.31978
G1 X60.661 Y63.604 E26.25007
G1 X60.661 Y64.258 E26.27741
G1 X75.742 Y79.339 E27.16903
G1 X75.088 Y79.339 E27.19637
G1 X60.661 Y64.912 E28.04933
G1 X60.661 Y65.566 E28.07667
G1 X74.434 Y79.339 E28.89097
G1 X73.780 Y79.339 E28.91831
G1 X60.661 Y66.220 E29.69395
G1 X60.661 Y66.874 E29.72128
G1 X73.126 Y79.339 E30.45826
G1 X72.472 Y79.339 E30.48560
G1 X60.661 Y67.528 E31.18390
G1 X60.661 Y68.182 E31.21124
G1 X71.818 Y79.339 E31.87089
G1 X71.164 Y79.339 E31.89823
G1 X60.661 Y68.836 E32.51921
G1 X60.661 Y69.490 E32.54655
G1 X70.510 Y79.339 E33.12886
G1 X69.857 Y79.339 E33.15620
G1 X60.661 Y70.143 E33.69986
G1 X60.661 Y70.797 E33.72720
G1 X69.203 Y79.339 E34.23219
G1 X68.549 Y79.339 E34.25953
G1 X60.661 Y71.451 E34.72585
G1 X60.661 Y72.105 E34.75319
G1 X67.895 Y79.339 E35.18086
G1 X67.241 Y79.339 E35.20820
G1 X60.661 Y72.759 E35.59720
G1 X60.661 Y73.413 E35.62453
G1 X66.587 Y79.339 E35.97487
G1 X65.933 Y79.339 E36.00221
G1 X60.661 Y74.067 E36.31388
G1 X60.661 Y74.721 E36.34122
G1 X65.279 Y79.339 E36.61423
G1 X64.625 Y79.339 E36.64157
G1 X60.661 Y75.375 E36.87592
G1 X60.661 Y76.029 E36.90326
G1 X63.971 Y79.339 E37.09894
G1 X63.317 Y79.339 E37.12628
G1 X60.661 Y76.683 E37.28330
G1 X60.661 Y77.337 E37.31064
G1 X62.663 Y79.339 E37.42899
G1 X62.009 Y79.339 E37.45633
G1 X60.661 Y77.991 E37.53602
G1 X60.661 Y78.645 E37.56336
G1 X61.355 Y79.339 E37.60439
G1 X60.701 Y79.339 E37.63173
G1 X60.661 Y79.299 E37.63409
M106 S255
G1 F2400.000 E34.93409
G92 E0
G1 Z0.900 F6000.000
G1 X60.150 Y79.850 F6000.000
G1 E2.70000 F2400.000
G1 X60.150 Y60.150 E3.16322 F600.000
G1 X79.850 Y60.150 E3.62645
G1 X79.850 Y79.850 E4.08967
G1 X60.195 Y79.850 E4.55184
G1 X60.681 Y78.432 F6000.000
G1 X63.316 Y79.138 E4.66586 F2139.661
G1 X67.235 Y75.219 E4.89755
G1 X66.005 Y70.631 E5.09614
G1 X69.924 Y66.712 E5.32782
G1 X74.512 Y67.942 E5.52641
G1 X78.431 Y64.023 E5.75809
G1 X77.535 Y60.681 E5.90272
G1 X79.319 Y64.498 E6.07883
G1 X78.754 Y64.346 E6.10327
G1 X74.835 Y68.265 E6.33496
G1 X76.065 Y72.853 E6.53355
G1 X72.146 Y76.772 E6.76523
G1 X67.558 Y75.542 E6.96382
G1 X63.781 Y79.319 E7.18709
G1 X73.065 Y79.319 F6000.000
G1 X72.469 Y77.095 E7.28334 F2139.661
G1 X76.388 Y73.176 E7.51502
G1 X79.319 Y73.962 E7.64187
G1 X69.491 Y60.681 F6000.000
G1 X68.371 Y61.801 E7.70805 F2139.661
G1 X69.601 Y66.389 E7.90664
G1 X65.682 Y70.308 E8.13833
G1 X61.094 Y69.078 E8.33691
G1 X60.681 Y69.491 E8.36129
G1 X60.681 Y68.844 E8.38832
G1 X60.770 Y68.755 E8.39358
G1 X60.681 Y68.423 E8.40797
G1 X60.681 Y63.026 E8.63357
G1 X63.026 Y60.681 E8.77222
G1 X62.380 Y60.681 E8.79924
G1 X60.681 Y62.380 E8.89967
G1 X65.077 Y60.681 E9.09667
G1 X68.048 Y61.478 E9.22527
G1 X68.844 Y60.681 E9.27235
G1 F2400.000 E6.57235
G92 E0
G1 Z1.100 F6000.000
G1 X60.150 Y60.150 F6000.000
G1 E2.70000 F2400.000
G1 X79.850 Y60.150 E3.16322 F600.000
G1 X79.850 Y79.850 E3.62645
G1 X60.150 Y79.850 E4.08967
G1 X60.150 Y60.195 E4.55184
G1 X77.772 Y60.681 F6000.000
G1 X78.754 Y64.346 E4.71046 F2131.230
G1 X79.319 Y64.498 E4.73490
G1 X79.319 Y73.962 F6000.000
G1 X76.388 Y73.176 E4.86175 F2131.230
G1 X74.954 Y67.823 E5.09344
G1 X78.312 Y64.464 E5.29202
G1 X77.299 Y60.681 E5.45576
G1 X69.167 Y60.681 E5.79571
G1 X68.489 Y61.359 E5.83579
G1 X69.924 Y66.712 E6.06748
G1 X74.512 Y67.942 E6.26606
G1 X75.946 Y73.295 E6.49775
G1 X72.587 Y76.653 E6.69634
G1 X73.302 Y79.319 E6.81169
G1 X72.828 Y79.319 E6.83147
G1 X72.146 Y76.772 E6.94171
G1 X67.558 Y75.542 E7.14030
G1 X66.123 Y70.189 E7.37198
G1 X69.482 Y66.831 E7.57057
G1 X68.048 Y61.478 E7.80225
G1 X65.077 Y60.681 E7.93086
G1 X62.703 Y60.681 E8.03008
G1 X60.681 Y62.703 E8.14962
G1 X60.681 Y67.540 E8.35181
G1 X61.094 Y69.078 E8.41841
G1 X65.682 Y70.308 E8.61700
G1 X67.116 Y75.661 E8.84868
G1 X63.757 Y79.019 E9.04727
G1 X63.838 Y79.319 E9.06022
G1 X63.364 Y79.319 E9.08000
G1 X63.316 Y79.138 E9.08783
G1 X60.681 Y78.432 E9.20186
G1 F2400.000 E6.50186
G92 E0
G1 Z1.300 F6000.000
G1 X60.150 Y79.850 F6000.000
G1 E2.70000 F2400.000
G1 X60.150 Y60.150 E3.16322 F600.000
G1 X79.850 Y60.150 E3.62645
G1 X79.850 Y79.850 E4.08967
G1 X60.195 Y79.850 E4.55184
G1 X60.681 Y78.668 F6000.000
G1 X63.108 Y79.319 E4.65686 F2244.583
G1 X60.681 Y78.195 E4.76866
G1 X63.757 Y79.019 E4.90179
G1 X67.116 Y75.661 E5.10038
G1 X72.469 Y77.095 E5.33207
G1 X73.065 Y79.319 E5.42831
G1 X79.319 Y74.198 E5.76622
G1 X75.946 Y73.295 E5.91217
G1 X72.587 Y76.653 E6.11076
G1 X67.235 Y75.219 E6.34245
G1 X66.005 Y70.631 E6.54103
G1 X60.681 Y69.204 E6.77146
G1 X60.681 Y68.423 E6.80414
G1 X60.770 Y68.755 E6.81853
G1 X66.123 Y70.189 E7.05022
G1 X69.482 Y66.831 E7.24880
G1 X74.835 Y68.265 E7.48049
G1 X76.065 Y72.853 E7.67908
G1 X79.319 Y73.725 E7.81991
G1 X79.319 Y64.734 E8.19579
G1 X78.312 Y64.464 E8.23935
G1 X74.953 Y67.823 E8.43794
G1 X69.601 Y66.389 E8.66962
G1 X68.371 Y61.801 E8.86821
G1 X64.194 Y60.681 E9.04902
G1 X62.703 Y60.681 E9.11133
G1 X60.681 Y62.703 E9.23087
G1 X65.960 Y60.681 E9.46717
G1 X68.489 Y61.359 E9.57667
G1 X69.167 Y60.681 E9.61675
G1 X77.535 Y60.681 E9.96658
G1 X78.431 Y64.023 E10.11121
G1 X79.319 Y64.261 E10.14965
G1 F2400.000 E7.44965
G92 E0
G1 Z1.500 F6000.000
G1 X79.850 Y60.150 F6000.000
G1 E2.70000 F2400.000
G1 X79.850 Y79.850 E3.16322 F600.000
G1 X60.150 Y79.850 E3.62645
G1 X60.150 Y60.150 E4.08967
G1 X79.805 Y60.150 E4.55184
G1 X69.491 Y60.681 F6000.000
G1 X68.371 Y61.801 E4.61802 F2139.661
G1 X69.601 Y66.389 E4.81661
G1 X65.682 Y70.308 E5.04829
G1 X61.094 Y69.078 E5.24688
G1 X60.681 Y69.491 E5.27125
G1 X60.681 Y68.844 E5.29828
G1 X60.770 Y68.755 E5.30355
G1 X60.681 Y68.423 E5.31794
G1 X60.681 Y63.026 E5.54353
G1 X63.026 Y60.681 E5.68218
G1 X62.380 Y60.681 E5.70921
G1 X60.681 Y62.380 E5.80964
G1 X65.077 Y60.681 E6.00663
G1 X68.048 Y61.478 E6.13524
G1 X68.844 Y60.681 E6.18231
G1 X79.319 Y73.962 F6000.000
G1 X76.388 Y73.176 E6.30916 F2139.661
G1 X72.469 Y77.095 E6.54085
G1 X73.065 Y79.319 E6.63709
G1 X63.781 Y79.319 F6000.000
G1 X67.558 Y75.542 E6.86036 F2139.661
G1 X72.146 Y76.772 E7.05895
G1 X76.065 Y72.853 E7.29064
G1 X74.835 Y68.265 E7.48923
G1 X78.754 Y64.346 E7.72091
G1 X79.319 Y64.498 E7.74536
G1 X77.535 Y60.681 E7.92146
G1 X78.431 Y64.023 E8.06609
G1 X74.512 Y67.942 E8.29778
G1 X69.924 Y66.712 E8.49636
G1 X66.005 Y70.631 E8.72805
G1 X67.235 Y75.219 E8.92664
G1 X63.316 Y79.138 E9.15832
G1 X60.681 Y78.432 E9.27235
G1 F2400.000 E6.57235
G92 E0
G1 Z1.700 F6000.000
G1 X60.150 Y79.850 F6000.000
G1 E2.70000 F2400.000
G1 X60.150 Y60.150 E3.16322 F600.000
