; generated by Slic3r 1.2.0 on 2014-09-22 at 14:35:32

; external perimeters extrusion width = 0.30mm
; perimeters extrusion width = 0.90mm
; infill extrusion width = 0.50mm
; solid infill extrusion width = 0.50mm
; top infill extrusion width = 0.60mm

G21 ; set units to millimeters
M107
M104 S210 ; set temperature
G21           ;metric is good!
G90           ;absolute positioning
G28           ;go home
G92 E0        ;reset extruder
M109 S210 ; wait for temperature to be reached
G90 ; use absolute coordinates
G92 E0
M82 ; use absolute distances for extrusion
G1 F2400.000 E-2.70000
G92 E0
G1 Z0.350 F3000.000
G1 X64.103 Y64.112 F3000.000
G1 E2.70000 F2400.000
G1 X64.371 Y63.853 E2.71644 F600.000
G1 X64.768 Y63.512 E2.73955
G1 X65.447 Y63.019 E2.77655
G1 X66.077 Y62.646 E2.80885
G1 X66.862 Y62.278 E2.84711
G1 X67.524 Y62.042 E2.87816
G1 X68.029 Y61.902 E2.90127
G1 X68.541 Y61.794 E2.92438
G1 X69.381 Y61.688 E2.96172
G1 X70.105 Y61.666 E2.99369
G1 X70.948 Y61.719 E3.03099 F600.000
G1 X71.665 Y61.833 E3.06299
G1 X72.174 Y61.954 E3.08610
G1 X72.675 Y62.106 E3.10921
G1 X73.165 Y62.290 E3.13231
G1 X73.643 Y62.504 E3.15542
G1 X74.378 Y62.908 E3.19241
G1 X74.983 Y63.319 E3.22473
G1 X75.393 Y63.645 E3.24784
G1 X75.781 Y63.997 E3.27094
G1 X76.147 Y64.371 E3.29405
G1 X76.488 Y64.768 E3.31716
G1 X76.989 Y65.459 E3.35479
G1 X77.354 Y66.077 E3.38647
G1 X77.712 Y66.839 E3.42364
G1 X77.900 Y67.344 E3.44741
G1 X78.098 Y68.029 E3.47888
G1 X78.206 Y68.541 E3.50200
G1 X78.281 Y69.059 E3.52510
G1 X78.324 Y69.581 E3.54820
G1 X78.334 Y70.103 E3.57122
G1 X78.311 Y70.628 E3.59442
G1 X78.255 Y71.148 E3.61753
G1 X78.168 Y71.657 E3.64029
G1 X78.046 Y72.174 E3.66375
G1 X77.894 Y72.675 E3.68685
G1 X77.710 Y73.165 E3.70996
G1 X77.501 Y73.634 E3.73263
G1 X77.253 Y74.107 E3.75617
G1 X76.980 Y74.554 E3.77929
G1 X76.683 Y74.981 E3.80225
G1 X76.358 Y75.390 E3.82530
G1 X76.003 Y75.781 E3.84860
G1 X75.628 Y76.147 E3.87172
G1 X75.232 Y76.488 E3.89482
G1 X74.814 Y76.804 E3.91793
G1 X74.377 Y77.093 E3.94103
G1 X73.923 Y77.354 E3.96414
G1 X73.454 Y77.585 E3.98725
G1 X72.971 Y77.787 E4.01036
G1 X72.476 Y77.958 E4.03346
G1 X71.985 Y78.095 E4.05595
G1 X71.463 Y78.205 E4.07948
G1 X70.941 Y78.281 E4.10279
G1 X70.419 Y78.324 E4.12589
G1 X69.895 Y78.334 E4.14901
G1 X69.372 Y78.311 E4.17211
G1 X68.852 Y78.255 E4.19521
G1 X68.335 Y78.167 E4.21832
G1 X67.831 Y78.048 E4.24119
G1 X67.344 Y77.900 E4.26366
G1 X66.839 Y77.712 E4.28742
G1 X66.357 Y77.496 E4.31075
G1 X65.893 Y77.253 E4.33386
G1 X65.459 Y76.989 E4.35629
G1 X65.017 Y76.681 E4.38008
G1 X64.607 Y76.355 E4.40319
G1 X64.219 Y76.003 E4.42629
G1 X63.855 Y75.631 E4.44924
G1 X63.512 Y75.231 E4.47252
G1 X63.196 Y74.814 E4.49561
G1 X62.908 Y74.378 E4.51869
G1 X62.646 Y73.923 E4.54183
G1 X62.415 Y73.454 E4.56494
G1 X62.213 Y72.971 E4.58804
G1 X62.042 Y72.476 E4.61115
G1 X61.905 Y71.985 E4.63364
G1 X61.795 Y71.463 E4.65717
G1 X61.719 Y70.949 E4.68012
G1 X61.676 Y70.419 E4.70359
G1 X61.676 Y69.567 E4.74119
G1 X61.745 Y68.852 E4.77289
G1 X61.833 Y68.335 E4.79600
G1 X61.954 Y67.826 E4.81911
G1 X62.213 Y67.028 E4.85614
G1 X62.504 Y66.357 E4.88841
G1 X62.908 Y65.622 E4.92540
G1 X63.319 Y65.017 E4.95772
G1 X63.645 Y64.607 E4.98083
G1 X64.072 Y64.144 E5.00862
G1 X64.544 Y64.616 F3000.000
G1 X64.813 Y64.354 E5.02519 F600.000
G1 X65.178 Y64.039 E5.04645
G1 X65.822 Y63.571 E5.08159
G1 X66.380 Y63.241 E5.11020
G1 X67.121 Y62.893 E5.14635
G1 X67.711 Y62.683 E5.17395
G1 X68.175 Y62.554 E5.19521
G1 X68.646 Y62.454 E5.21647
G1 X69.442 Y62.353 E5.25188
G1 X70.084 Y62.334 E5.28023
G1 X70.884 Y62.384 E5.31560 F600.000
G1 X71.519 Y62.485 E5.34398
G1 X71.988 Y62.595 E5.36524
G1 X72.449 Y62.735 E5.38649
G1 X72.900 Y62.903 E5.40775
G1 X73.340 Y63.099 E5.42901
G1 X74.038 Y63.482 E5.46413
G1 X74.574 Y63.847 E5.49276
G1 X74.951 Y64.146 E5.51402
G1 X75.309 Y64.469 E5.53527
G1 X75.646 Y64.813 E5.55653
G1 X75.961 Y65.178 E5.57779
G1 X76.435 Y65.831 E5.61343
G1 X76.759 Y66.380 E5.64154
G1 X77.099 Y67.103 E5.67682
G1 X77.271 Y67.566 E5.69860
G1 X77.446 Y68.175 E5.72655
G1 X77.546 Y68.646 E5.74781
G1 X77.617 Y69.122 E5.76907
G1 X77.657 Y69.602 E5.79032
G1 X77.667 Y70.082 E5.81150
G1 X77.646 Y70.565 E5.83284
G1 X77.596 Y71.044 E5.85409
G1 X77.516 Y71.513 E5.87507
G1 X77.405 Y71.988 E5.89661
G1 X77.265 Y72.449 E5.91786
G1 X77.097 Y72.900 E5.93912
G1 X76.905 Y73.333 E5.96002
G1 X76.678 Y73.767 E5.98163
G1 X76.428 Y74.179 E6.00290
G1 X76.155 Y74.572 E6.02403
G1 X75.856 Y74.949 E6.04524
G1 X75.531 Y75.309 E6.06666
G1 X75.187 Y75.646 E6.08792
G1 X74.822 Y75.961 E6.10917
G1 X74.438 Y76.252 E6.13042
G1 X74.037 Y76.518 E6.15168
G1 X73.620 Y76.759 E6.17294
G1 X73.188 Y76.973 E6.19419
G1 X72.744 Y77.159 E6.21545
G1 X72.289 Y77.317 E6.23670
G1 X71.836 Y77.444 E6.25746
G1 X71.358 Y77.546 E6.27906
G1 X70.878 Y77.617 E6.30048
G1 X70.398 Y77.657 E6.32173
G1 X69.916 Y77.666 E6.34300
G1 X69.435 Y77.646 E6.36424
G1 X68.956 Y77.596 E6.38550
G1 X68.481 Y77.515 E6.40676
G1 X68.016 Y77.406 E6.42782
G1 X67.566 Y77.271 E6.44856
G1 X67.104 Y77.099 E6.47035
G1 X66.660 Y76.901 E6.49178
G1 X66.233 Y76.678 E6.51304
G1 X65.832 Y76.435 E6.53375
G1 X65.426 Y76.153 E6.55556
G1 X65.048 Y75.854 E6.57682
G1 X64.691 Y75.531 E6.59807
G1 X64.356 Y75.189 E6.61919
G1 X64.039 Y74.822 E6.64059
G1 X63.748 Y74.438 E6.66183
G1 X63.482 Y74.038 E6.68306
G1 X63.241 Y73.620 E6.70435
G1 X63.027 Y73.188 E6.72560
G1 X62.841 Y72.744 E6.74686
G1 X62.683 Y72.289 E6.76811
G1 X62.556 Y71.836 E6.78887
G1 X62.454 Y71.358 E6.81047
G1 X62.384 Y70.884 E6.83161
G1 X62.343 Y70.398 E6.85315
G1 X62.344 Y69.591 E6.88877
G1 X62.404 Y68.956 E6.91690
G1 X62.485 Y68.481 E6.93815
G1 X62.595 Y68.012 E6.95941
G1 X62.841 Y67.254 E6.99458
G1 X63.099 Y66.660 E7.02317
G1 X63.482 Y65.962 E7.05829
G1 X63.847 Y65.426 E7.08692
G1 X64.146 Y65.049 E7.10818
G1 X64.512 Y64.648 E7.13213
G1 F2400.000 E4.43213
G92 E0
G1 X65.250 Y69.992 F3000.000
G1 E2.70000 F2400.000
G1 X65.287 Y69.412 E2.72563 F600.000
G1 X65.336 Y69.102 E2.73949
G1 X65.483 Y68.532 E2.76547
G1 X65.699 Y67.985 E2.79145
G1 X65.842 Y67.705 E2.80531
G1 X66.157 Y67.208 E2.83129
G1 X66.345 Y66.966 E2.84481
G1 X66.743 Y66.543 E2.87044
G1 X66.978 Y66.335 E2.88430
G1 X67.455 Y65.989 E2.91028
G1 X67.971 Y65.706 E2.93626
G1 X68.251 Y65.584 E2.94977
G1 X68.811 Y65.401 E2.97575
G1 X69.110 Y65.334 E2.98927
G1 X69.412 Y65.287 E3.00278
G1 X70.000 Y65.250 E3.02876
G1 X70.588 Y65.287 E3.05474
G1 X70.890 Y65.334 E3.06825
G1 X71.189 Y65.401 E3.08177
G1 X71.749 Y65.584 E3.10775
G1 X72.029 Y65.706 E3.12126
G1 X72.545 Y65.989 E3.14724
G1 X73.022 Y66.335 E3.17322
G1 X73.257 Y66.543 E3.18708
G1 X73.660 Y66.972 E3.21306
G1 X74.006 Y67.448 E3.23904
G1 X74.166 Y67.719 E3.25290
G1 X74.413 Y68.244 E3.27853
G1 X74.520 Y68.540 E3.29239
G1 X74.666 Y69.110 E3.31837
G1 X74.713 Y69.412 E3.33189
G1 X74.750 Y70.000 E3.35786
G1 X74.713 Y70.588 E3.38384
G1 X74.666 Y70.890 E3.39736
G1 X74.520 Y71.460 E3.42334
G1 X74.416 Y71.749 E3.43685
G1 X74.294 Y72.029 E3.45037
G1 X74.011 Y72.545 E3.47635
G1 X73.665 Y73.022 E3.50232
G1 X73.457 Y73.257 E3.51619
G1 X73.028 Y73.660 E3.54216
G1 X72.552 Y74.006 E3.56814
G1 X72.281 Y74.166 E3.58200
G1 X71.756 Y74.413 E3.60764
G1 X71.460 Y74.520 E3.62150
G1 X70.890 Y74.666 E3.64748
G1 X70.588 Y74.713 E3.66099
G1 X70.000 Y74.750 E3.68697
G1 X69.412 Y74.713 E3.71295
G1 X69.110 Y74.666 E3.72646
G1 X68.540 Y74.520 E3.75244
G1 X68.244 Y74.413 E3.76630
G1 X67.719 Y74.166 E3.79194
G1 X67.448 Y74.006 E3.80580
G1 X66.972 Y73.660 E3.83178
G1 X66.543 Y73.257 E3.85776
G1 X66.335 Y73.022 E3.87162
G1 X65.989 Y72.545 E3.89759
G1 X65.706 Y72.029 E3.92357
G1 X65.584 Y71.749 E3.93709
G1 X65.401 Y71.189 E3.96307
G1 X65.334 Y70.890 E3.97658
G1 X65.260 Y70.306 E4.00256
G1 X65.250 Y69.992 E4.01642
M104 S197 ; set temperature
G1 F2400.000 E1.31642
G92 E0
G1 Z0.550 F3000.000
G1 E2.70000 F2400.000
G1 X65.287 Y69.412 E2.74386 F600.000
G1 X65.336 Y69.102 E2.76758
G1 X65.483 Y68.532 E2.81204
G1 X65.699 Y67.985 E2.85649
G1 X65.842 Y67.705 E2.88021
G1 X66.157 Y67.208 E2.92467
G1 X66.345 Y66.966 E2.94780
G1 X66.743 Y66.543 E2.99166
G1 X66.978 Y66.335 E3.01538
G1 X67.455 Y65.989 E3.05983
G1 X67.971 Y65.706 E3.10429
G1 X68.251 Y65.584 E3.12741
G1 X68.540 Y65.480 E3.15054
G1 X69.110 Y65.334 E3.19500
G1 X69.412 Y65.287 E3.21813
G1 X70.000 Y65.250 E3.26258
G1 X70.588 Y65.287 E3.30704
G1 X70.890 Y65.334 E3.33016
G1 X71.189 Y65.401 E3.35329
G1 X71.749 Y65.584 E3.39775
G1 X72.029 Y65.706 E3.42088
G1 X72.545 Y65.989 E3.46533
G1 X73.022 Y66.335 E3.50979
G1 X73.257 Y66.543 E3.53350
G1 X73.660 Y66.972 E3.57796
G1 X74.006 Y67.448 E3.62242
G1 X74.166 Y67.719 E3.64613
G1 X74.413 Y68.244 E3.69000
G1 X74.520 Y68.540 E3.71372
G1 X74.666 Y69.110 E3.75817
G1 X74.713 Y69.412 E3.78130
G1 X74.750 Y70.000 E3.82575
G1 X74.713 Y70.588 E3.87021
G1 X74.666 Y70.890 E3.89334
G1 X74.599 Y71.189 E3.91646
G1 X74.416 Y71.749 E3.96092
G1 X74.294 Y72.029 E3.98405
G1 X74.011 Y72.545 E4.02850
G1 X73.665 Y73.022 E4.07296
G1 X73.457 Y73.257 E4.09668
G1 X73.028 Y73.660 E4.14113
G1 X72.552 Y74.006 E4.18559
G1 X72.281 Y74.166 E4.20931
G1 X71.756 Y74.413 E4.25317
G1 X71.460 Y74.520 E4.27689
G1 X70.890 Y74.666 E4.32134
G1 X70.588 Y74.713 E4.34447
G1 X70.000 Y74.750 E4.38893
G1 X69.412 Y74.713 E4.43338
G1 X69.110 Y74.666 E4.45651
G1 X68.540 Y74.520 E4.50097
G1 X68.244 Y74.413 E4.52469
G1 X67.719 Y74.166 E4.56855
G1 X67.448 Y74.006 E4.59227
G1 X66.972 Y73.660 E4.63672
G1 X66.543 Y73.257 E4.68118
G1 X66.335 Y73.022 E4.70490
G1 X65.989 Y72.545 E4.74935
G1 X65.706 Y72.029 E4.79381
G1 X65.584 Y71.749 E4.81694
G1 X65.401 Y71.189 E4.86139
G1 X65.334 Y70.890 E4.88452
G1 X65.260 Y70.306 E4.92898
G1 X65.250 Y69.992 E4.95269
G1 F2400.000 E2.25269
G92 E0
G1 Z0.750 F3000.000
G1 X65.250 Y69.992 F3000.000
G1 E2.70000 F2400.000
G1 X65.287 Y69.412 E2.74386 F600.000
G1 X65.336 Y69.102 E2.76758
G1 X65.483 Y68.532 E2.81204
G1 X65.699 Y67.985 E2.85649
G1 X65.842 Y67.705 E2.88021
G1 X66.157 Y67.208 E2.92467
G1 X66.345 Y66.966 E2.94779
G1 X66.743 Y66.543 E2.99166
G1 X66.978 Y66.335 E3.01538
G1 X67.455 Y65.989 E3.05983
G1 X67.971 Y65.706 E3.10429
G1 X68.251 Y65.584 E3.12741
G1 X68.811 Y65.401 E3.17187
G1 X69.110 Y65.334 E3.19500
G1 X69.412 Y65.287 E3.21812
G1 X70.000 Y65.250 E3.26258
G1 X70.588 Y65.287 E3.30704
G1 X70.890 Y65.334 E3.33016
G1 X71.189 Y65.401 E3.35329
G1 X71.749 Y65.584 E3.39775
G1 X72.029 Y65.706 E3.42087
G1 X72.545 Y65.989 E3.46533
G1 X73.022 Y66.335 E3.50978
G1 X73.257 Y66.543 E3.53350
G1 X73.660 Y66.972 E3.57796
G1 X74.006 Y67.448 E3.62241
G1 X74.166 Y67.719 E3.64613
G1 X74.413 Y68.244 E3.69000
G1 X74.520 Y68.540 E3.71372
G1 X74.666 Y69.110 E3.75817
G1 X74.713 Y69.412 E3.78130
G1 X74.750 Y70.000 E3.82575
G1 X74.713 Y70.588 E3.87021
G1 X74.666 Y70.890 E3.89334
G1 X74.599 Y71.189 E3.91646
G1 X74.416 Y71.749 E3.96092
G1 X74.294 Y72.029 E3.98405
G1 X74.011 Y72.545 E4.02850
G1 X73.665 Y73.022 E4.07296
G1 X73.457 Y73.257 E4.09668
G1 X73.028 Y73.660 E4.14113
G1 X72.552 Y74.006 E4.18559
G1 X72.281 Y74.166 E4.20931
G1 X71.756 Y74.413 E4.25317
G1 X71.460 Y74.520 E4.27689
G1 X70.890 Y74.666 E4.32134
G1 X70.588 Y74.713 E4.34447
G1 X70.000 Y74.750 E4.38893
G1 X69.412 Y74.713 E4.43338
G1 X69.110 Y74.666 E4.45651
G1 X68.540 Y74.520 E4.50097
G1 X68.244 Y74.413 E4.52469
G1 X67.719 Y74.166 E4.56855
G1 X67.448 Y74.006 E4.59227
G1 X66.972 Y73.660 E4.63672
G1 X66.543 Y73.257 E4.68118
G1 X66.335 Y73.022 E4.70490
G1 X65.989 Y72.545 E4.74935
G1 X65.706 Y72.029 E4.79381
G1 X65.584 Y71.749 E4.81694
G1 X65.401 Y71.189 E4.86139
G1 X65.334 Y70.890 E4.88452
G1 X65.260 Y70.306 E4.92898
G1 X65.250 Y69.992 E4.95269
M106 S255
G1 F2400.000 E2.25269
G92 E0
G1 Z0.950 F3000.000
G1 E2.70000 F2400.000
G1 X65.287 Y69.413 E2.74386 F600.000
G1 X65.336 Y69.102 E2.76758
G1 X65.483 Y68.532 E2.81204
G1 X65.699 Y67.985 E2.85649
G1 X65.842 Y67.705 E2.88021
G1 X66.157 Y67.208 E2.92467
G1 X66.345 Y66.966 E2.94779
G1 X66.743 Y66.543 E2.99166
G1 X66.978 Y66.335 E3.01538
G1 X67.455 Y65.989 E3.05983
G1 X67.971 Y65.706 E3.10429
G1 X68.251 Y65.584 E3.12742
G1 X68.811 Y65.401 E3.17187
G1 X69.110 Y65.334 E3.19500
G1 X69.412 Y65.287 E3.21812
G1 X70.000 Y65.250 E3.26258
G1 X70.587 Y65.287 E3.30704
G1 X70.890 Y65.334 E3.33016
G1 X71.189 Y65.401 E3.35329
G1 X71.749 Y65.584 E3.39774
G1 X72.029 Y65.706 E3.42087
G1 X72.545 Y65.989 E3.46533
G1 X73.022 Y66.335 E3.50978
G1 X73.257 Y66.543 E3.53350
G1 X73.660 Y66.972 E3.57796
G1 X74.006 Y67.448 E3.62241
G1 X74.166 Y67.719 E3.64613
G1 X74.413 Y68.244 E3.69000
G1 X74.520 Y68.540 E3.71372
G1 X74.666 Y69.110 E3.75817
G1 X74.713 Y69.412 E3.78130
G1 X74.750 Y70.000 E3.82576
G1 X74.713 Y70.588 E3.87021
G1 X74.666 Y70.890 E3.89334
G1 X74.520 Y71.460 E3.93779
G1 X74.413 Y71.756 E3.96151
G1 X74.166 Y72.281 E4.00538
G1 X74.006 Y72.552 E4.02909
G1 X73.660 Y73.028 E4.07355
G1 X73.257 Y73.457 E4.11801
G1 X73.022 Y73.665 E4.14172
G1 X72.545 Y74.011 E4.18618
G1 X72.029 Y74.294 E4.23063
G1 X71.749 Y74.416 E4.25376
G1 X71.460 Y74.520 E4.27689
G1 X70.890 Y74.666 E4.32134
G1 X70.588 Y74.713 E4.34447
G1 X70.000 Y74.750 E4.38893
G1 X69.412 Y74.713 E4.43338
G1 X69.110 Y74.666 E4.45651
G1 X68.540 Y74.520 E4.50097
G1 X68.244 Y74.413 E4.52469
G1 X67.719 Y74.166 E4.56855
G1 X67.448 Y74.006 E4.59227
G1 X66.972 Y73.660 E4.63672
G1 X66.543 Y73.257 E4.68118
G1 X66.335 Y73.022 E4.70490
G1 X65.989 Y72.545 E4.74935
G1 X65.706 Y72.029 E4.79381
G1 X65.584 Y71.749 E4.81694
G1 X65.401 Y71.189 E4.86139
G1 X65.334 Y70.890 E4.88452
G1 X65.260 Y70.306 E4.92897
G1 X65.250 Y69.992 E4.95269
G1 F2400.000 E2.25269
G92 E0
G1 Z1.150 F3000.000
G1 X65.250 Y69.992 F3000.000
G1 E2.70000 F2400.000
G1 X65.287 Y69.412 E2.74389 F600.000
G1 X65.336 Y69.102 E2.76758
G1 X65.483 Y68.532 E2.81204
G1 X65.699 Y67.985 E2.85649
G1 X65.842 Y67.705 E2.88021
G1 X66.157 Y67.208 E2.92467
G1 X66.345 Y66.966 E2.94780
G1 X66.743 Y66.543 E2.99166
G1 X66.978 Y66.335 E3.01538
G1 X67.455 Y65.989 E3.05983
G1 X67.969 Y65.707 E3.10414
G1 X68.251 Y65.584 E3.12741
G1 X68.811 Y65.401 E3.17186
G1 X69.110 Y65.334 E3.19500
G1 X69.412 Y65.287 E3.21813
G1 X70.000 Y65.250 E3.26258
G1 X70.586 Y65.287 E3.30688
G1 X70.890 Y65.334 E3.33016
G1 X71.460 Y65.480 E3.37463
G1 X71.756 Y65.587 E3.39834
G1 X72.281 Y65.834 E3.44221
G1 X72.552 Y65.994 E3.46592
G1 X73.028 Y66.340 E3.51038
G1 X73.456 Y66.741 E3.55468
G1 X73.665 Y66.978 E3.57855
G1 X74.011 Y67.455 E3.62301
G1 X74.293 Y67.969 E3.66731
G1 X74.416 Y68.251 E3.69059
G1 X74.520 Y68.540 E3.71372
G1 X74.666 Y69.110 E3.75817
G1 X74.740 Y69.694 E3.80261
G1 X74.750 Y70.000 E3.82575
G1 X74.713 Y70.588 E3.87021
G1 X74.666 Y70.890 E3.89334
G1 X74.598 Y71.191 E3.91661
G1 X74.416 Y71.749 E3.96092
G1 X74.293 Y72.031 E3.98420
G1 X74.011 Y72.545 E4.02850
G1 X73.665 Y73.022 E4.07296
G1 X73.457 Y73.257 E4.09668
G1 X73.028 Y73.660 E4.14113
G1 X72.552 Y74.006 E4.18559
G1 X72.281 Y74.166 E4.20931
G1 X71.756 Y74.413 E4.25317
G1 X71.460 Y74.520 E4.27688
G1 X70.890 Y74.666 E4.32134
G1 X70.586 Y74.713 E4.34462
G1 X70.000 Y74.750 E4.38893
G1 X69.694 Y74.740 E4.41207
G1 X69.110 Y74.666 E4.45651
G1 X68.540 Y74.520 E4.50097
G1 X68.244 Y74.413 E4.52468
G1 X67.719 Y74.166 E4.56855
G1 X67.447 Y74.005 E4.59242
G1 X66.972 Y73.660 E4.63672
G1 X66.543 Y73.257 E4.68118
G1 X66.335 Y73.022 E4.70490
G1 X65.989 Y72.545 E4.74935
G1 X65.706 Y72.029 E4.79381
G1 X65.584 Y71.749 E4.81694
G1 X65.401 Y71.189 E4.86139
G1 X65.334 Y70.890 E4.88452
G1 X65.260 Y70.306 E4.92897
G1 X65.250 Y69.992 E4.95269
G1 F2400.000 E2.25269
G92 E0
G1 Z1.350 F3000.000
G1 X65.250 Y69.992 F3000.000
G1 E2.70000 F2400.000
G1 X65.287 Y69.412 E2.74388 F600.000
G1 X65.336 Y69.102 E2.76758
G1 X65.483 Y68.532 E2.81204
G1 X65.699 Y67.985 E2.85649
G1 X65.842 Y67.705 E2.88021
G1 X66.157 Y67.208 E2.92467
G1 X66.345 Y66.966 E2.94780
G1 X66.743 Y66.543 E2.99166
G1 X66.978 Y66.335 E3.01538
G1 X67.455 Y65.989 E3.05983
G1 X67.978 Y65.702 E3.10488
G1 X68.251 Y65.584 E3.12742
G1 X68.809 Y65.402 E3.17169
G1 X69.110 Y65.334 E3.19500
G1 X69.412 Y65.287 E3.21813
G1 X70.000 Y65.250 E3.26258
G1 X70.585 Y65.286 E3.30685
G1 X70.890 Y65.334 E3.33016
G1 X71.460 Y65.480 E3.37462
G1 X71.756 Y65.587 E3.39834
G1 X72.281 Y65.834 E3.44221
G1 X72.552 Y65.994 E3.46592
G1 X73.028 Y66.340 E3.51038
