; generated by Slic3r 1.2.0 on 2014-09-22 at 13:23:13

; external perimeters extrusion width = 0.30mm
; perimeters extrusion width = 0.90mm
; infill extrusion width = 0.50mm
; solid infill extrusion width = 0.50mm
; top infill extrusion width = 0.60mm

G21 ; set units to millimeters
M107
M104 S210 ; set temperature
G21           ;metric is good!
G90           ;absolute positioning
G28           ;go home
G92 E0        ;reset extruder
M109 S210 ; wait for temperature to be reached
G90 ; use absolute coordinates
G92 E0
M82 ; use absolute distances for extrusion
G1 F2400.000 E-2.70000
G92 E0
G1 Z0.350 F3000.000
G1 X29.490 Y26.869 F3000.000
G1 E2.70000 F2400.000
G1 X30.568 Y25.685 E2.77065 F600.000
G1 X39.684 Y19.062 E3.26794
G1 X40.643 Y18.455 E3.31802
G1 X50.937 Y13.872 E3.81531
G1 X52.002 Y13.478 E3.86540
G1 X63.023 Y11.135 E4.36269
G1 X64.146 Y10.971 E4.41277
G1 X76.547 Y11.044 E4.96005
G1 X87.569 Y13.387 E5.45735 F600.000
G1 X88.662 Y13.694 E5.50743
G1 X99.961 Y18.804 E6.05471
G1 X109.950 Y26.152 E6.60199
G1 X117.490 Y34.526 E7.09928
G1 X118.194 Y35.416 E7.14937
G1 X123.828 Y45.175 E7.64665
G1 X124.331 Y46.192 E7.69674
G1 X127.813 Y56.909 E8.19403
G1 X128.094 Y58.008 E8.24411
G1 X129.271 Y69.215 E8.74141
G1 X129.317 Y70.349 E8.79149
G1 X127.949 Y82.674 E9.33877
G1 X124.047 Y94.445 E9.88605
G1 X117.784 Y105.148 E10.43333
G1 X109.432 Y114.315 E10.98061
G1 X99.357 Y121.545 E11.52789
G1 X87.998 Y126.522 E12.07517
G1 X75.854 Y129.029 E12.62245
G1 X63.453 Y128.956 E13.16973
G1 X51.338 Y126.306 E13.71702
G1 X40.039 Y121.196 E14.26430
G1 X39.684 Y120.938 E14.28367
G1 X30.050 Y113.848 E14.81158
G1 X21.806 Y104.584 E15.35886
G1 X15.669 Y93.808 E15.90613
G1 X11.906 Y81.992 E16.45342
G1 X10.683 Y69.651 E17.00070
G1 X11.860 Y58.445 E17.49799
G1 X12.051 Y57.326 E17.54808
G1 X15.953 Y45.555 E18.09536
G1 X22.216 Y34.852 E18.64264
G1 X29.460 Y26.902 E19.11728
G1 X29.945 Y27.343 F3000.000
G1 X30.961 Y26.226 E19.18393 F600.000
G1 X40.077 Y19.602 E19.68122
G1 X40.915 Y19.065 E19.72514
G1 X51.209 Y14.482 E20.22243
G1 X52.140 Y14.131 E20.26636
G1 X63.162 Y11.789 E20.76366
G1 X64.146 Y11.639 E20.80758
G1 X76.408 Y11.697 E21.34873
G1 X87.430 Y14.040 E21.84602 F600.000
G1 X88.390 Y14.304 E21.88995
G1 X99.568 Y19.344 E22.43110
G1 X109.454 Y26.599 E22.97225
G1 X116.994 Y34.973 E23.46954
G1 X117.615 Y35.750 E23.51347
G1 X123.249 Y45.509 E24.01076
G1 X123.696 Y46.398 E24.05469
G1 X127.178 Y57.115 E24.55198
G1 X127.429 Y58.078 E24.59591
G1 X128.607 Y69.285 E25.09320
G1 X128.653 Y70.279 E25.13713
G1 X127.314 Y82.467 E25.67828
G1 X123.469 Y94.111 E26.21943
G1 X117.288 Y104.701 E26.76058
G1 X109.039 Y113.774 E27.30173
G1 X99.085 Y120.935 E27.84288
G1 X87.860 Y125.869 E28.38403
G1 X75.854 Y128.361 E28.92518
G1 X63.592 Y128.303 E29.46633
G1 X51.610 Y125.696 E30.00748
G1 X40.432 Y120.656 E30.54863
G1 X40.077 Y120.398 E30.56800
G1 X30.546 Y113.401 E31.08978
G1 X22.385 Y104.250 E31.63093
G1 X16.304 Y93.602 E32.17207
G1 X12.571 Y81.922 E32.71322
G1 X11.347 Y69.721 E33.25438
G1 X12.525 Y58.515 E33.75167
G1 X12.686 Y57.532 E33.79560
G1 X16.531 Y45.889 E34.33675
G1 X22.712 Y35.299 E34.87789
G1 X29.915 Y27.376 E35.35041
G1 F2400.000 E32.65041
G92 E0
G1 X33.447 Y30.557 F3000.000
G1 E2.70000 F2400.000
G1 X33.966 Y29.980 E2.73424 F600.000
G1 X43.074 Y23.363 E3.23109
G1 X53.359 Y18.784 E3.72794
G1 X64.371 Y16.443 E4.22478
G1 X75.629 Y16.443 E4.72163
G1 X86.135 Y18.676 E5.19562
G1 X86.641 Y18.784 E5.21847 F600.000
G1 X96.926 Y23.363 E5.71532
G1 X106.034 Y29.980 E6.21217
G1 X113.567 Y38.347 E6.70901
G1 X119.196 Y48.096 E7.20586
G1 X122.675 Y58.804 E7.70270
G1 X123.852 Y70.000 E8.19955
G1 X122.675 Y81.196 E8.69640
G1 X119.196 Y91.904 E9.19324
G1 X113.567 Y101.653 E9.69009
G1 X106.034 Y110.020 E10.18694
G1 X96.926 Y116.637 E10.68379
G1 X86.641 Y121.216 E11.18063
G1 X75.629 Y123.557 E11.67748
G1 X64.371 Y123.557 E12.17432
G1 X53.359 Y121.216 E12.67117
G1 X43.074 Y116.637 E13.16801
G1 X33.966 Y110.020 E13.66486
G1 X26.433 Y101.653 E14.16171
G1 X20.804 Y91.904 E14.65855
G1 X20.663 Y91.470 E14.67869
G1 X17.325 Y81.196 E15.15540
G1 X16.148 Y70.000 E15.65225
G1 X17.325 Y58.804 E16.14909
G1 X20.804 Y48.096 E16.64594
G1 X26.433 Y38.347 E17.14279
G1 X33.417 Y30.590 E17.60340
G1 X32.089 Y29.395 F3000.000
G1 X32.764 Y28.645 E17.64792 F600.000
G1 X42.176 Y21.807 E18.16133
G1 X52.804 Y17.076 E18.67475
G1 X64.183 Y14.657 E19.18817
G1 X75.817 Y14.657 E19.70159
G1 X86.803 Y16.992 E20.19726
G1 X87.196 Y17.076 E20.21501 F600.000
G1 X97.824 Y21.807 E20.72843
G1 X107.236 Y28.645 E21.24184
G1 X115.020 Y37.291 E21.75526
G1 X120.837 Y47.366 E22.26868
G1 X124.308 Y58.048 E22.76434
G1 X124.432 Y58.430 E22.78209
G1 X125.648 Y70.000 E23.29551
G1 X124.432 Y81.570 E23.80893
G1 X124.308 Y81.952 E23.82669
G1 X120.837 Y92.634 E24.32235
G1 X115.020 Y102.709 E24.83577
G1 X107.236 Y111.355 E25.34919
G1 X97.824 Y118.193 E25.86260
G1 X87.196 Y122.924 E26.37602
G1 X75.817 Y125.343 E26.88944
G1 X64.183 Y125.343 E27.40286
G1 X52.812 Y122.928 E27.91588
G1 X42.176 Y118.193 E28.42970
G1 X32.764 Y111.355 E28.94312
G1 X24.980 Y102.709 E29.45654
G1 X19.163 Y92.634 E29.96995
G1 X15.568 Y81.570 E30.48337
G1 X14.352 Y70.000 E30.99679
G1 X15.568 Y58.430 E31.51021
G1 X19.163 Y47.366 E32.02363
G1 X24.980 Y37.291 E32.53705
G1 X32.059 Y29.428 E33.00396
G1 X32.723 Y30.026 F3000.000
G1 X33.413 Y29.278 E33.07239 F600.000
G1 X42.679 Y22.561 E33.84218
G1 X53.082 Y17.931 E34.60808
G1 X64.277 Y15.551 E35.37794
G1 X75.723 Y15.551 E36.14779
G1 X86.861 Y17.917 E36.91369
G1 X97.423 Y22.620 E37.69130
G1 X106.634 Y29.314 E38.45720
G1 X114.292 Y37.820 E39.22705
G1 X120.015 Y47.732 E39.99690
G1 X123.535 Y58.561 E40.76281
G1 X124.744 Y70.058 E41.54042
G1 X123.552 Y81.383 E42.30633
G1 X120.015 Y92.268 E43.07618
G1 X114.292 Y102.180 E43.84602
G1 X106.674 Y110.643 E44.61193
G1 X97.321 Y117.439 E45.38954
G1 X86.918 Y122.069 E46.15544
G1 X75.723 Y124.449 E46.92529
G1 X64.277 Y124.449 E47.69514
G1 X53.139 Y122.083 E48.46105
G1 X42.577 Y117.380 E49.23866
G1 X33.366 Y110.686 E50.00456
G1 X25.708 Y102.180 E50.77441
G1 X19.985 Y92.268 E51.54426
G1 X16.465 Y81.439 E52.31017
G1 X15.256 Y69.942 E53.08778
G1 X16.448 Y58.617 E53.85369 F600.000
G1 X19.985 Y47.732 E54.62354
G1 X25.708 Y37.820 E55.39338
G1 X32.693 Y30.060 E56.09566
M104 S197 ; set temperature
G1 F2400.000 E53.39566
G92 E0
G1 Z0.550 F3000.000
G1 X33.091 Y30.418 F3000.000
G1 E2.70000 F2400.000
G1 X33.726 Y29.713 E2.77162 F1200.000
G1 X42.895 Y23.052 E3.62751
G1 X53.248 Y18.442 E4.48340
G1 X64.333 Y16.086 E5.33928
G1 X75.667 Y16.086 E6.19516
G1 X85.312 Y18.136 E6.93985
G1 X86.752 Y18.442 E7.05105 F1200.000
G1 X97.105 Y23.052 E7.90693
G1 X106.274 Y29.713 E8.76282
G1 X113.858 Y38.136 E9.61870
G1 X119.524 Y47.950 E10.47459
G1 X123.026 Y58.729 E11.33047
G1 X124.211 Y70.000 E12.18636
G1 X123.026 Y81.271 E13.04224
G1 X119.524 Y92.050 E13.89812
G1 X113.858 Y101.864 E14.75401
G1 X106.274 Y110.287 E15.60989
G1 X97.105 Y116.948 E16.46578
G1 X86.752 Y121.558 E17.32166
G1 X75.667 Y123.914 E18.17755
G1 X64.333 Y123.914 E19.03343
G1 X53.248 Y121.558 E19.88932
G1 X42.895 Y116.948 E20.74520
G1 X33.726 Y110.287 E21.60109
G1 X26.142 Y101.864 E22.45697
G1 X20.476 Y92.050 E23.31286
G1 X16.974 Y81.271 E24.16874
G1 X15.789 Y70.000 E25.02462
G1 X16.974 Y58.729 E25.88051
G1 X20.476 Y47.950 E26.73639
G1 X26.142 Y38.136 E27.59228
G1 X33.061 Y30.452 E28.37314
G1 X33.475 Y30.824 F3000.000
G1 X34.101 Y30.130 E28.39431 F1200.000
G1 X43.175 Y23.537 E28.64838
G1 X53.421 Y18.975 E28.90245
G1 X64.392 Y16.643 E29.15652
G1 X75.608 Y16.643 E29.41059 F1200.000
G1 X86.579 Y18.975 E29.66466
G1 X96.825 Y23.537 E29.91873
G1 X105.899 Y30.130 E30.17280
G1 X113.404 Y38.465 E30.42686
G1 X119.012 Y48.178 E30.68093
G1 X122.478 Y58.845 E30.93500
G1 X123.651 Y70.000 E31.18907
G1 X122.478 Y81.155 E31.44314
G1 X119.012 Y91.822 E31.69721
G1 X113.404 Y101.535 E31.95127
G1 X105.899 Y109.870 E32.20534
G1 X96.825 Y116.463 E32.45941
G1 X86.579 Y121.025 E32.71348
G1 X75.608 Y123.357 E32.96755
G1 X64.392 Y123.357 E33.22162
G1 X53.421 Y121.025 E33.47569
G1 X43.175 Y116.463 E33.72975
G1 X34.101 Y109.870 E33.98382
G1 X26.596 Y101.535 E34.23789
G1 X20.988 Y91.822 E34.49196
G1 X17.522 Y81.155 E34.74603
G1 X16.349 Y70.000 E35.00010
G1 X17.522 Y58.845 E35.25417
G1 X20.988 Y48.178 E35.50823
G1 X26.596 Y38.465 E35.76230
G1 X33.445 Y30.858 E35.99417
G1 X32.234 Y29.768 F3000.000
G1 X33.004 Y28.912 E36.08111 F1200.000
G1 X42.355 Y22.118 E36.95401
G1 X52.915 Y17.417 E37.82691
G1 X64.221 Y15.014 E38.69982
G1 X75.779 Y15.014 E39.57273 F1200.000
G1 X87.085 Y17.417 E40.44563
G1 X97.645 Y22.118 E41.31854
G1 X106.996 Y28.912 E42.19144
G1 X114.730 Y37.502 E43.06435
G1 X120.509 Y47.512 E43.93725
G1 X124.081 Y58.505 E44.81015
G1 X125.289 Y70.000 E45.68306
G1 X124.081 Y81.495 E46.55597
G1 X120.509 Y92.488 E47.42888
G1 X114.730 Y102.498 E48.30178
G1 X106.996 Y111.088 E49.17468
G1 X97.645 Y117.882 E50.04759
G1 X87.085 Y122.583 E50.92049
G1 X75.779 Y124.986 E51.79340
G1 X64.221 Y124.986 E52.66630
G1 X52.915 Y122.583 E53.53921
G1 X42.355 Y117.882 E54.41211
G1 X41.232 Y117.065 E54.51702
G1 X33.004 Y111.088 E55.28502
G1 X25.270 Y102.498 E56.15792
G1 X19.491 Y92.488 E57.03082
G1 X15.919 Y81.495 E57.90373
G1 X14.711 Y70.000 E58.77664
G1 X15.919 Y58.505 E59.64954
G1 X19.491 Y47.512 E60.52245
G1 X25.270 Y37.502 E61.39535
G1 X32.204 Y29.801 E62.17793
G1 X31.790 Y29.428 F3000.000
G1 X32.630 Y28.496 E62.20635 F1200.000
G1 X42.075 Y21.633 E62.47083
G1 X52.742 Y16.884 E62.73530
G1 X64.162 Y14.457 E62.99978
G1 X75.838 Y14.457 E63.26426
G1 X85.573 Y16.526 E63.48972
G1 X87.258 Y16.884 E63.52874 F1200.000
G1 X97.925 Y21.633 E63.79322
G1 X107.370 Y28.496 E64.05770
G1 X115.183 Y37.173 E64.32218
G1 X121.021 Y47.284 E64.58666
G1 X124.629 Y58.388 E64.85114
G1 X125.849 Y70.000 E65.11562
G1 X124.629 Y81.612 E65.38010
G1 X121.021 Y92.716 E65.64458
G1 X115.183 Y102.827 E65.90905
G1 X107.370 Y111.504 E66.17353
G1 X97.925 Y118.367 E66.43801
G1 X87.258 Y123.116 E66.70249
G1 X75.838 Y125.543 E66.96697
G1 X64.162 Y125.543 E67.23145
G1 X52.742 Y123.116 E67.49593
G1 X42.075 Y118.367 E67.76041
G1 X40.904 Y117.516 E67.79320
G1 X32.630 Y111.504 E68.02489
G1 X24.817 Y102.827 E68.28937
G1 X18.979 Y92.716 E68.55384
G1 X15.371 Y81.612 E68.81832
G1 X14.151 Y70.000 E69.08280
G1 X15.371 Y58.388 E69.34728
G1 X18.979 Y47.284 E69.61176
G1 X24.817 Y37.173 E69.87624
G1 X31.760 Y29.462 E70.11128
G1 F2400.000 E67.41128
G92 E0
G1 Z0.750 F3000.000
G1 X32.971 Y30.552 F3000.000
G1 E2.70000 F2400.000
G1 X33.726 Y29.713 E2.78522 F1200.000
G1 X42.895 Y23.052 E3.64111
G1 X53.248 Y18.442 E4.49699
G1 X64.333 Y16.086 E5.35287
G1 X75.667 Y16.086 E6.20876
G1 X84.218 Y17.904 E6.86898
G1 X86.752 Y18.442 E7.06464 F1200.000
G1 X97.105 Y23.052 E7.92052
G1 X106.274 Y29.713 E8.77641
G1 X113.858 Y38.136 E9.63229
G1 X119.524 Y47.950 E10.48818
G1 X123.026 Y58.729 E11.34406
G1 X124.211 Y70.000 E12.19995
G1 X123.026 Y81.271 E13.05583
G1 X119.524 Y92.050 E13.91172
G1 X113.858 Y101.864 E14.76760
G1 X106.274 Y110.287 E15.62348
G1 X97.105 Y116.948 E16.47937
G1 X86.752 Y121.558 E17.33526
G1 X75.667 Y123.914 E18.19114
G1 X64.333 Y123.914 E19.04702
G1 X53.248 Y121.558 E19.90291
G1 X42.895 Y116.948 E20.75879
G1 X33.726 Y110.287 E21.61468
G1 X26.142 Y101.864 E22.47056
G1 X20.476 Y92.050 E23.32645
G1 X16.974 Y81.271 E24.18233
G1 X15.789 Y70.000 E25.03822
G1 X16.974 Y58.729 E25.89410
G1 X20.476 Y47.950 E26.74998
G1 X26.142 Y38.136 E27.60587
G1 X32.941 Y30.585 E28.37314
G1 X33.355 Y30.958 F3000.000
G1 X34.101 Y30.130 E28.39839 F1200.000
G1 X43.175 Y23.537 E28.65246
G1 X53.421 Y18.975 E28.90653
G1 X64.392 Y16.643 E29.16060
G1 X75.608 Y16.643 E29.41467 F1200.000
G1 X86.579 Y18.975 E29.66873
G1 X96.825 Y23.537 E29.92280
G1 X105.899 Y30.130 E30.17687
G1 X113.404 Y38.465 E30.43094
G1 X119.012 Y48.178 E30.68501
G1 X122.478 Y58.845 E30.93908
G1 X123.651 Y70.000 E31.19315
G1 X122.478 Y81.155 E31.44721
G1 X119.012 Y91.822 E31.70128
G1 X113.404 Y101.535 E31.95535
G1 X105.899 Y109.870 E32.20942
G1 X96.825 Y116.463 E32.46349
G1 X86.579 Y121.025 E32.71756
G1 X75.608 Y123.357 E32.97163
G1 X64.392 Y123.357 E33.22569
G1 X61.915 Y122.830 E33.28306
G1 X53.421 Y121.025 E33.47976
G1 X43.175 Y116.463 E33.73383
G1 X34.101 Y109.870 E33.98790
G1 X26.596 Y101.535 E34.24197
G1 X20.988 Y91.822 E34.49604
G1 X17.522 Y81.155 E34.75010
G1 X16.349 Y70.000 E35.00417
G1 X17.522 Y58.845 E35.25824
G1 X20.988 Y48.178 E35.51231
G1 X26.596 Y38.465 E35.76638
G1 X33.324 Y30.992 E35.99417
G1 X32.114 Y29.901 F3000.000
G1 X33.004 Y28.912 E36.09470 F1200.000
G1 X42.355 Y22.118 E36.96760
G1 X52.915 Y17.417 E37.84051
G1 X64.221 Y15.014 E38.71341
G1 X75.779 Y15.014 E39.58632 F1200.000
G1 X87.085 Y17.417 E40.45923
G1 X97.645 Y22.118 E41.33213
G1 X106.996 Y28.912 E42.20503
G1 X114.730 Y37.502 E43.07794
G1 X120.509 Y47.512 E43.95084
G1 X124.081 Y58.505 E44.82375
G1 X125.289 Y70.000 E45.69665
G1 X124.081 Y81.495 E46.56956
G1 X120.509 Y92.488 E47.44247
G1 X114.730 Y102.498 E48.31537
G1 X106.996 Y111.088 E49.18827
G1 X97.645 Y117.882 E50.06118
G1 X87.085 Y122.583 E50.93408
G1 X75.779 Y124.986 E51.80699
G1 X64.221 Y124.986 E52.67989
G1 X52.915 Y122.583 E53.55280
G1 X42.355 Y117.882 E54.42570
G1 X33.004 Y111.088 E55.29861
G1 X25.270 Y102.498 E56.17151
G1 X19.491 Y92.488 E57.04441
G1 X15.919 Y81.495 E57.91732
G1 X14.711 Y70.000 E58.79023
G1 X15.919 Y58.505 E59.66314
G1 X19.491 Y47.512 E60.53604
G1 X25.270 Y37.502 E61.40894
G1 X32.084 Y29.935 E62.17793
G1 X31.670 Y29.562 F3000.000
G1 X32.630 Y28.496 E62.21042 F1200.000
G1 X42.075 Y21.633 E62.47490
G1 X52.742 Y16.884 E62.73938
G1 X64.162 Y14.457 E63.00386
G1 X75.838 Y14.457 E63.26834
G1 X84.697 Y16.340 E63.47351
G1 X87.258 Y16.884 E63.53282 F1200.000
G1 X97.925 Y21.633 E63.79730
G1 X107.370 Y28.496 E64.06178
G1 X115.183 Y37.173 E64.32626
G1 X121.021 Y47.284 E64.59073
G1 X124.629 Y58.388 E64.85521
G1 X125.849 Y70.000 E65.11969
G1 X124.629 Y81.612 E65.38417
G1 X121.021 Y92.716 E65.64865
G1 X115.183 Y102.827 E65.91313
G1 X107.370 Y111.504 E66.17761
G1 X105.252 Y113.043 E66.23692
G1 X97.925 Y118.367 E66.44209
G1 X87.258 Y123.116 E66.70657
G1 X75.838 Y125.543 E66.97105
G1 X64.162 Y125.543 E67.23553
G1 X52.742 Y123.116 E67.50001
G1 X42.075 Y118.367 E67.76448
G1 X32.630 Y111.504 E68.02896
G1 X24.817 Y102.827 E68.29344
G1 X18.979 Y92.716 E68.55792
G1 X15.371 Y81.612 E68.82240
G1 X14.151 Y70.000 E69.08688
G1 X15.371 Y58.388 E69.35136
G1 X18.979 Y47.284 E69.61584
G1 X24.817 Y37.173 E69.88032
G1 X31.640 Y29.596 E70.11128
G1 F2400.000 E67.41128
G92 E0
G1 Z0.950 F3000.000
G1 X32.850 Y30.686 F3000.000
G1 E2.70000 F2400.000
G1 X33.726 Y29.713 E2.79881 F1200.000
G1 X42.895 Y23.052 E3.65470
G1 X53.248 Y18.442 E4.51058
G1 X64.333 Y16.086 E5.36647
G1 X75.667 Y16.086 E6.22235
G1 X83.124 Y17.671 E6.79811
G1 X86.752 Y18.442 E7.07823 F1200.000
G1 X97.105 Y23.052 E7.93412
G1 X106.274 Y29.713 E8.79001
G1 X113.858 Y38.136 E9.64589
G1 X119.524 Y47.950 E10.50177
G1 X121.880 Y55.201 E11.07753
G1 X123.026 Y58.729 E11.35765
G1 X124.211 Y70.000 E12.21354
G1 X123.026 Y81.271 E13.06943
G1 X121.880 Y84.799 E13.34955
G1 X119.524 Y92.050 E13.92531
G1 X113.858 Y101.864 E14.78120
G1 X106.274 Y110.287 E15.63708
G1 X97.105 Y116.948 E16.49297
G1 X86.752 Y121.558 E17.34885
G1 X75.667 Y123.914 E18.20473
G1 X64.333 Y123.914 E19.06062
G1 X53.248 Y121.558 E19.91650
G1 X42.895 Y116.948 E20.77238
G1 X33.726 Y110.287 E21.62827
G1 X26.142 Y101.864 E22.48415
G1 X20.476 Y92.050 E23.34004
G1 X16.974 Y81.271 E24.19592
G1 X15.789 Y70.000 E25.05181
G1 X16.974 Y58.729 E25.90770
G1 X20.476 Y47.950 E26.76358
G1 X26.142 Y38.136 E27.61946
G1 X32.820 Y30.719 E28.37314
G1 X33.234 Y31.092 F3000.000
G1 X34.101 Y30.130 E28.40247 F1200.000
G1 X43.175 Y23.537 E28.65654
G1 X53.421 Y18.975 E28.91061
G1 X64.392 Y16.643 E29.16467
G1 X75.608 Y16.643 E29.41874 F1200.000
G1 X86.579 Y18.975 E29.67281
G1 X96.825 Y23.537 E29.92688
G1 X105.899 Y30.130 E30.18095
G1 X113.404 Y38.465 E30.43502
G1 X119.012 Y48.178 E30.68909
G1 X122.478 Y58.845 E30.94315
G1 X123.651 Y70.000 E31.19722
G1 X122.478 Y81.155 E31.45129
G1 X119.012 Y91.822 E31.70536
G1 X113.404 Y101.535 E31.95943
G1 X105.899 Y109.870 E32.21350
