; generated by Slic3r 1.0.1 on 2014-09-17 at 19:36:32

; layer_height = 0.2
; perimeters = 1
; top_solid_layers = 3
; bottom_solid_layers = 3
; fill_density = 0.4
; perimeter_speed = 20
; infill_speed = 20
; travel_speed = 50
; nozzle_diameter = 0.3
; filament_diameter = 1.70
; extrusion_multiplier = 1
; perimeters extrusion width = 0.90mm
; infill extrusion width = 0.50mm
; solid infill extrusion width = 0.50mm
; top infill extrusion width = 0.60mm
; first layer extrusion width = 0.70mm

G21 ; set units to millimeters
M107
M104 S210 ; set temperature
G21           ;metric is good!
G90           ;absolute positioning
G28           ;go home
G92 E0        ;reset extruder
M109 S210 ; wait for temperature to be reached
G90 ; use absolute coordinates
G92 E0
M82 ; use absolute distances for extrusion
G1 F2400.000 E-2.70000
G92 E0
G1 Z0.150 F3000.000
G1 X58.365 Y62.073 F3000.000
G1 E2.70000 F2400.000
G1 X58.835 Y61.663 E2.72753 F600
G1 X65.185 Y57.053 E3.07383
G1 X65.735 Y56.733 E3.10191
G1 X66.325 Y56.523 E3.12955
G1 X67.115 Y56.323 E3.16551
G1 X67.525 Y56.243 E3.18395
G1 X68.895 Y56.073 E3.24487
G1 X69.305 Y56.043 E3.26302
G1 X70.685 Y56.043 E3.32392
G1 X71.095 Y56.073 E3.34206
G1 X72.465 Y56.243 E3.40299
G1 X72.875 Y56.323 E3.42142
G1 X73.665 Y56.523 E3.45739
G1 X74.255 Y56.733 E3.48502
G1 X74.805 Y57.053 E3.51311
G1 X81.155 Y61.663 E3.85941
G1 X81.625 Y62.073 E3.88694
G1 X82.005 Y62.573 E3.91465
G1 X82.445 Y63.264 E3.95077
G1 X82.655 Y63.633 E3.96954
G1 X83.245 Y64.883 E4.03054
G1 X83.405 Y65.293 E4.04997
G1 X83.825 Y66.614 E4.11110
G1 X83.925 Y66.993 E4.12844
G1 X84.185 Y68.343 E4.18911
G1 X84.235 Y68.773 E4.20822
G1 X84.285 Y69.593 E4.24448
G1 X84.265 Y70.213 E4.27185
G1 X84.125 Y70.823 E4.29947
G1 X81.705 Y78.284 E4.64559
G1 X81.455 Y78.853 E4.67306
G1 X81.105 Y79.373 E4.70072
G1 X80.305 Y80.314 E4.75519
G1 X79.295 Y81.263 E4.81639
G1 X78.955 Y81.534 E4.83555
G1 X77.835 Y82.343 E4.89655
G1 X77.505 Y82.564 E4.91405
G1 X76.295 Y83.233 E4.97509
G1 X75.895 Y83.413 E4.99445
G1 X75.135 Y83.713 E5.03051
G1 X74.535 Y83.893 E5.05815
G1 X73.915 Y83.953 E5.08564
G1 X66.075 Y83.953 E5.43164
G1 X65.455 Y83.893 E5.45913
G1 X64.855 Y83.713 E5.48678
G1 X64.095 Y83.413 E5.52283
G1 X63.695 Y83.233 E5.54219
G1 X62.485 Y82.564 E5.60323
G1 X61.035 Y81.534 E5.68173
G1 X60.695 Y81.263 E5.70089
G1 X59.685 Y80.314 E5.76208
G1 X58.885 Y79.373 E5.81655
G1 X58.535 Y78.853 E5.84422
G1 X58.285 Y78.284 E5.87168
G1 X55.865 Y70.823 E6.21780
G1 X55.725 Y70.213 E6.24542
G1 X55.705 Y69.593 E6.27280
G1 X55.755 Y68.773 E6.30905
G1 X55.805 Y68.343 E6.32816
G1 X56.065 Y66.993 E6.38883
G1 X56.165 Y66.614 E6.40617
G1 X56.585 Y65.293 E6.46731
G1 X56.745 Y64.883 E6.48673
G1 X57.335 Y63.633 E6.54773
G1 X57.545 Y63.264 E6.56651
G1 X57.985 Y62.573 E6.60262
G1 X58.305 Y62.153 E6.62592
G1 X58.855 Y62.533 F3000.000
G1 X59.225 Y62.203 E6.64780 F600
G1 X65.575 Y57.593 E6.99410
G1 X66.015 Y57.334 E7.01665
G1 X66.495 Y57.163 E7.03913
G1 X67.285 Y56.963 E7.07509
G1 X67.605 Y56.904 E7.08946
G1 X68.975 Y56.733 E7.15039
G1 X69.305 Y56.713 E7.16498
G1 X70.685 Y56.713 E7.22588
G1 X71.015 Y56.733 E7.24047
G1 X72.385 Y56.904 E7.30139
G1 X72.705 Y56.963 E7.31576
G1 X73.495 Y57.163 E7.35173
G1 X73.975 Y57.334 E7.37420
G1 X74.415 Y57.593 E7.39675
G1 X80.765 Y62.203 E7.74306
G1 X81.135 Y62.533 E7.76494
G1 X81.445 Y62.933 E7.78727
G1 X81.885 Y63.623 E7.82339
G1 X82.045 Y63.913 E7.83800
G1 X82.635 Y65.163 E7.89901
G1 X82.765 Y65.493 E7.91466
G1 X83.185 Y66.814 E7.97579
G1 X83.265 Y67.123 E7.98992
G1 X83.525 Y68.474 E8.05059
G1 X83.565 Y68.814 E8.06570
G1 X83.615 Y69.633 E8.10196
G1 X83.605 Y70.133 E8.12403
G1 X83.495 Y70.614 E8.14576
G1 X81.075 Y78.073 E8.49188
G1 X80.875 Y78.534 E8.51401
G1 X80.595 Y78.953 E8.53629
G1 X80.075 Y79.584 E8.57234
G1 X79.845 Y79.823 E8.58701
G1 X78.835 Y80.773 E8.64821
G1 X78.565 Y80.993 E8.66358
G1 X77.445 Y81.803 E8.72458
G1 X77.175 Y81.974 E8.73866
G1 X75.965 Y82.643 E8.79970
G1 X75.655 Y82.793 E8.81490
G1 X74.895 Y83.093 E8.85095
G1 X74.415 Y83.233 E8.87302
G1 X73.915 Y83.284 E8.89520
G1 X66.075 Y83.284 E9.24119
G1 X65.575 Y83.233 E9.26337
G1 X65.095 Y83.093 E9.28544
G1 X64.335 Y82.793 E9.32149
G1 X64.025 Y82.643 E9.33669
G1 X62.815 Y81.974 E9.39773
G1 X62.545 Y81.803 E9.41181
G1 X61.425 Y80.993 E9.47281
G1 X61.155 Y80.773 E9.48818
G1 X60.145 Y79.823 E9.54938
G1 X59.915 Y79.584 E9.56405
G1 X59.395 Y78.953 E9.60010
G1 X59.115 Y78.534 E9.62238
G1 X58.915 Y78.073 E9.64451
G1 X56.495 Y70.614 E9.99063
G1 X56.385 Y70.133 E10.01236
G1 X56.375 Y69.633 E10.03443
G1 X56.425 Y68.814 E10.07069
G1 X56.465 Y68.474 E10.08580
G1 X56.725 Y67.123 E10.14647
G1 X56.805 Y66.814 E10.16060
G1 X57.225 Y65.493 E10.22173
G1 X57.355 Y65.163 E10.23738
G1 X57.945 Y63.913 E10.29839
G1 X58.105 Y63.623 E10.31300
G1 X58.545 Y62.933 E10.34912
G1 X58.794 Y62.613 E10.36703
G1 F2400.000 E7.66703
G92 E0
G1 X67.759 Y68.734 F3000.000
G1 E2.70000 F2400.000
G1 X67.981 Y68.466 E2.71535 F600
G1 X68.185 Y68.274 E2.72770
G1 X68.516 Y68.023 E2.74604
G1 X68.821 Y67.856 E2.76139
G1 X69.144 Y67.728 E2.77674
G1 X69.481 Y67.641 E2.79209
G1 X69.759 Y67.606 E2.80444
G1 X70.174 Y67.597 E2.82277
G1 X70.519 Y67.641 E2.83812
G1 X70.856 Y67.728 E2.85347
G1 X71.179 Y67.856 E2.86882
G1 X71.484 Y68.023 E2.88418
G1 X71.766 Y68.228 E2.89952
G1 X72.019 Y68.466 E2.91487
G1 X72.241 Y68.734 E2.93022
G1 X72.427 Y69.027 E2.94558
G1 X72.575 Y69.342 E2.96093
G1 X72.683 Y69.673 E2.97627
G1 X72.748 Y70.015 E2.99162
G1 X72.770 Y70.362 E3.00698
G1 X72.748 Y70.709 E3.02234
G1 X72.683 Y71.051 E3.03768
G1 X72.575 Y71.382 E3.05304
G1 X72.427 Y71.696 E3.06838
G1 X72.241 Y71.990 E3.08373
G1 X72.019 Y72.258 E3.09909
G1 X71.765 Y72.496 E3.11444
G1 X71.484 Y72.700 E3.12979
G1 X71.179 Y72.868 E3.14514
G1 X70.856 Y72.996 E3.16049
G1 X70.519 Y73.083 E3.17584
G1 X70.174 Y73.126 E3.19119
G1 X69.826 Y73.126 E3.20655
G1 X69.481 Y73.083 E3.22189
G1 X69.081 Y72.971 E3.24022
G1 X68.821 Y72.868 E3.25258
G1 X68.516 Y72.700 E3.26792
G1 X68.234 Y72.496 E3.28327
G1 X67.981 Y72.258 E3.29863
G1 X67.759 Y71.990 E3.31398
G1 X67.573 Y71.696 E3.32932
G1 X67.425 Y71.382 E3.34467
G1 X67.317 Y71.051 E3.36003
G1 X67.252 Y70.709 E3.37538
G1 X67.230 Y70.362 E3.39073
G1 X67.252 Y70.014 E3.40609
G1 X67.317 Y69.673 E3.42144
G1 X67.425 Y69.342 E3.43678
G1 X67.573 Y69.027 E3.45214
G1 X67.705 Y68.818 E3.46306
G1 X68.287 Y69.149 F3000.000
G1 X68.469 Y68.924 E3.47585 F600
G1 X68.661 Y68.743 E3.48749
G1 X68.874 Y68.588 E3.49914
G1 X69.106 Y68.461 E3.51078
G1 X69.327 Y68.374 E3.52127
G1 X69.606 Y68.298 E3.53406
G1 X69.868 Y68.265 E3.54570
G1 X70.132 Y68.265 E3.55734
G1 X70.394 Y68.298 E3.56898
G1 X70.649 Y68.364 E3.58062
G1 X70.870 Y68.451 E3.59111
G1 X71.126 Y68.588 E3.60390
G1 X71.339 Y68.743 E3.61554
G1 X71.531 Y68.924 E3.62718
G1 X71.700 Y69.127 E3.63883
G1 X71.827 Y69.328 E3.64932
G1 X71.953 Y69.588 E3.66210
G1 X72.035 Y69.839 E3.67374
G1 X72.084 Y70.098 E3.68539
G1 X72.101 Y70.362 E3.69703
G1 X72.084 Y70.625 E3.70868
G1 X72.035 Y70.884 E3.72032
G1 X71.953 Y71.135 E3.73196
G1 X71.841 Y71.374 E3.74360
G1 X71.699 Y71.597 E3.75524
G1 X71.531 Y71.800 E3.76689
G1 X71.339 Y71.980 E3.77853
G1 X71.126 Y72.135 E3.79017
G1 X70.894 Y72.263 E3.80181
G1 X70.649 Y72.360 E3.81346
G1 X70.394 Y72.425 E3.82510
G1 X70.132 Y72.458 E3.83674
G1 X69.868 Y72.458 E3.84838
G1 X69.606 Y72.425 E3.86002
G1 X69.327 Y72.350 E3.87281
G1 X69.106 Y72.263 E3.88330
G1 X68.874 Y72.135 E3.89494
G1 X68.661 Y71.980 E3.90659
G1 X68.469 Y71.800 E3.91823
G1 X68.300 Y71.597 E3.92987
G1 X68.148 Y71.350 E3.94266
G1 X68.047 Y71.135 E3.95315
G1 X67.965 Y70.884 E3.96479
G1 X67.916 Y70.625 E3.97643
G1 X67.899 Y70.362 E3.98807
G1 X67.916 Y70.098 E3.99972
G1 X67.965 Y69.839 E4.01136
G1 X68.047 Y69.588 E4.02300
G1 X68.233 Y69.234 E4.04068
G1 X66.224 Y65.701 F3000.000
G1 X66.734 Y65.330 E4.06850 F600
G1 X67.194 Y64.899 E4.09632
G1 X67.595 Y64.413 E4.12414
G1 X67.933 Y63.881 E4.15196
G1 X68.202 Y63.311 E4.17978
G1 X68.396 Y62.711 E4.20760
G1 X68.515 Y62.092 E4.23542
G1 X68.554 Y61.463 E4.26325
G1 X68.494 Y60.512 E4.30527
G1 X69.373 Y60.401 E4.34436
G1 X70.627 Y60.401 E4.39968
G1 X71.506 Y60.512 E4.43878
G1 X71.446 Y61.463 E4.48080
G1 X71.485 Y62.092 E4.50862
G1 X71.604 Y62.711 E4.53644
G1 X71.798 Y63.311 E4.56426
G1 X72.067 Y63.881 E4.59208
G1 X72.405 Y64.413 E4.61990
G1 X72.806 Y64.899 E4.64772
G1 X73.266 Y65.330 E4.67554
G1 X73.776 Y65.701 E4.70336
G1 X74.328 Y66.005 E4.73119
G1 X74.914 Y66.237 E4.75901
G1 X76.789 Y66.718 E4.84442
G1 X76.789 Y66.472 E4.85529
G1 X77.406 Y66.394 E4.88276
G1 X78.017 Y66.237 E4.91057
G1 X78.902 Y65.886 E4.95260
G1 X79.279 Y66.688 E4.99169
G1 X79.667 Y67.880 E5.04700
G1 X79.833 Y68.750 E5.08610
G1 X78.911 Y68.987 E5.12812
G1 X78.324 Y69.219 E5.15594
G1 X77.772 Y69.523 E5.18376
G1 X77.262 Y69.893 E5.21158
G1 X76.802 Y70.325 E5.23940
G1 X76.362 Y70.871 E5.27036
G1 X76.063 Y71.343 E5.29502
G1 X75.794 Y71.913 E5.32285
G1 X75.600 Y72.513 E5.35066
G1 X75.481 Y73.132 E5.37848
G1 X75.442 Y73.761 E5.40631
G1 X75.481 Y74.390 E5.43413
G1 X75.600 Y75.009 E5.46195
G1 X75.794 Y75.609 E5.48977
G1 X76.063 Y76.179 E5.51759
G1 X76.401 Y76.712 E5.54541
G1 X77.007 Y77.445 E5.58743
G1 X76.362 Y78.052 E5.62653
G1 X75.348 Y78.788 E5.68184
G1 X74.571 Y79.215 E5.72093
G1 X74.010 Y78.330 E5.76719
G1 X74.153 Y78.187 E5.77615
G1 X72.690 Y77.123 E5.85598
G1 X72.137 Y76.820 E5.88380
G1 X71.482 Y76.570 E5.91476
G1 X70.941 Y76.431 E5.93942
G1 X70.315 Y76.352 E5.96724
G1 X69.685 Y76.352 E5.99506
G1 X69.059 Y76.431 E6.02288
G1 X68.449 Y76.588 E6.05070
G1 X67.863 Y76.820 E6.07852
G1 X67.310 Y77.123 E6.10634
G1 X66.800 Y77.494 E6.13416
G1 X66.341 Y77.925 E6.16198
G1 X65.939 Y78.411 E6.18980
G1 X65.429 Y79.215 E6.23183
G1 X64.652 Y78.788 E6.27092
G1 X63.638 Y78.052 E6.32624
G1 X62.993 Y77.445 E6.36533
G1 X63.599 Y76.712 E6.40735
G1 X63.937 Y76.179 E6.43517
G1 X64.206 Y75.609 E6.46299
G1 X64.400 Y75.009 E6.49081
G1 X64.519 Y74.390 E6.51864
G1 X64.558 Y73.761 E6.54646
G1 X64.519 Y73.132 E6.57428
G1 X64.400 Y72.513 E6.60210
G1 X64.206 Y71.913 E6.62992
G1 X63.899 Y71.282 E6.66088
G1 X63.599 Y70.810 E6.68554
G1 X63.198 Y70.325 E6.71336
G1 X62.738 Y69.893 E6.74118
G1 X62.228 Y69.523 E6.76900
G1 X61.676 Y69.219 E6.79682
G1 X61.090 Y68.987 E6.82464
G1 X60.167 Y68.750 E6.86666
G1 X60.333 Y67.880 E6.90576
G1 X60.721 Y66.688 E6.96108
G1 X61.098 Y65.886 E7.00017
G1 X61.983 Y66.237 E7.04219
G1 X62.594 Y66.394 E7.07001
G1 X63.219 Y66.473 E7.09783
G1 X63.850 Y66.473 E7.12565
G1 X64.475 Y66.394 E7.15347
G1 X65.086 Y66.237 E7.18129
G1 X65.672 Y66.005 E7.20911
G1 X66.136 Y65.749 E7.23252
G1 X65.840 Y65.150 F3000.000
G1 X66.308 Y64.815 E7.25792 F600
G1 X66.706 Y64.441 E7.28204
G1 X67.054 Y64.020 E7.30615
G1 X67.331 Y63.584 E7.32896
G1 X67.580 Y63.064 E7.35436
G1 X67.748 Y62.545 E7.37847
G1 X67.851 Y62.008 E7.40259
G1 X67.885 Y61.463 E7.42670
G1 X67.851 Y60.917 E7.45081
G1 X67.748 Y60.381 E7.47493
G1 X67.624 Y59.999 E7.49265
G1 X68.005 Y59.901 E7.50997
G1 X69.331 Y59.733 E7.56899
G1 X70.669 Y59.733 E7.62801
G1 X71.995 Y59.901 E7.68703
G1 X72.376 Y59.999 E7.70436
G1 X72.252 Y60.381 E7.72208
G1 X72.149 Y60.917 E7.74619
G1 X72.115 Y61.463 E7.77030
G1 X72.149 Y62.008 E7.79442
G1 X72.252 Y62.545 E7.81853
G1 X72.420 Y63.064 E7.84264
G1 X72.653 Y63.559 E7.86675
G1 X72.946 Y64.020 E7.89086
G1 X73.294 Y64.441 E7.91497
G1 X73.692 Y64.815 E7.93909
G1 X74.134 Y65.136 E7.96320
G1 X74.613 Y65.399 E7.98731
G1 X75.121 Y65.600 E8.01143
G1 X76.121 Y65.857 E8.05699
G1 X76.121 Y65.805 E8.05930
G1 X76.739 Y65.805 E8.08656
G1 X77.281 Y65.736 E8.11067
G1 X77.810 Y65.600 E8.13478
G1 X78.318 Y65.399 E8.15889
G1 X78.797 Y65.136 E8.18301
G1 X79.122 Y64.900 E8.20073
G1 X79.332 Y65.231 E8.21805
G1 X79.901 Y66.442 E8.27707
G1 X80.315 Y67.713 E8.33609
G1 X80.565 Y69.027 E8.39511
G1 X80.590 Y69.419 E8.41244
G1 X80.188 Y69.419 E8.43016
G1 X79.646 Y69.487 E8.45427
G1 X79.117 Y69.623 E8.47838
G1 X78.609 Y69.824 E8.50250
G1 X78.130 Y70.088 E8.52661
G1 X77.667 Y70.429 E8.55202
G1 X77.290 Y70.783 E8.57482
G1 X76.942 Y71.204 E8.59894
G1 X76.649 Y71.665 E8.62305
G1 X76.416 Y72.159 E8.64716
G1 X76.248 Y72.679 E8.67127
G1 X76.143 Y73.245 E8.69668
G1 X76.111 Y73.761 E8.71949
G1 X76.145 Y74.306 E8.74360
G1 X76.248 Y74.843 E8.76771
G1 X76.416 Y75.363 E8.79183
G1 X76.649 Y75.857 E8.81594
G1 X76.942 Y76.318 E8.84005
G1 X77.290 Y76.739 E8.86416
G1 X77.688 Y77.113 E8.88827
G1 X78.013 Y77.349 E8.90600
G1 X77.763 Y77.652 E8.92332
G1 X76.788 Y78.567 E8.98234
G1 X75.706 Y79.353 E9.04136
G1 X74.534 Y79.998 E9.10038
G1 X74.169 Y80.142 E9.11771
G1 X74.045 Y79.760 E9.13543
G1 X73.813 Y79.266 E9.15954
G1 X73.520 Y78.805 E9.18365
G1 X73.099 Y78.296 E9.21277
G1 X73.128 Y78.267 E9.21457
G1 X72.331 Y77.688 E9.25804
G1 X71.852 Y77.425 E9.28215
G1 X71.344 Y77.224 E9.30626
G1 X70.815 Y77.088 E9.33037
G1 X70.273 Y77.020 E9.35449
G1 X69.727 Y77.020 E9.37860
G1 X69.185 Y77.088 E9.40271
G1 X68.656 Y77.224 E9.42682
G1 X68.148 Y77.425 E9.45094
G1 X67.669 Y77.688 E9.47505
G1 X67.227 Y78.010 E9.49916
G1 X66.829 Y78.384 E9.52327
G1 X66.480 Y78.805 E9.54738
G1 X66.187 Y79.266 E9.57150
G1 X65.955 Y79.760 E9.59561
G1 X65.831 Y80.142 E9.61333
G1 X65.466 Y79.998 E9.63066
G1 X64.294 Y79.353 E9.68968
G1 X63.212 Y78.567 E9.74870
G1 X62.237 Y77.652 E9.80772
G1 X61.987 Y77.349 E9.82504
G1 X62.312 Y77.113 E9.84276
G1 X62.710 Y76.739 E9.86687
G1 X63.058 Y76.318 E9.89099
G1 X63.351 Y75.857 E9.91510
G1 X63.584 Y75.363 E9.93921
G1 X63.752 Y74.843 E9.96332
G1 X63.855 Y74.306 E9.98744
G1 X63.889 Y73.761 E10.01155
G1 X63.855 Y73.216 E10.03566
G1 X63.752 Y72.679 E10.05977
G1 X63.584 Y72.159 E10.08389
G1 X63.335 Y71.640 E10.10929
G1 X63.058 Y71.204 E10.13210
G1 X62.710 Y70.783 E10.15621
G1 X62.312 Y70.409 E10.18033
G1 X61.844 Y70.073 E10.20573
G1 X61.391 Y69.824 E10.22854
G1 X60.883 Y69.623 E10.25265
G1 X60.354 Y69.487 E10.27676
G1 X59.812 Y69.419 E10.30088
G1 X59.410 Y69.419 E10.31860
G1 X59.435 Y69.027 E10.33593
G1 X59.685 Y67.713 E10.39495
G1 X60.099 Y66.442 E10.45397
G1 X60.668 Y65.231 E10.51299
G1 X60.878 Y64.900 E10.53031
G1 X61.203 Y65.136 E10.54803
G1 X61.682 Y65.399 E10.57214
G1 X62.190 Y65.600 E10.59626
G1 X62.719 Y65.736 E10.62037
G1 X63.261 Y65.805 E10.64448
G1 X63.808 Y65.805 E10.66859
G1 X64.350 Y65.736 E10.69271
G1 X64.879 Y65.600 E10.71682
G1 X65.387 Y65.399 E10.74093
G1 X65.752 Y65.199 E10.75932
G1 X68.712 Y63.274 F3000.000
G1 X75.998 Y70.560 E11.22123 F600
G1 X76.429 Y70.032 E11.25179
G1 X68.916 Y62.518 E11.72813
G1 X69.017 Y61.660 E11.76687
G1 X71.969 Y64.612 E11.95403
G1 X73.295 Y65.937 F3000.000
G1 X76.920 Y69.563 E12.18391 F600
G1 X77.471 Y69.155 E12.21465
G1 X75.087 Y66.771 E12.36580
G1 X76.378 Y67.102 E12.42554
G1 X78.085 Y68.809 E12.53378
G1 X78.769 Y68.534 E12.56683
G1 X77.263 Y67.028 E12.66229
G1 X77.940 Y66.746 E12.69518
G1 X79.210 Y68.015 E12.77565
G1 X78.678 Y66.525 F3000.000
G1 X78.650 Y66.496 E12.77746 F600
G1 X75.629 Y71.150 F3000.000
G1 X68.426 Y63.947 E13.23412 F600
G1 X68.070 Y64.550 E13.26552
G1 X70.724 Y67.204 E13.43378
G1 X69.698 Y67.137 E13.47989
G1 X67.651 Y65.090 E13.60966
G1 X67.171 Y65.570 E13.64006
G1 X68.911 Y67.310 E13.75035
G1 X68.269 Y67.627 E13.78247
G1 X66.632 Y65.990 E13.88620
G1 X66.031 Y66.348 E13.91758
G1 X67.732 Y68.049 E14.02541
G1 X67.298 Y68.575 E14.05596
G1 X65.361 Y66.638 E14.17879
G1 X64.612 Y66.848 E14.21366
G1 X66.970 Y69.206 E14.36319
G1 X66.779 Y69.975 E14.39869
G1 X63.751 Y66.947 E14.59067
G1 X62.734 Y66.889 E14.63632
G1 X66.820 Y70.975 E14.89534
G1 X61.677 Y68.709 F3000.000
G1 X60.836 Y67.868 E14.94865 F600
G1 F2400.000 E12.24865
G92 E0
G1 X63.881 Y77.629 F3000.000
G1 E2.70000 F2400.000
G1 X63.648 Y77.396 E2.71472 F600
G1 X64.069 Y76.857 E2.74537
G1 X65.472 Y78.261 E2.83437
G1 X65.893 Y77.723 E2.86501
G1 X64.426 Y76.255 E2.95805
G1 X64.713 Y75.583 E2.99082
G1 X66.374 Y77.244 E3.09613
G1 X66.914 Y76.825 E3.12678
G1 X64.918 Y74.828 E3.25336
G1 X65.020 Y73.971 E3.29205
G1 X67.517 Y76.469 E3.45037
G1 X68.189 Y76.181 E3.48312
G1 X64.969 Y72.961 E3.68725
G1 X64.596 Y71.629 E3.74927
G1 X68.939 Y75.972 E4.02464
G1 X69.804 Y75.878 E4.06364
G1 X61.071 Y67.144 E4.61732
G1 X61.403 Y66.517 E4.64914
G1 X70.824 Y75.938 E5.24642
G1 X72.170 Y76.325 E5.30919
