; generated by Slic3r 1.0.1 on 2014-09-17 at 19:26:56

; layer_height = 0.2
; perimeters = 1
; top_solid_layers = 3
; bottom_solid_layers = 3
; fill_density = 0.4
; perimeter_speed = 20
; infill_speed = 20
; travel_speed = 50
; nozzle_diameter = 0.3
; filament_diameter = 1.70
; extrusion_multiplier = 1
; perimeters extrusion width = 0.90mm
; infill extrusion width = 0.50mm
; solid infill extrusion width = 0.50mm
; top infill extrusion width = 0.60mm
; first layer extrusion width = 0.70mm

G21 ; set units to millimeters
M107
M104 S210 ; set temperature
G21           ;metric is good!
G90           ;absolute positioning
G28           ;go home
G92 E0        ;reset extruder
M109 S210 ; wait for temperature to be reached
G90 ; use absolute coordinates
G92 E0
M82 ; use absolute distances for extrusion
G1 F2400.000 E-2.70000
G92 E0
G1 Z0.150 F3000.000
G1 X60.722 Y60.192 F3000.000
G1 E2.70000 F2400.000
G1 X61.152 Y59.832 E2.72475 F600
G1 X61.642 Y59.542 E2.74988
G1 X62.312 Y59.222 E2.78265
G1 X62.602 Y59.102 E2.79650
G1 X62.892 Y59.012 E2.80990
G1 X70.972 Y56.862 E3.17889
G1 X71.982 Y56.772 E3.22364
G1 X72.552 Y56.772 E3.24880
G1 X73.112 Y56.862 E3.27383
G1 X73.832 Y57.052 E3.30669
G1 X74.382 Y57.252 E3.33252
G1 X74.882 Y57.542 E3.35803
G1 X75.742 Y58.152 E3.40456
G1 X75.962 Y58.352 E3.41768
G1 X81.642 Y64.032 E3.77219
G1 X82.012 Y64.472 E3.79756
G1 X82.442 Y65.082 E3.83049
G1 X82.742 Y65.602 E3.85699
G1 X82.942 Y66.162 E3.88323
G1 X83.132 Y66.892 E3.91652
G1 X83.222 Y67.442 E3.94112
G1 X83.222 Y68.002 E3.96583
G1 X83.132 Y69.042 E4.01190
G1 X80.892 Y77.382 E4.39301
G1 X80.462 Y78.332 E4.43903
G1 X80.172 Y78.832 E4.46454
G1 X79.802 Y79.272 E4.48991
G1 X79.272 Y79.802 E4.52299
G1 X78.832 Y80.172 E4.54836
G1 X78.332 Y80.462 E4.57387
G1 X77.652 Y80.782 E4.60703
G1 X77.382 Y80.892 E4.61990
G1 X77.092 Y80.982 E4.63330
G1 X69.042 Y83.132 E5.00102
G1 X68.002 Y83.222 E5.04709
G1 X67.442 Y83.222 E5.07180
G1 X66.892 Y83.132 E5.09640
G1 X66.162 Y82.942 E5.12969
G1 X65.602 Y82.742 E5.15593
G1 X65.082 Y82.442 E5.18242
G1 X64.472 Y82.012 E5.21536
G1 X64.032 Y81.642 E5.24073
G1 X58.352 Y75.962 E5.59524
G1 X58.152 Y75.742 E5.60836
G1 X57.542 Y74.882 E5.65489
G1 X57.252 Y74.382 E5.68040
G1 X57.052 Y73.832 E5.70623
G1 X56.862 Y73.112 E5.73909
G1 X56.772 Y72.552 E5.76412
G1 X56.772 Y71.992 E5.78883
G1 X56.862 Y70.952 E5.83490
G1 X59.102 Y62.602 E6.21644
G1 X59.542 Y61.642 E6.26304
G1 X59.832 Y61.152 E6.28817
G1 X60.192 Y60.722 E6.31292
G1 X60.651 Y60.263 E6.34158
G1 X61.192 Y60.662 F3000.000
G1 X61.542 Y60.372 E6.36164 F600
G1 X61.932 Y60.142 E6.38162
G1 X62.602 Y59.822 E6.41439
G1 X63.062 Y59.652 E6.43603
G1 X71.082 Y57.522 E6.80224
G1 X72.042 Y57.432 E6.84479
G1 X72.492 Y57.432 E6.86465
G1 X72.942 Y57.512 E6.88482
G1 X73.662 Y57.702 E6.91769
G1 X74.102 Y57.862 E6.93835
G1 X74.502 Y58.092 E6.95871
G1 X75.312 Y58.662 E7.00242
G1 X75.492 Y58.822 E7.01305
G1 X81.172 Y64.502 E7.36755
G1 X81.462 Y64.852 E7.38761
G1 X81.892 Y65.462 E7.42055
G1 X82.132 Y65.882 E7.44190
G1 X82.292 Y66.332 E7.46298
G1 X82.482 Y67.062 E7.49627
G1 X82.562 Y67.502 E7.51600
G1 X82.562 Y67.952 E7.53586
G1 X82.472 Y68.932 E7.57929
G1 X80.272 Y77.152 E7.95483
G1 X79.852 Y78.052 E7.99866
G1 X79.622 Y78.442 E8.01864
G1 X79.332 Y78.802 E8.03904
G1 X78.802 Y79.332 E8.07212
G1 X78.442 Y79.622 E8.09252
G1 X78.052 Y79.852 E8.11251
G1 X77.152 Y80.272 E8.15634
G1 X76.922 Y80.342 E8.16695
G1 X68.932 Y82.472 E8.53188
G1 X67.952 Y82.562 E8.57531
G1 X67.502 Y82.562 E8.59517
G1 X67.062 Y82.482 E8.61491
G1 X66.332 Y82.292 E8.64820
G1 X65.882 Y82.132 E8.66927
G1 X65.462 Y81.892 E8.69062
G1 X64.852 Y81.462 E8.72356
G1 X64.502 Y81.172 E8.74362
G1 X58.822 Y75.492 E9.09812
G1 X58.662 Y75.312 E9.10875
G1 X58.092 Y74.502 E9.15246
G1 X57.862 Y74.102 E9.17282
G1 X57.702 Y73.662 E9.19349
G1 X57.512 Y72.942 E9.22635
G1 X57.432 Y72.502 E9.24609
G1 X57.432 Y72.042 E9.26639
G1 X57.522 Y71.072 E9.30938
G1 X57.572 Y70.832 E9.32020
G1 X59.652 Y63.062 E9.67518
G1 X59.732 Y62.832 E9.68593
G1 X59.822 Y62.602 E9.69683
G1 X60.142 Y61.932 E9.72959
G1 X60.372 Y61.542 E9.74958
G1 X60.662 Y61.192 E9.76964
G1 X61.121 Y60.733 E9.79829
G1 F2400.000 E7.09829
G92 E0
G1 X67.770 Y67.770 F3000.000
G1 E2.70000 F2400.000
G1 X69.184 Y66.954 E2.77205 F600
G1 X70.816 Y66.954 E2.84409
G1 X72.230 Y67.770 E2.91614
G1 X73.046 Y69.184 E2.98818
G1 X73.046 Y70.816 E3.06023
G1 X72.230 Y72.230 E3.13227
G1 X70.816 Y73.046 E3.20432
G1 X69.184 Y73.046 E3.27636
G1 X67.770 Y72.230 E3.34841
G1 X66.954 Y70.816 E3.42045
G1 X66.954 Y69.184 E3.49250
G1 X67.720 Y67.857 E3.56012
G1 X68.259 Y68.259 F3000.000
G1 X69.363 Y67.622 E3.61637 F600
G1 X70.637 Y67.622 E3.67262
G1 X71.741 Y68.259 E3.72887
G1 X72.378 Y69.363 E3.78513
G1 X72.378 Y70.637 E3.84138
G1 X71.741 Y71.741 E3.89763
G1 X70.637 Y72.378 E3.95388
G1 X69.363 Y72.378 E4.01013
G1 X68.259 Y71.741 E4.06638
G1 X67.622 Y70.637 E4.12263
G1 X67.622 Y69.363 E4.17888
G1 X68.209 Y68.346 E4.23071
G1 X65.412 Y68.198 F3000.000
G1 X65.316 Y67.095 E4.27956 F600
G1 X64.848 Y66.092 E4.32841
G1 X64.065 Y65.309 E4.37725
G1 X63.472 Y65.033 E4.40614
G1 X63.302 Y64.791 E4.41919
G1 X63.202 Y64.415 E4.43635
G1 X63.236 Y64.027 E4.45352
G1 X63.400 Y63.675 E4.47068
G1 X63.675 Y63.400 E4.48785
G1 X64.027 Y63.236 E4.50501
G1 X64.415 Y63.202 E4.52217
G1 X64.791 Y63.302 E4.53934
G1 X65.033 Y63.472 E4.55239
G1 X65.309 Y64.065 E4.58128
G1 X66.092 Y64.848 E4.63012
G1 X67.095 Y65.316 E4.67897
G1 X68.198 Y65.412 E4.72781
G1 X69.267 Y65.126 E4.77666
G1 X70.173 Y64.491 E4.82550
G1 X70.808 Y63.584 E4.87435
G1 X71.095 Y62.515 E4.92319
G1 X71.038 Y61.863 E4.95208
G1 X71.163 Y61.595 E4.96513
G1 X71.438 Y61.320 E4.98230
G1 X71.790 Y61.156 E4.99946
G1 X72.178 Y61.122 E5.01662
G1 X72.553 Y61.222 E5.03379
G1 X72.872 Y61.445 E5.05095
G1 X73.095 Y61.764 E5.06812
G1 X73.196 Y62.140 E5.08528
G1 X73.170 Y62.434 E5.09833
G1 X72.794 Y62.971 E5.12722
G1 X72.508 Y64.040 E5.17607
G1 X72.604 Y65.142 E5.22491
G1 X73.072 Y66.145 E5.27375
G1 X73.855 Y66.928 E5.32260
G1 X74.858 Y67.396 E5.37144
G1 X75.960 Y67.492 E5.42029
G1 X77.030 Y67.206 E5.46914
G1 X77.566 Y66.830 E5.49802
G1 X77.860 Y66.804 E5.51107
G1 X78.236 Y66.905 E5.52824
G1 X78.555 Y67.128 E5.54540
G1 X78.778 Y67.447 E5.56257
G1 X78.878 Y67.822 E5.57973
G1 X78.844 Y68.210 E5.59689
G1 X78.680 Y68.562 E5.61406
G1 X78.405 Y68.837 E5.63122
G1 X78.137 Y68.962 E5.64427
G1 X77.485 Y68.905 E5.67316
G1 X76.416 Y69.192 E5.72200
G1 X75.509 Y69.827 E5.77085
G1 X74.874 Y70.733 E5.81970
G1 X74.640 Y71.609 E5.85971
G1 X74.588 Y71.802 E5.86854
G1 X74.684 Y72.905 E5.91739
G1 X75.152 Y73.908 E5.96623
G1 X75.935 Y74.691 E6.01508
G1 X76.528 Y74.967 E6.04397
G1 X76.698 Y75.209 E6.05702
G1 X76.798 Y75.585 E6.07418
G1 X76.764 Y75.973 E6.09134
G1 X76.600 Y76.325 E6.10851
G1 X76.325 Y76.600 E6.12567
G1 X75.973 Y76.764 E6.14284
G1 X75.585 Y76.798 E6.16000
G1 X75.209 Y76.698 E6.17716
G1 X74.967 Y76.528 E6.19021
G1 X74.691 Y75.935 E6.21910
G1 X73.908 Y75.152 E6.26795
G1 X72.905 Y74.684 E6.31679
G1 X71.802 Y74.588 E6.36564
G1 X70.733 Y74.874 E6.41448
G1 X69.827 Y75.509 E6.46333
G1 X69.192 Y76.416 E6.51217
G1 X68.905 Y77.485 E6.56102
G1 X68.962 Y78.137 E6.58991
G1 X68.837 Y78.405 E6.60296
G1 X68.562 Y78.680 E6.62012
G1 X68.210 Y78.844 E6.63728
G1 X67.822 Y78.878 E6.65445
G1 X67.447 Y78.778 E6.67161
G1 X67.128 Y78.555 E6.68878
G1 X66.905 Y78.236 E6.70594
G1 X66.804 Y77.860 E6.72311
G1 X66.830 Y77.566 E6.73615
G1 X67.206 Y77.030 E6.76504
G1 X67.492 Y75.960 E6.81389
G1 X67.396 Y74.858 E6.86274
G1 X66.928 Y73.855 E6.91158
G1 X66.145 Y73.072 E6.96042
G1 X65.142 Y72.604 E7.00927
G1 X64.040 Y72.508 E7.05811
G1 X62.971 Y72.794 E7.10696
G1 X62.434 Y73.170 E7.13585
G1 X62.140 Y73.196 E7.14890
G1 X61.764 Y73.095 E7.16606
G1 X61.445 Y72.872 E7.18323
G1 X61.222 Y72.553 E7.20039
G1 X61.122 Y72.178 E7.21755
G1 X61.156 Y71.790 E7.23472
G1 X61.320 Y71.438 E7.25188
G1 X61.595 Y71.163 E7.26905
G1 X61.863 Y71.038 E7.28210
G1 X62.515 Y71.095 E7.31099
G1 X63.584 Y70.808 E7.35983
G1 X64.491 Y70.173 E7.40868
G1 X65.126 Y69.267 E7.45752
G1 X65.386 Y68.295 E7.50194
G1 X64.737 Y68.139 F3000.000
G1 X64.661 Y67.271 E7.54040 F600
G1 X64.292 Y66.481 E7.57885
G1 X63.676 Y65.865 E7.61730
G1 X63.028 Y65.562 E7.64889
G1 X62.688 Y65.077 E7.67503
G1 X62.526 Y64.474 E7.70259
G1 X62.581 Y63.852 E7.73015
G1 X62.845 Y63.286 E7.75770
G1 X63.286 Y62.845 E7.78526
G1 X63.852 Y62.581 E7.81282
G1 X64.474 Y62.526 E7.84038
G1 X65.077 Y62.688 E7.86793
G1 X65.562 Y63.028 E7.89408
G1 X65.865 Y63.676 E7.92567
G1 X66.481 Y64.292 E7.96412
G1 X67.271 Y64.661 E8.00257
G1 X68.139 Y64.737 E8.04102
G1 X68.980 Y64.511 E8.07947
G1 X69.694 Y64.011 E8.11793
G1 X70.194 Y63.298 E8.15638
G1 X70.419 Y62.456 E8.19483
G1 X70.357 Y61.743 E8.22642
G1 X70.607 Y61.206 E8.25256
G1 X71.049 Y60.765 E8.28012
G1 X71.615 Y60.501 E8.30768
G1 X72.237 Y60.446 E8.33523
G1 X72.840 Y60.608 E8.36279
G1 X73.351 Y60.966 E8.39035
G1 X73.710 Y61.477 E8.41791
G1 X73.871 Y62.081 E8.44546
G1 X73.820 Y62.671 E8.47161
G1 X73.409 Y63.257 E8.50320
G1 X73.183 Y64.099 E8.54165
G1 X73.259 Y64.967 E8.58010
G1 X73.628 Y65.756 E8.61855
G1 X74.244 Y66.372 E8.65700
G1 X75.033 Y66.741 E8.69546
G1 X75.901 Y66.817 E8.73391
G1 X76.743 Y66.591 E8.77236
G1 X77.329 Y66.180 E8.80395
G1 X77.919 Y66.129 E8.83009
G1 X78.523 Y66.290 E8.85765
G1 X79.034 Y66.649 E8.88521
G1 X79.392 Y67.160 E8.91276
G1 X79.554 Y67.763 E8.94032
G1 X79.499 Y68.385 E8.96788
G1 X79.235 Y68.951 E8.99544
G1 X78.794 Y69.393 E9.02299
G1 X78.257 Y69.643 E9.04914
G1 X77.544 Y69.581 E9.08073
G1 X76.702 Y69.806 E9.11918
G1 X75.989 Y70.306 E9.15763
G1 X75.489 Y71.020 E9.19608
G1 X75.263 Y71.861 E9.23453
G1 X75.339 Y72.729 E9.27299
G1 X75.708 Y73.519 E9.31144
G1 X76.324 Y74.135 E9.34989
G1 X76.972 Y74.438 E9.38148
G1 X77.312 Y74.923 E9.40762
G1 X77.474 Y75.526 E9.43518
G1 X77.419 Y76.148 E9.46274
G1 X77.155 Y76.714 E9.49029
G1 X76.714 Y77.155 E9.51785
G1 X76.148 Y77.419 E9.54541
G1 X75.526 Y77.474 E9.57297
G1 X74.923 Y77.312 E9.60052
G1 X74.438 Y76.972 E9.62667
G1 X74.135 Y76.324 E9.65826
G1 X73.519 Y75.708 E9.69671
G1 X72.729 Y75.339 E9.73516
G1 X71.861 Y75.263 E9.77361
G1 X71.782 Y75.285 E9.77725
G1 X71.020 Y75.489 E9.81206
G1 X70.306 Y75.989 E9.85051
G1 X69.806 Y76.702 E9.88897
G1 X69.581 Y77.544 E9.92742
G1 X69.643 Y78.257 E9.95901
G1 X69.393 Y78.794 E9.98515
G1 X68.951 Y79.235 E10.01271
G1 X68.385 Y79.499 E10.04027
G1 X67.763 Y79.554 E10.06782
G1 X67.160 Y79.392 E10.09538
G1 X66.649 Y79.034 E10.12294
G1 X66.290 Y78.523 E10.15050
G1 X66.129 Y77.919 E10.17805
G1 X66.180 Y77.329 E10.20420
G1 X66.591 Y76.743 E10.23578
G1 X66.817 Y75.901 E10.27424
G1 X66.741 Y75.033 E10.31269
G1 X66.372 Y74.244 E10.35114
G1 X65.756 Y73.628 E10.38959
G1 X64.967 Y73.259 E10.42804
G1 X64.099 Y73.183 E10.46650
G1 X63.257 Y73.409 E10.50495
G1 X62.671 Y73.820 E10.53654
G1 X62.081 Y73.871 E10.56268
G1 X61.477 Y73.710 E10.59024
G1 X60.966 Y73.351 E10.61780
G1 X60.608 Y72.840 E10.64535
G1 X60.446 Y72.237 E10.67291
G1 X60.501 Y71.615 E10.70047
G1 X60.765 Y71.049 E10.72803
G1 X61.206 Y70.607 E10.75558
G1 X61.743 Y70.357 E10.78172
G1 X62.456 Y70.419 E10.81331
G1 X63.298 Y70.194 E10.85177
G1 X64.011 Y69.694 E10.89022
G1 X64.511 Y68.980 E10.92867
G1 X64.711 Y68.235 E10.96270
G1 X65.854 Y67.805 F3000.000
G1 X66.709 Y68.660 E11.01783 F600
G1 X66.480 Y69.406 E11.05342
G1 X65.769 Y68.696 E11.09921
G1 X65.563 Y69.465 E11.13552
G1 X66.480 Y70.382 E11.19459
G1 X67.045 Y71.923 F3000.000
G1 X65.163 Y70.041 E11.31596 F600
G1 X64.731 Y70.584 E11.34762
G1 X69.416 Y75.269 E11.64965
G1 X67.823 Y74.651 F3000.000
G1 X69.014 Y75.843 E11.72647 F600
G1 X68.682 Y76.486 E11.75948
G1 X67.950 Y75.754 E11.80666
G1 X67.813 Y76.593 E11.84541
G1 X68.476 Y77.256 E11.88812
G1 X68.408 Y78.164 E11.92962
G1 X67.574 Y77.330 E11.98338
G1 X67.435 Y78.166 E12.02203
G1 X67.516 Y78.248 E12.02729
G1 X68.077 Y72.955 F3000.000
G1 X69.959 Y74.837 E12.14865 F600
G1 X70.534 Y74.437 E12.18060
G1 X69.618 Y73.520 E12.23968
G1 X70.594 Y73.520 E12.28415
G1 X71.304 Y74.231 E12.32993
G1 X72.195 Y74.146 E12.37075
G1 X71.340 Y73.291 E12.42587
G1 X71.959 Y72.934 E12.45843
G1 X73.431 Y74.407 E12.55336
G1 X74.407 Y73.431 E12.61625
G1 X72.934 Y71.959 E12.71118
G1 X72.577 Y72.577 E12.74373
G1 X76.120 Y76.120 E12.97215
G1 X74.146 Y72.195 F3000.000
G1 X73.291 Y71.340 E13.02728 F600
G1 X73.520 Y70.594 E13.06287
G1 X74.231 Y71.304 E13.10866
G1 X74.437 Y70.534 E13.14497
G1 X73.520 Y69.618 E13.20405
G1 X74.837 Y69.959 E13.26607
G1 X72.955 Y68.077 E13.38744
G1 X71.923 Y67.045 F3000.000
G1 X70.041 Y65.163 E13.50881 F600
G1 X70.584 Y64.731 E13.54046
G1 X75.269 Y69.416 E13.84250
G1 X75.843 Y69.014 E13.87443
G1 X74.652 Y67.823 E13.95125
G1 X75.755 Y67.950 E14.00186
G1 X76.486 Y68.682 E14.04905
G1 X77.256 Y68.476 E14.08536
G1 X76.593 Y67.813 E14.12807
G1 X77.330 Y67.574 E14.16336
G1 X78.164 Y68.408 E14.21712
G1 X78.248 Y67.516 E14.25795
G1 X78.166 Y67.435 E14.26319
G1 F2400.000 E11.56319
G92 E0
G1 X72.177 Y65.348 F3000.000
G1 E2.70000 F2400.000
G1 X70.986 Y64.157 E2.77681 F600
G1 X71.318 Y63.514 E2.80982
G1 X72.050 Y64.245 E2.85701
G1 X72.187 Y63.407 E2.89575
G1 X71.524 Y62.744 E2.93846
G1 X72.426 Y62.670 E2.97970
G1 X71.592 Y61.836 E3.03346
G1 X72.484 Y61.752 E3.07429
G1 X72.565 Y61.834 E3.07953
G1 X69.466 Y65.563 F3000.000
G1 X70.382 Y66.480 E3.13861 F600
G1 X69.406 Y66.480 E3.18308
G1 X68.696 Y65.769 E3.22886
G1 X67.805 Y65.854 E3.26968
G1 X68.660 Y66.709 E3.32480
G1 X68.041 Y67.066 E3.35736
G1 X66.569 Y65.593 E3.45229
G1 X65.593 Y66.569 E3.51518
G1 X67.066 Y68.041 E3.61011
G1 X67.423 Y67.423 E3.64266
G1 X63.880 Y63.880 E3.87108
G1 X65.349 Y72.177 F3000.000
G1 X64.157 Y70.986 E3.94790 F600
G1 X63.514 Y71.318 E3.98091
G1 X64.245 Y72.050 E4.02809
G1 X63.407 Y72.187 E4.06684
G1 X62.744 Y71.524 E4.10954
G1 X62.670 Y72.426 E4.15078
G1 X61.836 Y71.592 E4.20454
G1 X61.752 Y72.484 E4.24537
G1 X61.834 Y72.565 E4.25062
M104 S197 ; set temperature
G1 F2400.000 E1.55062
G92 E0
G1 Z0.350 F3000.000
G1 X66.664 Y70.894 F3000.000
G1 E2.70000 F2400.000
G1 X66.664 Y69.106 E2.83499 F1015.108
G1 X66.953 Y68.607 E2.87854
G1 X67.558 Y67.558 E2.96998
G1 X69.106 Y66.664 E3.10498
G1 X70.894 Y66.664 E3.23997
G1 X71.942 Y67.270 E3.33141
G1 X72.442 Y67.558 E3.37496
G1 X73.336 Y69.106 E3.50996
G1 X73.336 Y70.894 E3.64495
G1 X72.442 Y72.442 E3.77994
G1 X70.894 Y73.336 E3.91493
G1 X69.106 Y73.336 E4.04993
G1 X67.558 Y72.442 E4.18492
G1 X66.729 Y71.005 E4.31020
G1 X67.522 Y70.664 F3000.000
G1 X67.522 Y69.336 E4.41051 F1015.108
G1 X67.695 Y69.035 E4.43672
G1 X68.186 Y68.186 E4.51081
G1 X69.336 Y67.522 E4.61112
G1 X70.664 Y67.522 E4.71142
G1 X71.814 Y68.186 E4.81173
G1 X72.478 Y69.336 E4.91204
G1 X72.478 Y70.664 E5.01234
G1 X71.814 Y71.814 E5.11265
G1 X70.664 Y72.478 E5.21295
G1 X69.336 Y72.478 E5.31326
G1 X68.186 Y71.814 E5.41356
G1 X67.586 Y70.775 E5.50416
G1 X66.314 Y72.832 F3000.000
G1 X65.218 Y72.321 E5.59545 F1015.108
G1 X64.014 Y72.215 E5.68674
G1 X62.846 Y72.528 E5.77803
G1 X62.271 Y72.931 E5.83110
G1 X61.888 Y72.829 E5.86101
G1 X61.653 Y72.664 E5.88267
G1 X61.489 Y72.429 E5.90434
G1 X61.414 Y72.152 E5.92601
G1 X61.439 Y71.866 E5.94768
G1 X61.561 Y71.606 E5.96934
G1 X61.841 Y71.326 E5.99925
G1 X62.541 Y71.387 E6.05232
G1 X63.708 Y71.075 E6.14361
G1 X64.699 Y70.381 E6.23490
G1 X65.392 Y69.391 E6.32619
G1 X65.705 Y68.223 E6.41748
G1 X65.599 Y67.019 E6.50877
G1 X65.088 Y65.924 E6.60006
G1 X64.234 Y65.069 E6.69135
G1 X63.597 Y64.772 E6.74442
G1 X63.494 Y64.389 E6.77433
G1 X63.519 Y64.104 E6.79599
G1 X63.641 Y63.843 E6.81766
G1 X63.843 Y63.641 E6.83933
G1 X64.104 Y63.519 E6.86100
G1 X64.389 Y63.494 E6.88266
G1 X64.772 Y63.597 E6.91257
G1 X65.069 Y64.234 E6.96564
G1 X65.924 Y65.088 E7.05693
G1 X67.019 Y65.599 E7.14822
G1 X68.223 Y65.705 E7.23951
G1 X69.391 Y65.392 E7.33080
G1 X70.381 Y64.699 E7.42209
G1 X71.075 Y63.708 E7.51338
G1 X71.387 Y62.541 E7.60467
G1 X71.326 Y61.841 E7.65774
G1 X71.606 Y61.561 E7.68764
G1 X71.866 Y61.439 E7.70931
G1 X72.152 Y61.414 E7.73098
G1 X72.429 Y61.489 E7.75265
G1 X72.664 Y61.653 E7.77432
G1 X72.829 Y61.888 E7.79598
G1 X72.931 Y62.271 E7.82589
G1 X72.528 Y62.846 E7.87896
G1 X72.215 Y64.014 E7.97025
G1 X72.321 Y65.218 E8.06154
