; generated by Slic3r 1.2.0 on 2014-12-08 at 11:08:15

; external perimeters extrusion width = 0.30mm
; perimeters extrusion width = 0.90mm
; infill extrusion width = 0.50mm
; solid infill extrusion width = 0.50mm
; top infill extrusion width = 0.60mm

G21 ; set units to millimeters
M107
M104 S210 ; set temperature
G21           ;metric is good!
G90           ;absolute positioning
G28           ;go home
G92 E0        ;reset extruder
M109 S210 ; wait for temperature to be reached
G90 ; use absolute coordinates
G92 E0
M82 ; use absolute distances for extrusion
G1 F2400.000 E-2.70000
G92 E0
G1 Z0.250 F6000.000
G1 X90.459 Y90.459 F6000.000
G1 E2.70000 F2400.000
G1 X90.724 Y90.195 E2.71650 F600.000
G1 X91.672 Y89.530 E2.76762
G1 X92.897 Y89.015 E2.82624
G1 X101.232 Y86.834 E3.20647
G1 X101.977 Y86.769 E3.23948
G1 X103.131 Y86.870 E3.29059
G1 X103.853 Y87.064 E3.32361 F600.000
G1 X104.903 Y87.553 E3.37474
G1 X105.961 Y88.356 E3.43335
G1 X112.018 Y94.484 E3.81358
G1 X112.447 Y95.097 E3.84659
G1 X112.936 Y96.147 E3.89771
G1 X113.130 Y96.869 E3.93072
G1 X113.231 Y98.023 E3.98184
G1 X113.065 Y99.341 E4.04045
G1 X110.786 Y107.650 E4.42069
G1 X110.470 Y108.327 E4.45370
G1 X109.805 Y109.276 E4.50482
G1 X109.276 Y109.805 E4.53783
G1 X108.327 Y110.470 E4.58895
G1 X107.103 Y110.985 E4.64756
G1 X98.768 Y113.166 E5.02780
G1 X98.023 Y113.231 E5.06080
G1 X96.869 Y113.130 E5.11193
G1 X96.147 Y112.936 E5.14493
G1 X95.097 Y112.447 E5.19606
G1 X94.039 Y111.644 E5.25467
G1 X87.982 Y105.516 E5.63491
G1 X87.553 Y104.903 E5.66791
G1 X87.064 Y103.853 E5.71904
G1 X86.870 Y103.131 E5.75206
G1 X86.769 Y101.977 E5.80316
G1 X86.833 Y101.253 E5.83526
G1 X86.935 Y100.659 E5.86183
G1 X89.214 Y92.350 E6.24207
G1 X89.530 Y91.672 E6.27508
G1 X90.195 Y90.724 E6.32620
G1 X90.427 Y90.491 E6.34071
G1 X90.900 Y90.963 F6000.000
G1 X91.196 Y90.667 E6.35920 F600.000
G1 X91.955 Y90.136 E6.40008
G1 X93.070 Y89.660 E6.45357
G1 X101.290 Y87.500 E6.82868
G1 X102.035 Y87.434 E6.86169
G1 X102.958 Y87.515 E6.90257
G1 X103.681 Y87.709 E6.93559 F600.000
G1 X104.520 Y88.100 E6.97648
G1 X105.489 Y88.828 E7.02995
G1 X111.471 Y94.867 E7.40507
G1 X111.900 Y95.480 E7.43808
G1 X112.291 Y96.319 E7.47897
G1 X112.485 Y97.042 E7.51197
G1 X112.566 Y97.965 E7.55286
G1 X112.420 Y99.168 E7.60634
G1 X110.181 Y107.367 E7.98146
G1 X109.864 Y108.045 E8.01446
G1 X109.333 Y108.804 E8.05535
G1 X108.804 Y109.333 E8.08836
G1 X108.045 Y109.864 E8.12925
G1 X106.930 Y110.340 E8.18273
G1 X98.710 Y112.500 E8.55784
G1 X97.965 Y112.566 E8.59085
G1 X97.042 Y112.485 E8.63174
G1 X96.319 Y112.291 E8.66474
G1 X95.480 Y111.900 E8.70563
G1 X94.511 Y111.172 E8.75911
G1 X88.529 Y105.133 E9.13423
G1 X88.100 Y104.520 E9.16724
G1 X87.709 Y103.681 E9.20812
G1 X87.515 Y102.958 E9.24114
G1 X87.434 Y102.035 E9.28202
G1 X87.498 Y101.311 E9.31411
G1 X87.580 Y100.832 E9.33554
G1 X89.819 Y92.633 E9.71066
G1 X90.136 Y91.955 E9.74368
G1 X90.667 Y91.196 E9.78456
G1 X90.868 Y90.995 E9.79709
G1 F2400.000 E7.09709
G92 E0
G1 X97.770 Y97.770 F6000.000
G1 E2.70000 F2400.000
G1 X99.184 Y96.954 E2.77205 F600.000
G1 X100.816 Y96.954 E2.84409
G1 X101.935 Y97.600 E2.90110
G1 X102.230 Y97.770 E2.91614 F600.000
G1 X103.046 Y99.184 E2.98818
G1 X103.046 Y100.816 E3.06023
G1 X102.230 Y102.230 E3.13227
G1 X100.816 Y103.046 E3.20432
G1 X99.184 Y103.046 E3.27636
G1 X97.770 Y102.230 E3.34841
G1 X96.954 Y100.816 E3.42045
G1 X96.954 Y99.184 E3.49250
G1 X97.747 Y97.809 E3.56256
G1 X98.259 Y98.259 F6000.000
G1 X99.363 Y97.622 E3.61881 F600.000
G1 X100.637 Y97.622 E3.67506 F600.000
G1 X101.741 Y98.259 E3.73131
G1 X102.378 Y99.363 E3.78756
G1 X102.378 Y100.637 E3.84381
G1 X101.741 Y101.741 E3.90006
G1 X100.637 Y102.378 E3.95631
G1 X99.363 Y102.378 E4.01257
G1 X98.259 Y101.741 E4.06882
G1 X97.622 Y100.637 E4.12507
G1 X97.622 Y99.363 E4.18132
G1 X98.236 Y98.298 E4.23558
G1 X95.412 Y98.198 F6000.000
G1 X95.316 Y97.095 E4.28443 F600.000
G1 X94.848 Y96.092 E4.33327
G1 X94.065 Y95.309 E4.38212
G1 X93.472 Y95.033 E4.41101
G1 X93.302 Y94.791 E4.42406
G1 X93.202 Y94.415 E4.44122
G1 X93.236 Y94.027 E4.45839
G1 X93.400 Y93.675 E4.47555
G1 X93.675 Y93.400 E4.49272
G1 X94.027 Y93.236 E4.50988
G1 X94.415 Y93.202 E4.52704
G1 X94.791 Y93.302 E4.54421
G1 X95.033 Y93.472 E4.55726
G1 X95.309 Y94.065 E4.58615
G1 X96.092 Y94.848 E4.63499
G1 X97.095 Y95.316 E4.68384
G1 X98.198 Y95.412 E4.73268
G1 X99.267 Y95.126 E4.78153
G1 X100.173 Y94.491 E4.83037
G1 X100.808 Y93.584 E4.87922
G1 X101.095 Y92.515 E4.92806
G1 X101.038 Y91.863 E4.95695
G1 X101.163 Y91.595 E4.97000
G1 X101.438 Y91.320 E4.98716
G1 X101.790 Y91.156 E5.00433
G1 X102.178 Y91.122 E5.02149 F600.000
G1 X102.553 Y91.222 E5.03866
G1 X102.872 Y91.445 E5.05582
G1 X103.095 Y91.764 E5.07299
G1 X103.196 Y92.140 E5.09015
G1 X103.170 Y92.434 E5.10320
G1 X102.794 Y92.971 E5.13209
G1 X102.508 Y94.040 E5.18093
G1 X102.604 Y95.142 E5.22978
G1 X103.072 Y96.145 E5.27862
G1 X103.855 Y96.928 E5.32747
G1 X104.858 Y97.396 E5.37631
G1 X105.960 Y97.492 E5.42516
G1 X107.030 Y97.206 E5.47401
G1 X107.566 Y96.830 E5.50289
G1 X107.860 Y96.804 E5.51594
G1 X108.236 Y96.905 E5.53311
G1 X108.555 Y97.128 E5.55027
G1 X108.778 Y97.447 E5.56743
G1 X108.878 Y97.822 E5.58460
G1 X108.844 Y98.210 E5.60176
G1 X108.680 Y98.562 E5.61893
G1 X108.405 Y98.837 E5.63609
G1 X108.137 Y98.962 E5.64914
G1 X107.485 Y98.905 E5.67803
G1 X106.416 Y99.192 E5.72687
G1 X105.509 Y99.827 E5.77572
G1 X104.874 Y100.733 E5.82457
G1 X104.588 Y101.802 E5.87341
G1 X104.684 Y102.905 E5.92226
G1 X105.152 Y103.908 E5.97110
G1 X105.935 Y104.691 E6.01995
G1 X106.528 Y104.967 E6.04883
G1 X106.698 Y105.209 E6.06188
G1 X106.798 Y105.585 E6.07905
G1 X106.764 Y105.973 E6.09621
G1 X106.600 Y106.325 E6.11338
G1 X106.325 Y106.600 E6.13054
G1 X105.973 Y106.764 E6.14770
G1 X105.585 Y106.798 E6.16487
G1 X105.209 Y106.698 E6.18203
G1 X104.967 Y106.528 E6.19508
G1 X104.691 Y105.935 E6.22397
G1 X103.908 Y105.152 E6.27282
G1 X102.905 Y104.684 E6.32166
G1 X101.802 Y104.588 E6.37051
G1 X100.733 Y104.874 E6.41935
G1 X99.827 Y105.509 E6.46820
G1 X99.192 Y106.416 E6.51704
G1 X98.905 Y107.485 E6.56589
G1 X98.962 Y108.137 E6.59478
G1 X98.837 Y108.405 E6.60783
G1 X98.562 Y108.680 E6.62499
G1 X98.210 Y108.844 E6.64215
G1 X97.822 Y108.878 E6.65932
G1 X97.447 Y108.778 E6.67648
G1 X97.128 Y108.555 E6.69365
G1 X96.905 Y108.236 E6.71081
G1 X96.804 Y107.860 E6.72797
G1 X96.830 Y107.566 E6.74102
G1 X97.206 Y107.030 E6.76991
G1 X97.492 Y105.960 E6.81876
G1 X97.396 Y104.858 E6.86760
G1 X96.928 Y103.855 E6.91645
G1 X96.145 Y103.072 E6.96529
G1 X95.142 Y102.604 E7.01414
G1 X94.040 Y102.508 E7.06298
G1 X92.971 Y102.794 E7.11183
G1 X92.434 Y103.170 E7.14072
G1 X92.140 Y103.196 E7.15377
G1 X91.764 Y103.095 E7.17093
G1 X91.445 Y102.872 E7.18810
G1 X91.222 Y102.553 E7.20526
G1 X91.122 Y102.178 E7.22242
G1 X91.156 Y101.790 E7.23959
G1 X91.320 Y101.438 E7.25675
G1 X91.595 Y101.163 E7.27392
G1 X91.863 Y101.038 E7.28696
G1 X92.515 Y101.095 E7.31586
G1 X93.584 Y100.808 E7.36470
G1 X94.491 Y100.173 E7.41354
G1 X95.126 Y99.267 E7.46239
G1 X95.400 Y98.241 E7.50925
G1 X94.737 Y98.139 F6000.000
G1 X94.661 Y97.271 E7.54770 F600.000
G1 X94.292 Y96.481 E7.58615
G1 X93.676 Y95.865 E7.62460
G1 X93.028 Y95.562 E7.65619
G1 X92.688 Y95.077 E7.68234
G1 X92.526 Y94.474 E7.70989
G1 X92.581 Y93.852 E7.73745
G1 X92.845 Y93.286 E7.76501
G1 X93.286 Y92.845 E7.79257
G1 X93.852 Y92.581 E7.82012
G1 X94.474 Y92.526 E7.84768
G1 X95.077 Y92.688 E7.87524
G1 X95.562 Y93.028 E7.90138
G1 X95.865 Y93.676 E7.93297
G1 X96.481 Y94.292 E7.97142
G1 X97.271 Y94.661 E8.00987
G1 X98.139 Y94.737 E8.04833
G1 X98.980 Y94.511 E8.08678
G1 X99.694 Y94.011 E8.12523
G1 X100.194 Y93.298 E8.16368
G1 X100.419 Y92.456 E8.20213
G1 X100.357 Y91.743 E8.23372
G1 X100.607 Y91.206 E8.25987
G1 X101.049 Y90.765 E8.28742
G1 X101.615 Y90.501 E8.31498
G1 X102.237 Y90.446 E8.34254
G1 X102.840 Y90.608 E8.37010
G1 X103.351 Y90.966 E8.39765 F600.000
G1 X103.710 Y91.477 E8.42521
G1 X103.871 Y92.081 E8.45277
G1 X103.820 Y92.671 E8.47891
G1 X103.409 Y93.257 E8.51050
G1 X103.183 Y94.099 E8.54895
G1 X103.259 Y94.967 E8.58741
G1 X103.628 Y95.756 E8.62586
G1 X104.244 Y96.372 E8.66431
G1 X105.033 Y96.741 E8.70276
G1 X105.901 Y96.817 E8.74121
G1 X106.743 Y96.591 E8.77966
G1 X107.329 Y96.180 E8.81125
G1 X107.919 Y96.129 E8.83740
G1 X108.523 Y96.290 E8.86495
G1 X109.034 Y96.649 E8.89251
G1 X109.392 Y97.160 E8.92007
G1 X109.554 Y97.763 E8.94763
G1 X109.499 Y98.385 E8.97518
G1 X109.235 Y98.951 E9.00274
G1 X108.794 Y99.393 E9.03030
G1 X108.257 Y99.643 E9.05644
G1 X107.544 Y99.581 E9.08803
G1 X106.702 Y99.806 E9.12648
G1 X105.989 Y100.306 E9.16493
G1 X105.489 Y101.020 E9.20339
G1 X105.263 Y101.861 E9.24184
G1 X105.339 Y102.729 E9.28029
G1 X105.708 Y103.519 E9.31874
G1 X106.324 Y104.135 E9.35719
G1 X106.972 Y104.438 E9.38878
G1 X107.312 Y104.923 E9.41493
G1 X107.474 Y105.526 E9.44248
G1 X107.419 Y106.148 E9.47004
G1 X107.155 Y106.714 E9.49760
G1 X106.714 Y107.155 E9.52516
G1 X106.148 Y107.419 E9.55271
G1 X105.526 Y107.474 E9.58027
G1 X104.923 Y107.312 E9.60783
G1 X104.438 Y106.972 E9.63397
G1 X104.135 Y106.324 E9.66556
G1 X103.519 Y105.708 E9.70401
G1 X102.729 Y105.339 E9.74246
G1 X101.861 Y105.263 E9.78092
G1 X101.020 Y105.489 E9.81937
G1 X100.306 Y105.989 E9.85782
G1 X99.806 Y106.702 E9.89627
G1 X99.581 Y107.544 E9.93472
G1 X99.643 Y108.257 E9.96631
G1 X99.393 Y108.794 E9.99246
G1 X98.951 Y109.235 E10.02001
G1 X98.385 Y109.499 E10.04757
G1 X97.763 Y109.554 E10.07513
G1 X97.160 Y109.392 E10.10269
G1 X96.649 Y109.034 E10.13024
G1 X96.290 Y108.523 E10.15780
G1 X96.129 Y107.919 E10.18536
G1 X96.180 Y107.329 E10.21150
G1 X96.591 Y106.743 E10.24309
G1 X96.817 Y105.901 E10.28154
G1 X96.741 Y105.033 E10.31999
G1 X96.372 Y104.244 E10.35845
G1 X95.756 Y103.628 E10.39690
G1 X94.967 Y103.259 E10.43535
G1 X94.099 Y103.183 E10.47380
G1 X93.257 Y103.409 E10.51225
G1 X92.671 Y103.820 E10.54384
G1 X92.081 Y103.871 E10.56999
G1 X91.477 Y103.710 E10.59754
G1 X90.966 Y103.351 E10.62510
G1 X90.608 Y102.840 E10.65266
G1 X90.446 Y102.237 E10.68022
G1 X90.501 Y101.615 E10.70777
G1 X90.765 Y101.049 E10.73533
G1 X91.206 Y100.607 E10.76289
G1 X91.743 Y100.357 E10.78903
G1 X92.456 Y100.419 E10.82062
G1 X93.298 Y100.194 E10.85907
G1 X94.011 Y99.694 E10.89752
G1 X94.511 Y98.980 E10.93598
G1 X94.725 Y98.182 E10.97244
G1 X94.044 Y93.928 F6000.000
G1 X94.194 Y93.858 E10.97973 F600.000
G1 X94.359 Y93.843 E10.98702
G1 X94.530 Y93.894 E10.99489
G1 X94.782 Y94.435 E11.02121
G1 X95.723 Y95.376 E11.07993
G1 X96.928 Y95.938 E11.13865
G1 X98.254 Y96.054 E11.19737
G1 X99.539 Y95.709 E11.25609
G1 X100.629 Y94.946 E11.31481
G1 X101.392 Y93.856 E11.37353
G1 X101.736 Y92.571 E11.43224
G1 X101.690 Y91.964 E11.45910
G1 X101.807 Y91.848 E11.46639
G1 X101.957 Y91.778 E11.47368
G1 X102.121 Y91.763 E11.48097
G1 X102.281 Y91.806 E11.48826
G1 X102.416 Y91.901 E11.49555
G1 X102.511 Y92.036 E11.50284
G1 X102.554 Y92.196 E11.51013
G1 X102.211 Y92.698 E11.53699
G1 X101.866 Y93.983 E11.59571
G1 X101.982 Y95.309 E11.65443
G1 X102.544 Y96.515 E11.71314
G1 X103.485 Y97.456 E11.77186
G1 X104.691 Y98.018 E11.83058
G1 X106.017 Y98.134 E11.88930
G1 X107.302 Y97.789 E11.94802
G1 X107.790 Y97.447 E11.97434
G1 X107.964 Y97.489 E11.98221
G1 X108.099 Y97.584 E11.98950
G1 X108.194 Y97.719 E11.99679
G1 X108.237 Y97.879 E12.00408
G1 X108.222 Y98.043 E12.01137
G1 X108.152 Y98.193 E12.01866
G1 X108.035 Y98.310 E12.02595
G1 X107.429 Y98.264 E12.05281
G1 X106.144 Y98.608 E12.11153
G1 X105.054 Y99.371 E12.17025
G1 X104.291 Y100.461 E12.22896
G1 X103.946 Y101.746 E12.28768
G1 X104.062 Y103.072 E12.34640
G1 X104.624 Y104.277 E12.40512
G1 X105.565 Y105.218 E12.46384
G1 X106.114 Y105.482 E12.49069
G1 X106.157 Y105.641 E12.49798
G1 X106.142 Y105.806 E12.50527
G1 X106.072 Y105.955 E12.51256
G1 X105.955 Y106.072 E12.51986
G1 X105.806 Y106.142 E12.52715
G1 X105.641 Y106.157 E12.53444
G1 X105.470 Y106.106 E12.54230
G1 X105.218 Y105.565 E12.56863
G1 X104.277 Y104.624 E12.62735
G1 X103.072 Y104.062 E12.68606
G1 X101.746 Y103.946 E12.74478
G1 X100.461 Y104.291 E12.80350
G1 X99.371 Y105.054 E12.86222
G1 X98.608 Y106.144 E12.92094
G1 X98.264 Y107.429 E12.97966
G1 X98.310 Y108.036 E13.00651
G1 X98.193 Y108.152 E13.01380
G1 X98.043 Y108.222 E13.02109
G1 X97.879 Y108.237 E13.02838
G1 X97.719 Y108.194 E13.03568
G1 X97.584 Y108.099 E13.04297
G1 X97.489 Y107.964 E13.05026
G1 X97.446 Y107.804 E13.05755
G1 X97.789 Y107.302 E13.08440
G1 X98.134 Y106.017 E13.14312
G1 X98.018 Y104.691 E13.20184
G1 X97.456 Y103.485 E13.26056
G1 X96.515 Y102.544 E13.31928
G1 X95.309 Y101.982 E13.37799
G1 X93.983 Y101.866 E13.43671
G1 X92.698 Y102.211 E13.49543
G1 X92.210 Y102.553 E13.52176
G1 X92.036 Y102.511 E13.52962
G1 X91.901 Y102.416 E13.53691
G1 X91.806 Y102.281 E13.54421
G1 X91.763 Y102.121 E13.55150
G1 X91.778 Y101.957 E13.55879
G1 X91.848 Y101.807 E13.56608
G1 X91.964 Y101.690 E13.57337
G1 X92.571 Y101.736 E13.60022
G1 X93.856 Y101.392 E13.65894
G1 X94.946 Y100.629 E13.71766
G1 X95.709 Y99.539 E13.77638
G1 X96.054 Y98.254 E13.83510
G1 X95.938 Y96.928 E13.89382
G1 X95.376 Y95.723 E13.95253
G1 X94.435 Y94.782 E14.01125
G1 X93.894 Y94.530 E14.03758
G1 X93.843 Y94.359 E14.04544
G1 X93.858 Y94.194 E14.05273
G1 X93.928 Y94.044 E14.06003
G1 X94.013 Y93.959 E14.06533
G1 X97.306 Y97.306 F6000.000
G1 X99.014 Y96.319 E14.15238 F600.000
G1 X100.986 Y96.319 E14.23943
G1 X102.694 Y97.306 E14.32648
G1 X103.681 Y99.014 E14.41353
G1 X103.681 Y100.986 E14.50058
G1 X102.694 Y102.694 E14.58762
G1 X100.986 Y103.681 E14.67467
G1 X99.014 Y103.681 E14.76172
G1 X97.306 Y102.694 E14.84877
G1 X96.319 Y100.986 E14.93582
G1 X96.319 Y99.014 E15.02287
G1 X97.283 Y97.345 E15.10793
M104 S197 ; set temperature
G1 F2400.000 E12.40793
G92 E0
G1 Z0.450 F6000.000
G1 X97.997 Y97.997 F6000.000
G1 E2.70000 F2400.000
G1 X99.267 Y97.264 E2.81071 F1196.800
G1 X100.733 Y97.264 E2.92142
G1 X101.642 Y97.789 E3.00072
G1 X102.003 Y97.997 E3.03213 F1196.800
G1 X102.736 Y99.267 E3.14284
G1 X102.736 Y100.733 E3.25355
G1 X102.003 Y102.003 E3.36426
G1 X100.733 Y102.736 E3.47497
G1 X99.267 Y102.736 E3.58568
G1 X97.997 Y102.003 E3.69639
G1 X97.264 Y100.733 E3.80710
G1 X97.264 Y99.267 E3.91781
G1 X97.975 Y98.036 E4.02512
G1 X98.405 Y98.405 F6000.000
G1 X99.416 Y97.822 E4.05157 F1196.800
G1 X100.584 Y97.822 E4.07801 F1196.800
G1 X101.595 Y98.405 E4.10445
G1 X102.178 Y99.416 E4.13090
G1 X102.178 Y100.584 E4.15734
G1 X101.595 Y101.595 E4.18379
G1 X100.584 Y102.178 E4.21023
G1 X99.416 Y102.178 E4.23668
G1 X98.405 Y101.595 E4.26312
G1 X97.822 Y100.584 E4.28957
G1 X97.822 Y99.416 E4.31601
G1 X98.383 Y98.444 E4.34144
G1 X95.098 Y98.170 F6000.000
G1 X95.011 Y97.177 E4.41675 F1196.800
G1 X94.589 Y96.273 E4.49206
G1 X93.884 Y95.568 E4.56737
G1 X93.265 Y95.279 E4.61895
G1 X93.016 Y94.924 E4.65171
G1 X92.887 Y94.442 E4.68935
G1 X92.931 Y93.946 E4.72700
G1 X93.142 Y93.494 E4.76465
G1 X93.494 Y93.142 E4.80230
G1 X93.946 Y92.931 E4.83994
G1 X94.442 Y92.887 E4.87759
G1 X94.924 Y93.016 E4.91524
G1 X95.279 Y93.265 E4.94799
G1 X95.568 Y93.884 E4.99958
G1 X96.273 Y94.589 E5.07489
G1 X97.177 Y95.011 E5.15020
G1 X98.170 Y95.098 E5.22551
G1 X99.133 Y94.840 E5.30082
G1 X99.950 Y94.268 E5.37613
G1 X100.522 Y93.451 E5.45144
G1 X100.780 Y92.488 E5.52675
G1 X100.721 Y91.807 E5.57833
G1 X100.904 Y91.414 E5.61109
G1 X101.257 Y91.062 E5.64874
G1 X101.708 Y90.851 E5.68638
G1 X102.205 Y90.807 E5.72403 F1196.800
G1 X102.687 Y90.936 E5.76168
G1 X103.095 Y91.222 E5.79932
G1 X103.381 Y91.631 E5.83697
G1 X103.510 Y92.112 E5.87462
G1 X103.472 Y92.544 E5.90737
G1 X103.080 Y93.104 E5.95896
G1 X102.822 Y94.067 E6.03427
G1 X102.909 Y95.060 E6.10958
G1 X103.331 Y95.964 E6.18489
G1 X104.036 Y96.669 E6.26020
G1 X104.939 Y97.091 E6.33551
G1 X105.933 Y97.178 E6.41082
G1 X106.896 Y96.920 E6.48613
G1 X107.456 Y96.528 E6.53771
G1 X107.888 Y96.490 E6.57047
G1 X108.369 Y96.619 E6.60812
G1 X108.778 Y96.905 E6.64576
G1 X109.064 Y97.313 E6.68341
G1 X109.193 Y97.795 E6.72106
G1 X109.149 Y98.292 E6.75871
G1 X108.938 Y98.743 E6.79635
G1 X108.586 Y99.096 E6.83400
G1 X108.193 Y99.279 E6.86675
G1 X107.512 Y99.220 E6.91834
G1 X106.549 Y99.478 E6.99365
G1 X105.732 Y100.050 E7.06896
G1 X105.160 Y100.867 E7.14427
