; generated by Slic3r 1.2.0 on 2014-12-03 at 19:20:38

; external perimeters extrusion width = 0.30mm
; perimeters extrusion width = 0.90mm
; infill extrusion width = 0.50mm
; solid infill extrusion width = 0.50mm
; top infill extrusion width = 0.60mm

G21 ; set units to millimeters
M107
M104 S210 ; set temperature
G21           ;metric is good!
G90           ;absolute positioning
G28           ;go home
G92 E0        ;reset extruder
M109 S210 ; wait for temperature to be reached
G90 ; use absolute coordinates
G92 E0
M82 ; use absolute distances for extrusion
G1 F2400.000 E-2.70000
G92 E0
G1 Z0.250 F6000.000
G1 X27.424 Y23.881 F6000.000
G1 E2.70000 F2400.000
G1 X28.727 Y22.917 E2.77155 F600.000
G1 X30.000 Y22.664 E2.82881
G1 X58.154 Y22.668 E4.07129
G1 X101.580 Y24.671 E5.98983 F600.000
G1 X105.884 Y24.975 E6.18023
G1 X114.654 Y26.729 E6.57497
G1 X116.119 Y27.424 E6.64652
G1 X117.083 Y28.727 E6.71807
G1 X117.336 Y30.000 E6.77533
G1 X117.332 Y58.154 E8.01781
G1 X115.329 Y101.580 E9.93635
G1 X115.025 Y105.884 E10.12675
G1 X113.271 Y114.654 E10.52148
G1 X112.576 Y116.119 E10.59303
G1 X111.273 Y117.083 E10.66458
G1 X110.000 Y117.336 E10.72185
G1 X81.846 Y117.332 E11.96433
G1 X38.420 Y115.329 E13.88287
G1 X34.116 Y115.025 E14.07327
G1 X25.346 Y113.271 E14.46800
G1 X23.881 Y112.576 E14.53955
G1 X22.917 Y111.273 E14.61110
G1 X22.664 Y110.000 E14.66836
G1 X22.668 Y81.846 E15.91085
G1 X24.671 Y38.420 E17.82939
G1 X24.975 Y34.116 E18.01979
G1 X26.729 Y25.346 E18.41452
G1 X27.405 Y23.922 E18.48409
G1 X28.018 Y24.235 F6000.000
G1 X28.042 Y24.188 E18.48641 F600.000
G1 X29.276 Y23.432 E18.55028
G1 X30.000 Y23.332 E18.58252
G1 X58.123 Y23.335 E19.82365
G1 X101.537 Y25.338 E21.74167 F600.000
G1 X105.753 Y25.630 E21.92814
G1 X114.523 Y27.384 E22.32287
G1 X115.812 Y28.042 E22.38674
G1 X116.568 Y29.276 E22.45061
G1 X116.668 Y30.000 E22.48285
G1 X116.665 Y58.123 E23.72398
G1 X114.662 Y101.537 E25.64200
G1 X114.370 Y105.753 E25.82847
G1 X112.616 Y114.523 E26.22320
G1 X111.958 Y115.812 E26.28707
G1 X110.724 Y116.568 E26.35093
G1 X110.000 Y116.668 E26.38318
G1 X81.877 Y116.665 E27.62431
G1 X38.463 Y114.662 E29.54233
G1 X34.247 Y114.370 E29.72880
G1 X25.477 Y112.616 E30.12353
G1 X24.188 Y111.958 E30.18739
G1 X23.432 Y110.724 E30.25126
G1 X23.332 Y110.000 E30.28351
G1 X23.335 Y81.877 E31.52463
G1 X25.338 Y38.463 E33.44265
G1 X25.630 Y34.247 E33.62912
G1 X27.384 Y25.477 E34.02386
G1 X27.998 Y24.275 E34.08341
G1 F2400.000 E31.38341
G92 E0
G1 X89.750 Y108.240 F6000.000
G1 E2.70000 F2400.000
G1 X90.075 Y108.433 E2.71671 F600.000
G1 X89.166 Y112.982 E2.92145
G1 X84.098 Y112.982 E3.14509
G1 X89.715 Y108.269 E3.46870
G1 X90.778 Y106.506 F6000.000
G1 X91.103 Y106.699 E3.48541 F600.000
G1 X89.713 Y113.650 E3.79826
G1 X82.263 Y113.650 E4.12703
G1 X90.743 Y106.535 E4.61556
G1 X89.211 Y109.520 F6000.000
G1 X88.646 Y112.348 E4.74282 F600.000
G1 X85.841 Y112.348 E4.86659
G1 X89.177 Y109.549 E5.05874
G1 F2400.000 E2.35874
G92 E0
G1 X81.935 Y108.485 F6000.000
G1 E2.70000 F2400.000
G1 X81.475 Y106.184 E2.80357 F600.000
G1 X90.982 Y98.206 E3.35131
G1 X90.982 Y100.893 E3.46992
G1 X81.969 Y108.456 E3.98915
G1 X81.501 Y109.721 F6000.000
G1 X80.742 Y105.926 E4.15992 F600.000
G1 X91.650 Y96.774 E4.78832
G1 X91.650 Y101.205 E4.98387
G1 X81.536 Y109.692 E5.56657
G1 X90.348 Y99.566 F6000.000
G1 X90.348 Y100.597 E5.61209 F600.000
G1 X82.347 Y107.311 E6.07301
G1 X82.170 Y106.428 E6.11275
G1 X90.313 Y99.595 E6.58187
G1 F2400.000 E3.88187
G92 E0
G1 X82.513 Y90.000 F6000.000
G1 E2.70000 F2400.000
G1 X81.018 Y91.254 E2.78613 F600.000
G1 X81.018 Y88.746 E2.89685
G1 X82.478 Y89.971 E2.98099
G1 X83.552 Y90.000 F6000.000
G1 X80.350 Y92.687 E3.16544 F600.000
G1 X80.350 Y87.313 E3.40256
G1 X83.517 Y89.971 E3.58503
G1 F2400.000 E0.88503
G92 E0
G1 X90.036 Y90.000 F6000.000
G1 E2.70000 F2400.000
G1 X81.018 Y82.433 E3.21952 F600.000
G1 X81.018 Y79.746 E3.33813
G1 X90.982 Y88.107 E3.91218
G1 X90.982 Y91.893 E4.07930
G1 X81.018 Y100.254 E4.65335
G1 X81.018 Y97.567 E4.77196
G1 X90.001 Y90.029 E5.28950
G1 X88.997 Y90.000 F6000.000
G1 X80.350 Y82.745 E5.78764 F600.000
G1 X80.350 Y78.313 E5.98319
G1 X91.650 Y87.795 E6.63419
G1 X91.650 Y92.205 E6.82879
G1 X80.350 Y101.687 E7.47979
G1 X80.350 Y97.255 E7.67534
G1 X88.962 Y90.029 E8.17150
G1 X81.652 Y97.863 F6000.000
G1 X90.348 Y90.566 E8.67246 F600.000
G1 X90.348 Y91.597 E8.71797
G1 X81.652 Y98.894 E9.21893
G1 X81.652 Y97.908 E9.26245
G1 F2400.000 E6.56245
G92 E0
G1 X81.652 Y81.106 F6000.000
G1 E2.70000 F2400.000
G1 X90.348 Y88.403 E3.20096 F600.000
G1 X90.348 Y89.434 E3.24647
G1 X81.652 Y82.137 E3.74743
G1 X81.652 Y81.151 E3.79095
G1 F2400.000 E1.09095
G92 E0
G1 X101.018 Y88.746 F6000.000
G1 E2.70000 F2400.000
G1 X102.513 Y90.000 E2.78613 F600.000
G1 X101.018 Y91.254 E2.87225
G1 X101.018 Y88.791 E2.98099
G1 X100.350 Y87.313 F6000.000
G1 X103.552 Y90.000 E3.16544 F600.000
G1 X100.350 Y92.687 E3.34989
G1 X100.350 Y87.358 E3.58503
G1 F2400.000 E0.88503
G92 E0
G1 X110.036 Y90.000 F6000.000
G1 E2.70000 F2400.000
G1 X101.018 Y82.433 E3.21952 F600.000
G1 X101.018 Y79.746 E3.33813
G1 X110.982 Y88.107 E3.91218
G1 X110.982 Y91.893 E4.07930
G1 X101.018 Y100.254 E4.65335
G1 X101.018 Y97.567 E4.77196
G1 X110.001 Y90.029 E5.28950
G1 X108.997 Y90.000 F6000.000
G1 X100.350 Y82.745 E5.78764 F600.000
G1 X100.350 Y78.313 E5.98319
G1 X111.650 Y87.795 E6.63419
G1 X111.650 Y92.205 E6.82879
G1 X100.350 Y101.687 E7.47979
G1 X100.350 Y97.255 E7.67534
G1 X108.962 Y90.029 E8.17150
G1 X101.652 Y97.863 F6000.000
G1 X110.348 Y90.566 E8.67246 F600.000
G1 X110.348 Y91.597 E8.71797
G1 X101.652 Y98.894 E9.21893
G1 X101.652 Y97.908 E9.26245
G1 F2400.000 E6.56245
G92 E0
G1 X101.652 Y81.106 F6000.000
G1 E2.70000 F2400.000
G1 X110.348 Y88.403 E3.20096 F600.000
G1 X110.348 Y89.434 E3.24647
G1 X101.652 Y82.137 E3.74743
G1 X101.652 Y81.151 E3.79095
G1 F2400.000 E1.09095
G92 E0
G1 X110.982 Y98.206 F6000.000
G1 E2.70000 F2400.000
G1 X110.982 Y100.893 E2.81861 F600.000
G1 X101.935 Y108.485 E3.33983
G1 X101.475 Y106.184 E3.44340
G1 X110.948 Y98.235 E3.98915
G1 X111.650 Y96.774 F6000.000
G1 X111.650 Y101.205 E4.18470 F600.000
G1 X101.501 Y109.721 E4.76939
G1 X100.742 Y105.926 E4.94016
G1 X111.616 Y96.803 E5.56657
G1 X102.170 Y106.428 F6000.000
G1 X110.348 Y99.566 E6.03767 F600.000
G1 X110.348 Y100.597 E6.08319
G1 X102.347 Y107.311 E6.54411
G1 X102.179 Y106.472 E6.58187
G1 F2400.000 E3.88187
G92 E0
G1 X104.098 Y112.982 F6000.000
G1 E2.70000 F2400.000
G1 X109.750 Y108.240 E3.02559 F600.000
G1 X110.075 Y108.433 E3.04230
G1 X109.166 Y112.982 E3.24704
G1 X104.143 Y112.982 E3.46870
G1 X102.263 Y113.650 F6000.000
G1 X110.778 Y106.506 E3.95921 F600.000
G1 X111.103 Y106.699 E3.97592
G1 X109.713 Y113.650 E4.28877
G1 X102.308 Y113.650 E4.61556
G1 X105.841 Y112.348 F6000.000
G1 X109.211 Y109.520 E4.80970 F600.000
G1 X108.646 Y112.348 E4.93697
G1 X105.886 Y112.348 E5.05875
G1 F2400.000 E2.35875
G92 E0
G1 X72.982 Y109.166 F6000.000
G1 E2.70000 F2400.000
G1 X68.433 Y110.075 E2.90474 F600.000
G1 X68.240 Y109.750 E2.92145
G1 X72.982 Y104.098 E3.24704
G1 X72.982 Y109.121 E3.46870
G1 X73.650 Y109.713 F6000.000
G1 X66.699 Y111.103 E3.78155 F600.000
G1 X66.506 Y110.778 E3.79826
G1 X73.650 Y102.263 E4.28877
G1 X73.650 Y109.668 E4.61556
G1 X72.348 Y105.841 F6000.000
G1 X72.348 Y108.646 E4.73932 F600.000
G1 X69.520 Y109.211 E4.86659
G1 X72.319 Y105.876 E5.05874
G1 F2400.000 E2.35874
G92 E0
G1 X68.485 Y101.935 F6000.000
G1 E2.70000 F2400.000
G1 X60.893 Y110.982 E3.22122 F600.000
G1 X58.206 Y110.982 E3.33983
G1 X66.184 Y101.475 E3.88756
G1 X68.441 Y101.926 E3.98915
G1 X69.721 Y101.501 F6000.000
G1 X61.205 Y111.650 E4.57383 F600.000
G1 X56.774 Y111.650 E4.76939
G1 X65.926 Y100.742 E5.39779
G1 X69.677 Y101.492 E5.56657
G1 X66.428 Y102.170 F6000.000
G1 X67.311 Y102.347 E5.60632 F600.000
G1 X60.597 Y110.348 E6.06724
G1 X59.566 Y110.348 E6.11275
G1 X66.399 Y102.205 E6.58187
G1 F2400.000 E3.88187
G92 E0
G1 X66.699 Y91.103 F6000.000
G1 E2.70000 F2400.000
G1 X66.506 Y90.778 E2.71671 F600.000
G1 X73.650 Y82.263 E3.20722
G1 X73.650 Y89.713 E3.53600
G1 X66.743 Y91.094 E3.84686
G1 X73.016 Y84.006 F6000.000
G1 X73.016 Y89.193 E4.07576 F600.000
G1 X67.786 Y90.239 E4.31113
G1 X72.987 Y84.041 E4.66821
G1 X72.314 Y85.933 F6000.000
G1 X72.314 Y88.618 E4.78672 F600.000
G1 X70.307 Y89.020 E4.87705
G1 X70.066 Y88.612 E4.89794
G1 X72.285 Y85.967 E5.05033
G1 F2400.000 E2.35033
G92 E0
G1 X68.485 Y81.935 F6000.000
G1 E2.70000 F2400.000
G1 X60.893 Y90.982 E3.22122 F600.000
G1 X58.206 Y90.982 E3.33982
G1 X66.184 Y81.475 E3.88756
G1 X68.441 Y81.926 E3.98915
G1 X69.721 Y81.501 F6000.000
G1 X61.205 Y91.650 E4.57383 F600.000
G1 X56.774 Y91.650 E4.76939
G1 X65.926 Y80.742 E5.39779
G1 X69.677 Y81.492 E5.56657
G1 X66.428 Y82.170 F6000.000
G1 X67.311 Y82.347 E5.60632 F600.000
G1 X60.597 Y90.348 E6.06724
G1 X59.566 Y90.348 E6.11275
G1 X66.399 Y82.205 E6.58186
G1 F2400.000 E3.88186
G92 E0
G1 X55.902 Y72.982 F6000.000
G1 E2.70000 F2400.000
G1 X50.834 Y72.982 E2.92364 F600.000
G1 X49.925 Y68.433 E3.12838
G1 X50.250 Y68.240 E3.14509
G1 X55.867 Y72.953 E3.46870
G1 X57.737 Y73.650 F6000.000
G1 X50.287 Y73.650 E3.79747 F600.000
G1 X48.897 Y66.699 E4.11032
G1 X49.222 Y66.506 E4.12703
G1 X57.702 Y73.621 E4.61556
G1 X50.789 Y69.520 F6000.000
G1 X54.159 Y72.348 E4.80970 F600.000
G1 X51.354 Y72.348 E4.93347
G1 X50.798 Y69.564 E5.05875
G1 F2400.000 E2.35875
G92 E0
G1 X58.065 Y68.485 F6000.000
G1 E2.70000 F2400.000
G1 X49.018 Y60.893 E3.22122 F600.000
G1 X49.018 Y58.206 E3.33983
G1 X58.525 Y66.184 E3.88756
G1 X58.074 Y68.441 E3.98915
G1 X58.499 Y69.721 F6000.000
G1 X48.350 Y61.205 E4.57383 F600.000
G1 X48.350 Y56.774 E4.76939
G1 X59.258 Y65.926 E5.39779
G1 X58.508 Y69.677 E5.56657
G1 X49.652 Y59.566 F6000.000
G1 X57.830 Y66.428 E6.03767 F600.000
G1 X57.653 Y67.311 E6.07742
G1 X49.652 Y60.597 E6.53834
G1 X49.652 Y59.611 E6.58187
G1 F2400.000 E3.88187
G92 E0
G1 X67.018 Y55.902 F6000.000
G1 E2.70000 F2400.000
G1 X67.018 Y50.834 E2.92364 F600.000
G1 X71.567 Y49.925 E3.12838
G1 X71.760 Y50.250 E3.14509
G1 X67.047 Y55.867 E3.46870
G1 X66.350 Y57.737 F6000.000
G1 X66.350 Y50.287 E3.79747 F600.000
G1 X73.301 Y48.897 E4.11032
G1 X73.494 Y49.222 E4.12703
G1 X66.379 Y57.702 E4.61556
G1 X67.652 Y51.354 F6000.000
G1 X70.480 Y50.789 E4.74282 F600.000
G1 X67.652 Y54.159 E4.93697
G1 X67.652 Y51.399 E5.05874
G1 F2400.000 E2.35874
G92 E0
G1 X71.515 Y58.065 F6000.000
G1 E2.70000 F2400.000
G1 X79.107 Y49.018 E3.22122 F600.000
G1 X81.794 Y49.018 E3.33983
G1 X73.816 Y58.525 E3.88756
G1 X71.559 Y58.074 E3.98915
G1 X70.279 Y58.499 F6000.000
G1 X78.795 Y48.350 E4.57383 F600.000
G1 X83.226 Y48.350 E4.76939
G1 X74.074 Y59.258 E5.39779
G1 X70.323 Y58.508 E5.56657
G1 X72.689 Y57.653 F6000.000
G1 X79.403 Y49.652 E6.02750 F600.000
G1 X80.434 Y49.652 E6.07301
G1 X73.572 Y57.830 E6.54411
G1 X72.733 Y57.662 E6.58187
G1 F2400.000 E3.88187
G92 E0
G1 X81.935 Y71.515 F6000.000
G1 E2.70000 F2400.000
G1 X90.982 Y79.107 E3.22122 F600.000
G1 X90.982 Y81.794 E3.33983
G1 X81.475 Y73.816 E3.88756
G1 X81.926 Y71.559 E3.98915
G1 X81.501 Y70.279 F6000.000
G1 X91.650 Y78.795 E4.57383 F600.000
G1 X91.650 Y83.226 E4.76939
G1 X80.742 Y74.074 E5.39779
G1 X81.492 Y70.323 E5.56657
G1 X82.347 Y72.689 F6000.000
G1 X90.348 Y79.403 E6.02750 F600.000
G1 X90.348 Y80.434 E6.07301
G1 X82.170 Y73.572 E6.54411
G1 X82.338 Y72.733 E6.58187
G1 F2400.000 E3.88187
G92 E0
G1 X82.263 Y66.350 F6000.000
G1 E2.70000 F2400.000
G1 X89.713 Y66.350 E3.02877 F600.000
G1 X91.103 Y73.301 E3.34162
G1 X90.778 Y73.494 E3.35833
G1 X82.298 Y66.379 E3.84686
G1 X84.006 Y66.984 F6000.000
G1 X89.193 Y66.984 E4.07576 F600.000
G1 X90.239 Y72.214 E4.31113
G1 X84.041 Y67.013 E4.66821
G1 X85.882 Y67.667 F6000.000
G1 X88.633 Y67.667 E4.78962 F600.000
G1 X89.048 Y69.741 E4.88294
G1 X88.641 Y69.982 E4.90382
G1 X85.917 Y67.696 E5.06076
G1 F2400.000 E2.36076
G92 E0
G1 X88.746 Y58.982 F6000.000
G1 E2.70000 F2400.000
G1 X90.000 Y57.487 E2.78613 F600.000
G1 X91.254 Y58.982 E2.87225
G1 X88.791 Y58.982 E2.98099
G1 X87.313 Y59.650 F6000.000
G1 X90.000 Y56.448 E3.16544 F600.000
G1 X92.687 Y59.650 E3.34989
G1 X87.358 Y59.650 E3.58503
G1 F2400.000 E0.88503
G92 E0
G1 X90.000 Y49.964 F6000.000
G1 E2.70000 F2400.000
G1 X82.433 Y58.982 E3.21952 F600.000
G1 X79.746 Y58.982 E3.33813
G1 X88.107 Y49.018 E3.91219
G1 X91.893 Y49.018 E4.07930
G1 X100.254 Y58.982 E4.65335
G1 X97.567 Y58.982 E4.77196
G1 X90.029 Y49.999 E5.28950
G1 X90.000 Y51.003 F6000.000
G1 X82.745 Y59.650 E5.78764 F600.000
G1 X78.313 Y59.650 E5.98319
G1 X87.795 Y48.350 E6.63419
G1 X92.205 Y48.350 E6.82879
G1 X101.687 Y59.650 E7.47979
G1 X97.255 Y59.650 E7.67535
G1 X90.029 Y51.038 E8.17150
G1 X81.106 Y58.348 F6000.000
G1 X88.403 Y49.652 E8.67246 F600.000
G1 X89.434 Y49.652 E8.71797
G1 X82.137 Y58.348 E9.21893
G1 X81.151 Y58.348 E9.26246
G1 X90.566 Y49.652 F6000.000
G1 X91.597 Y49.652 E9.30797 F600.000
G1 X98.894 Y58.348 E9.80892
G1 X97.863 Y58.348 E9.85444
G1 X90.595 Y49.687 E10.35341
G1 F2400.000 E7.65341
G92 E0
G1 X104.098 Y67.018 F6000.000
G1 E2.70000 F2400.000
G1 X109.166 Y67.018 E2.92364 F600.000
G1 X110.075 Y71.567 E3.12838
G1 X109.750 Y71.760 E3.14509
G1 X104.133 Y67.047 E3.46870
G1 X102.263 Y66.350 F6000.000
G1 X109.713 Y66.350 E3.79747 F600.000
G1 X111.103 Y73.301 E4.11032
G1 X110.778 Y73.494 E4.12703
G1 X102.298 Y66.379 E4.61556
G1 X105.841 Y67.652 F6000.000
G1 X108.646 Y67.652 E4.73932 F600.000
G1 X109.211 Y70.480 E4.86659
G1 X105.876 Y67.681 E5.05875
G1 F2400.000 E2.35875
G92 E0
G1 X101.935 Y71.515 F6000.000
G1 E2.70000 F2400.000
G1 X110.982 Y79.107 E3.22122 F600.000
G1 X110.982 Y81.794 E3.33983
G1 X101.475 Y73.816 E3.88756
G1 X101.926 Y71.559 E3.98915
G1 X101.501 Y70.279 F6000.000
G1 X111.650 Y78.795 E4.57383 F600.000
G1 X111.650 Y83.226 E4.76939
G1 X100.742 Y74.074 E5.39779
G1 X101.492 Y70.323 E5.56657
G1 X102.347 Y72.689 F6000.000
G1 X110.348 Y79.403 E6.02750 F600.000
G1 X110.348 Y80.434 E6.07301
G1 X102.170 Y73.572 E6.54411
G1 X102.338 Y72.733 E6.58187
G1 F2400.000 E3.88187
G92 E0
G1 X106.184 Y58.525 F6000.000
G1 E2.70000 F2400.000
G1 X98.206 Y49.018 E3.24773 F600.000
G1 X100.893 Y49.018 E3.36634
G1 X108.485 Y58.065 E3.88756
G1 X106.228 Y58.517 E3.98915
G1 X105.926 Y59.258 F6000.000
G1 X96.774 Y48.350 E4.61755 F600.000
G1 X101.205 Y48.350 E4.81311
G1 X109.721 Y58.499 E5.39779
G1 X105.970 Y59.249 E5.56657
G1 X99.566 Y49.652 F6000.000
G1 X100.597 Y49.652 E5.61209 F600.000
G1 X107.311 Y57.653 E6.07301
G1 X106.428 Y57.830 E6.11275
G1 X99.595 Y49.687 E6.58187
G1 F2400.000 E3.88187
G92 E0
G1 X90.000 Y29.964 F6000.000
G1 E2.70000 F2400.000
G1 X82.433 Y38.982 E3.21952 F600.000
G1 X79.746 Y38.982 E3.33813
G1 X88.107 Y29.018 E3.91219
G1 X91.893 Y29.018 E4.07930
G1 X100.254 Y38.982 E4.65335
G1 X97.567 Y38.982 E4.77196
G1 X90.029 Y29.999 E5.28950
G1 X90.000 Y31.003 F6000.000
G1 X82.745 Y39.650 E5.78764 F600.000
G1 X78.313 Y39.650 E5.98319
G1 X87.795 Y28.350 E6.63419
G1 X92.205 Y28.350 E6.82879
G1 X101.687 Y39.650 E7.47979
G1 X97.255 Y39.650 E7.67535
G1 X90.029 Y31.038 E8.17150
G1 X81.106 Y38.348 F6000.000
G1 X88.403 Y29.652 E8.67246 F600.000
G1 X89.434 Y29.652 E8.71797
G1 X82.137 Y38.348 E9.21893
G1 X81.151 Y38.348 E9.26246
G1 X90.566 Y29.652 F6000.000
G1 X91.597 Y29.652 E9.30797 F600.000
G1 X98.894 Y38.348 E9.80892
G1 X97.863 Y38.348 E9.85444
G1 X90.595 Y29.687 E10.35341
G1 F2400.000 E7.65341
G92 E0
G1 X90.000 Y37.487 F6000.000
G1 E2.70000 F2400.000
G1 X91.254 Y38.982 E2.78613 F600.000
G1 X88.746 Y38.982 E2.89685
G1 X89.971 Y37.522 E2.98099
G1 X90.000 Y36.448 F6000.000
G1 X92.687 Y39.650 E3.16544 F600.000
G1 X87.313 Y39.650 E3.40256
G1 X89.971 Y36.483 E3.58503
G1 F2400.000 E0.88503
G92 E0
G1 X98.206 Y29.018 F6000.000
G1 E2.70000 F2400.000
G1 X100.893 Y29.018 E2.81861 F600.000
G1 X108.485 Y38.065 E3.33982
G1 X106.184 Y38.525 E3.44340
G1 X98.235 Y29.052 E3.98915
G1 X96.774 Y28.350 F6000.000
G1 X101.205 Y28.350 E4.18470 F600.000
G1 X109.721 Y38.499 E4.76939
G1 X105.926 Y39.258 E4.94015
G1 X96.803 Y28.384 E5.56657
G1 X99.566 Y29.652 F6000.000
G1 X100.597 Y29.652 E5.61208 F600.000
G1 X107.311 Y37.653 E6.07301
G1 X106.428 Y37.830 E6.11275
G1 X99.595 Y29.687 E6.58186
G1 F2400.000 E3.88186
