; generated by Slic3r 1.2.0 on 2014-12-02 at 12:24:16

; external perimeters extrusion width = 0.30mm
; perimeters extrusion width = 0.90mm
; infill extrusion width = 0.50mm
; solid infill extrusion width = 0.50mm
; top infill extrusion width = 0.60mm

G21 ; set units to millimeters
M107
M104 S210 ; set temperature
G21           ;metric is good!
G90           ;absolute positioning
G28           ;go home
G92 E0        ;reset extruder
M109 S210 ; wait for temperature to be reached
G90 ; use absolute coordinates
G92 E0
M82 ; use absolute distances for extrusion
G1 F2400.000 E-2.70000
G92 E0
G1 Z0.150 F6000.000
G1 X9.421 Y14.790 F6000.000
G1 E2.70000 F2400.000
G1 X21.277 Y7.238 E3.32035 F600.000
G1 X22.415 Y6.781 E3.37448
G1 X30.280 Y5.208 E3.72846
G1 X30.923 Y5.093 E3.75729
G1 X34.587 Y4.716 E3.91985
G1 X86.356 Y4.026 E6.20472
G1 X111.585 Y4.045 E7.31812
G1 X115.239 Y4.450 E7.48037 F600.000
G1 X123.447 Y6.091 E7.84980
G1 X124.912 Y6.786 E7.92135
G1 X125.755 Y7.828 E7.98049
G1 X131.962 Y19.811 E8.57606
G1 X132.271 Y20.691 E8.61722
G1 X134.083 Y29.903 E9.03159
G1 X134.335 Y33.934 E9.20980
G1 X135.025 Y87.080 E11.55548
G1 X135.019 Y110.028 E12.56822
G1 X134.715 Y114.332 E12.75862
G1 X132.960 Y123.102 E13.15336
G1 X132.266 Y124.567 E13.22491
G1 X131.545 Y125.221 E13.26785
G1 X119.820 Y133.065 E13.89040
G1 X118.620 Y133.564 E13.94779
G1 X109.407 Y135.376 E14.36216
G1 X105.355 Y135.629 E14.54131
G1 X52.920 Y135.974 E16.85547
G1 X29.972 Y135.967 E17.86820
G1 X25.668 Y135.663 E18.05861
G1 X16.898 Y133.909 E18.45334
G1 X15.433 Y133.214 E18.52489
G1 X14.720 Y132.400 E18.57265
G1 X7.478 Y120.762 E19.17756
G1 X7.040 Y119.654 E19.23016
G1 X5.352 Y111.146 E19.61296
G1 X4.975 Y107.437 E19.77748
G1 X4.975 Y82.552 E20.87572
G1 X5.166 Y29.278 E23.22686
G1 X5.570 Y25.623 E23.38911
G1 X7.212 Y17.415 E23.75854
G1 X7.907 Y15.950 E23.83009
G1 X8.691 Y15.256 E23.87631
G1 X9.383 Y14.814 E23.91255
G1 X9.742 Y15.378 F6000.000
G1 X21.636 Y7.802 E24.53489 F600.000
G1 X22.546 Y7.436 E24.57818
G1 X30.994 Y5.757 E24.95830
G1 X34.596 Y5.384 E25.11813
G1 X86.356 Y4.694 E27.40261
G1 X111.514 Y4.709 E28.51287
G1 X115.108 Y5.104 E28.67245 F600.000
G1 X123.316 Y6.746 E29.04188
G1 X124.605 Y7.404 E29.10574
G1 X125.162 Y8.135 E29.14629
G1 X131.369 Y20.118 E29.74185
G1 X131.616 Y20.822 E29.77478
G1 X133.417 Y29.946 E30.18522
G1 X133.668 Y33.942 E30.36193
G1 X134.357 Y87.080 E32.70723
G1 X134.352 Y109.986 E33.71810
G1 X134.060 Y114.201 E33.90457
G1 X132.306 Y122.971 E34.29930
G1 X131.173 Y124.666 E34.38923
G1 X119.449 Y132.510 E35.01179
G1 X118.489 Y132.909 E35.05768
G1 X109.364 Y134.710 E35.46812
G1 X105.351 Y134.961 E35.64559
G1 X52.920 Y135.306 E37.95955
G1 X30.014 Y135.300 E38.97042
G1 X25.799 Y135.008 E39.15689
G1 X17.029 Y133.254 E39.55162
G1 X15.287 Y132.047 E39.64514
G1 X8.045 Y120.409 E40.25006
G1 X7.694 Y119.523 E40.29212
G1 X6.016 Y111.075 E40.67225
G1 X5.643 Y107.437 E40.83364
G1 X5.643 Y82.554 E41.93178
G1 X5.830 Y29.348 E44.27988
G1 X6.225 Y25.754 E44.43946
G1 X7.867 Y17.546 E44.80889
G1 X9.049 Y15.819 E44.90126
G1 X9.704 Y15.402 E44.93552
G1 F2400.000 E42.23552
G92 E0
G1 X25.368 Y122.113 F6000.000
G1 E2.70000 F2400.000
G1 X33.346 Y131.620 E3.24773 F600.000
G1 X30.658 Y131.620 E3.36634
G1 X23.067 Y122.573 E3.88756
G1 X25.324 Y122.121 E3.98915
G1 X25.625 Y121.380 F6000.000
G1 X34.778 Y132.288 E4.61755 F600.000
G1 X30.347 Y132.288 E4.81311
G1 X21.831 Y122.139 E5.39779
G1 X25.581 Y121.389 E5.56657
G1 X24.241 Y122.985 F6000.000
G1 X25.124 Y122.808 E5.60632 F600.000
G1 X31.985 Y130.986 E6.07742
G1 X30.954 Y130.986 E6.12293
G1 X24.270 Y123.019 E6.58187
G1 F2400.000 E3.88187
G92 E0
G1 X17.902 Y122.901 F6000.000
G1 E2.70000 F2400.000
G1 X25.046 Y131.416 E3.19051 F600.000
G1 X24.853 Y131.741 E3.20722
G1 X17.902 Y130.351 E3.52007
G1 X17.902 Y122.946 E3.84686
G1 X18.536 Y124.644 F6000.000
G1 X23.766 Y130.877 E4.20593 F600.000
G1 X18.536 Y129.831 E4.44130
G1 X18.536 Y124.689 E4.66821
G1 X19.237 Y126.571 F6000.000
G1 X21.486 Y129.250 E4.82258 F600.000
G1 X21.244 Y129.657 E4.84347
G1 X19.237 Y129.256 E4.93380
G1 X19.237 Y126.616 E5.05033
G1 F2400.000 E2.35033
G92 E0
G1 X41.552 Y130.674 F6000.000
G1 E2.70000 F2400.000
G1 X49.119 Y121.656 E3.21952 F600.000
G1 X51.806 Y121.656 E3.33813
G1 X43.445 Y131.620 E3.91219
G1 X39.658 Y131.620 E4.07930
G1 X31.297 Y121.656 E4.65335
G1 X33.985 Y121.656 E4.77196
G1 X41.523 Y130.639 E5.28950
G1 X41.552 Y129.635 F6000.000
G1 X48.807 Y120.988 E5.78764 F600.000
G1 X53.238 Y120.988 E5.98319
G1 X43.756 Y132.288 E6.63419
G1 X39.347 Y132.288 E6.82879
G1 X29.865 Y120.988 E7.47979
G1 X34.296 Y120.988 E7.67535
G1 X41.523 Y129.600 E8.17150
G1 X42.118 Y130.986 F6000.000
G1 X49.414 Y122.290 E8.67246 F600.000
G1 X50.446 Y122.290 E8.71797
G1 X43.149 Y130.986 E9.21893
G1 X42.163 Y130.986 E9.26246
G1 X32.658 Y122.290 F6000.000
G1 X33.689 Y122.290 E9.30797 F600.000
G1 X40.985 Y130.986 E9.80892
G1 X39.954 Y130.986 E9.85444
G1 X32.687 Y122.325 E10.35341
G1 F2400.000 E7.65341
G92 E0
G1 X40.297 Y121.656 F6000.000
G1 E2.70000 F2400.000
G1 X42.806 Y121.656 E2.81072 F600.000
G1 X41.552 Y123.151 E2.89685
G1 X40.326 Y121.690 E2.98099
G1 X38.865 Y120.988 F6000.000
G1 X44.238 Y120.988 E3.21811 F600.000
G1 X41.552 Y124.190 E3.40257
G1 X38.894 Y121.022 E3.58503
G1 F2400.000 E0.88503
G92 E0
G1 X49.757 Y131.620 F6000.000
G1 E2.70000 F2400.000
G1 X57.735 Y122.113 E3.24773 F600.000
G1 X60.037 Y122.573 E3.35131
G1 X52.445 Y131.620 E3.87253
G1 X49.802 Y131.620 E3.98915
G1 X48.325 Y132.288 F6000.000
G1 X57.478 Y121.380 E4.61755 F600.000
G1 X61.272 Y122.139 E4.78832
G1 X52.756 Y132.288 E5.37301
G1 X48.370 Y132.288 E5.56657
G1 X51.118 Y130.986 F6000.000
G1 X57.980 Y122.808 E6.03767 F600.000
G1 X58.863 Y122.985 E6.07742
G1 X52.149 Y130.986 E6.53834
G1 X51.163 Y130.986 E6.58187
G1 F2400.000 E3.88187
G92 E0
G1 X59.792 Y130.388 F6000.000
G1 E2.70000 F2400.000
G1 X64.534 Y124.736 E3.02559 F600.000
G1 X64.534 Y129.804 E3.24923
G1 X59.985 Y130.713 E3.45397
G1 X59.815 Y130.426 E3.46870
G1 X58.057 Y131.416 F6000.000
G1 X65.202 Y122.901 E3.95921 F600.000
G1 X65.202 Y130.351 E4.28798
G1 X58.250 Y131.741 E4.60083
G1 X58.080 Y131.454 E4.61556
G1 X61.072 Y129.849 F6000.000
G1 X63.900 Y126.479 E4.80970 F600.000
G1 X63.900 Y129.283 E4.93347
G1 X61.116 Y129.840 E5.05874
G1 F2400.000 E2.35874
G92 E0
G1 X75.481 Y122.228 F6000.000
G1 E2.70000 F2400.000
G1 X77.782 Y121.768 E2.80357 F600.000
G1 X85.760 Y131.275 E3.35131
G1 X83.072 Y131.275 E3.46992
G1 X75.510 Y122.263 E3.98915
G1 X74.245 Y121.794 F6000.000
G1 X78.039 Y121.035 E4.15992 F600.000
G1 X87.192 Y131.943 E4.78832
G1 X82.761 Y131.943 E4.98387
G1 X74.274 Y121.829 E5.56657
G1 X76.655 Y122.640 F6000.000
G1 X77.538 Y122.464 E5.60632 F600.000
G1 X84.399 Y130.641 E6.07742
G1 X83.368 Y130.641 E6.12293
G1 X76.684 Y122.675 E6.58187
G1 F2400.000 E3.88187
G92 E0
G1 X70.316 Y122.556 F6000.000
G1 E2.70000 F2400.000
G1 X77.460 Y131.071 E3.19051 F600.000
G1 X77.267 Y131.396 E3.20722
G1 X70.316 Y130.006 E3.52007
G1 X70.316 Y122.601 E3.84686
G1 X70.950 Y124.299 F6000.000
G1 X76.180 Y130.532 E4.20593 F600.000
G1 X70.950 Y129.486 E4.44130
G1 X70.950 Y124.344 E4.66821
G1 X71.651 Y126.226 F6000.000
G1 X73.900 Y128.905 E4.82258 F600.000
G1 X73.658 Y129.313 E4.84347
G1 X71.651 Y128.911 E4.93380
G1 X71.651 Y126.271 E5.05033
G1 F2400.000 E2.35033
G92 E0
G1 X93.966 Y130.329 F6000.000
G1 E2.70000 F2400.000
G1 X101.532 Y121.311 E3.21952 F600.000
G1 X104.220 Y121.311 E3.33813
G1 X95.859 Y131.275 E3.91219
G1 X92.072 Y131.275 E4.07930
G1 X83.711 Y121.311 E4.65335
G1 X86.399 Y121.311 E4.77196
G1 X93.937 Y130.294 E5.28950
G1 X93.966 Y129.290 F6000.000
G1 X101.221 Y120.643 E5.78764 F600.000
G1 X105.652 Y120.643 E5.98319
G1 X96.170 Y131.943 E6.63419
G1 X91.761 Y131.943 E6.82879
G1 X82.279 Y120.643 E7.47979
G1 X86.710 Y120.643 E7.67535
G1 X93.937 Y129.255 E8.17150
G1 X94.532 Y130.641 F6000.000
G1 X101.828 Y121.945 E8.67246 F600.000
G1 X102.859 Y121.945 E8.71797
G1 X95.563 Y130.641 E9.21893
G1 X94.577 Y130.641 E9.26246
G1 X85.072 Y121.945 F6000.000
G1 X86.103 Y121.945 E9.30797 F600.000
G1 X93.399 Y130.641 E9.80892
G1 X92.368 Y130.641 E9.85444
G1 X85.100 Y121.980 E10.35341
G1 F2400.000 E7.65341
G92 E0
G1 X92.711 Y121.311 F6000.000
G1 E2.70000 F2400.000
G1 X95.220 Y121.311 E2.81072 F600.000
G1 X93.966 Y122.806 E2.89685
G1 X92.740 Y121.345 E2.98099
G1 X91.279 Y120.643 F6000.000
G1 X96.652 Y120.643 E3.21811 F600.000
G1 X93.966 Y123.845 E3.40257
G1 X91.308 Y120.678 E3.58503
G1 F2400.000 E0.88503
G92 E0
G1 X102.171 Y131.275 F6000.000
G1 E2.70000 F2400.000
G1 X110.149 Y121.768 E3.24773 F600.000
G1 X112.450 Y122.228 E3.35131
G1 X104.859 Y131.275 E3.87253
G1 X102.216 Y131.275 E3.98915
G1 X100.739 Y131.943 F6000.000
G1 X109.892 Y121.035 E4.61755 F600.000
G1 X113.686 Y121.794 E4.78832
G1 X105.170 Y131.943 E5.37301
G1 X100.784 Y131.943 E5.56657
G1 X103.532 Y130.641 F6000.000
G1 X110.393 Y122.464 E6.03767 F600.000
G1 X111.276 Y122.640 E6.07742
G1 X104.563 Y130.641 E6.53834
G1 X103.577 Y130.641 E6.58187
G1 F2400.000 E3.88187
G92 E0
G1 X112.205 Y130.043 F6000.000
G1 E2.70000 F2400.000
G1 X116.948 Y124.391 E3.02559 F600.000
G1 X116.948 Y129.459 E3.24923
G1 X112.399 Y130.369 E3.45397
G1 X112.228 Y130.082 E3.46870
G1 X110.471 Y131.071 F6000.000
G1 X117.616 Y122.556 E3.95921 F600.000
G1 X117.616 Y130.006 E4.28798
G1 X110.664 Y131.396 E4.60083
G1 X110.494 Y131.109 E4.61556
G1 X113.486 Y129.504 F6000.000
G1 X116.313 Y126.134 E4.80970 F600.000
G1 X116.313 Y128.939 E4.93347
G1 X113.530 Y129.495 E5.05874
G1 F2400.000 E2.35874
G92 E0
G1 X90.587 Y18.344 F6000.000
G1 E2.70000 F2400.000
G1 X87.900 Y18.344 E2.81861 F600.000
G1 X80.308 Y9.297 E3.33983
G1 X82.610 Y8.837 E3.44340
G1 X90.558 Y18.310 E3.98915
G1 X92.019 Y19.012 F6000.000
G1 X87.588 Y19.012 E4.18470 F600.000
G1 X79.072 Y8.863 E4.76939
G1 X82.867 Y8.104 E4.94015
G1 X91.991 Y18.978 E5.56657
G1 X81.482 Y9.709 F6000.000
G1 X82.365 Y9.533 E5.60632 F600.000
G1 X89.227 Y17.710 E6.07742
G1 X88.196 Y17.710 E6.12293
G1 X81.511 Y9.744 E6.58187
G1 F2400.000 E3.88187
G92 E0
G1 X75.143 Y9.625 F6000.000
G1 E2.70000 F2400.000
G1 X82.287 Y18.140 E3.19051 F600.000
G1 X82.094 Y18.465 E3.20722
G1 X75.143 Y17.075 E3.52007
G1 X75.143 Y9.670 E3.84686
G1 X75.778 Y11.368 F6000.000
G1 X81.007 Y17.601 E4.20593 F600.000
G1 X75.778 Y16.555 E4.44130
G1 X75.778 Y11.413 E4.66821
G1 X76.479 Y13.295 F6000.000
G1 X78.727 Y15.974 E4.82258 F600.000
G1 X78.486 Y16.382 E4.84347
G1 X76.479 Y15.980 E4.93380
G1 X76.479 Y13.340 E5.05033
G1 F2400.000 E2.35033
G92 E0
G1 X98.793 Y17.398 F6000.000
G1 E2.70000 F2400.000
G1 X106.360 Y8.380 E3.21952 F600.000
G1 X109.048 Y8.380 E3.33813
G1 X100.686 Y18.344 E3.91219
G1 X96.900 Y18.344 E4.07930
G1 X88.539 Y8.380 E4.65335
G1 X91.226 Y8.380 E4.77196
G1 X98.764 Y17.363 E5.28950
G1 X98.793 Y16.359 F6000.000
G1 X106.049 Y7.712 E5.78764 F600.000
G1 X110.480 Y7.712 E5.98319
G1 X100.998 Y19.012 E6.63419
G1 X96.588 Y19.012 E6.82879
G1 X87.107 Y7.712 E7.47979
G1 X91.538 Y7.712 E7.67535
G1 X98.764 Y16.324 E8.17150
G1 X99.359 Y17.710 F6000.000
G1 X106.656 Y9.014 E8.67246 F600.000
G1 X107.687 Y9.014 E8.71797
G1 X100.391 Y17.710 E9.21893
G1 X99.404 Y17.710 E9.26246
G1 X89.899 Y9.014 F6000.000
G1 X90.930 Y9.014 E9.30797 F600.000
G1 X98.227 Y17.710 E9.80892
G1 X97.196 Y17.710 E9.85444
G1 X89.928 Y9.049 E10.35341
G1 F2400.000 E7.65341
G92 E0
G1 X97.539 Y8.380 F6000.000
G1 E2.70000 F2400.000
G1 X100.048 Y8.380 E2.81072 F600.000
G1 X98.793 Y9.875 E2.89685
G1 X97.568 Y8.414 E2.98099
G1 X96.107 Y7.712 F6000.000
G1 X101.480 Y7.712 E3.21811 F600.000
G1 X98.793 Y10.914 E3.40257
G1 X96.135 Y7.747 E3.58503
G1 F2400.000 E0.88503
G92 E0
G1 X106.999 Y18.344 F6000.000
G1 E2.70000 F2400.000
G1 X114.977 Y8.837 E3.24773 F600.000
G1 X117.278 Y9.297 E3.35131
G1 X109.686 Y18.344 E3.87253
G1 X107.044 Y18.344 E3.98915
G1 X105.567 Y19.012 F6000.000
G1 X114.719 Y8.104 E4.61755 F600.000
G1 X118.514 Y8.863 E4.78832
G1 X109.998 Y19.012 E5.37301
G1 X105.612 Y19.012 E5.56657
G1 X108.359 Y17.710 F6000.000
G1 X115.221 Y9.533 E6.03767 F600.000
G1 X116.104 Y9.709 E6.07742
G1 X109.391 Y17.710 E6.53834
G1 X108.404 Y17.710 E6.58187
G1 F2400.000 E3.88187
G92 E0
G1 X117.033 Y17.112 F6000.000
G1 E2.70000 F2400.000
G1 X121.775 Y11.460 E3.02559 F600.000
G1 X121.775 Y16.528 E3.24923
G1 X117.226 Y17.437 E3.45397
G1 X117.056 Y17.150 E3.46870
G1 X115.299 Y18.140 F6000.000
G1 X122.443 Y9.625 E3.95921 F600.000
G1 X122.443 Y17.075 E4.28798
G1 X115.492 Y18.465 E4.60083
G1 X115.322 Y18.178 E4.61556
G1 X118.313 Y16.573 F6000.000
G1 X121.141 Y13.203 E4.80970 F600.000
G1 X121.141 Y16.008 E4.93347
G1 X118.357 Y16.564 E5.05874
G1 F2400.000 E2.35874
G92 E0
G1 X38.863 Y19.034 F6000.000
G1 E2.70000 F2400.000
G1 X36.176 Y19.034 E2.81861 F600.000
G1 X28.584 Y9.987 E3.33983
G1 X30.885 Y9.526 E3.44340
G1 X38.834 Y18.999 E3.98915
G1 X40.295 Y19.702 F6000.000
G1 X35.864 Y19.702 E4.18470 F600.000
G1 X27.348 Y9.553 E4.76939
G1 X31.143 Y8.794 E4.94015
G1 X40.266 Y19.667 E5.56657
G1 X29.758 Y10.399 F6000.000
G1 X30.641 Y10.222 E5.60632 F600.000
G1 X37.503 Y18.400 E6.07742
G1 X36.471 Y18.400 E6.12293
G1 X29.787 Y10.433 E6.58187
G1 F2400.000 E3.88187
G92 E0
G1 X23.419 Y10.315 F6000.000
G1 E2.70000 F2400.000
G1 X30.563 Y18.829 E3.19051 F600.000
G1 X30.370 Y19.155 E3.20722
G1 X23.419 Y17.765 E3.52007
G1 X23.419 Y10.360 E3.84686
G1 X24.053 Y12.058 F6000.000
G1 X29.283 Y18.291 E4.20593 F600.000
G1 X24.053 Y17.245 E4.44130
G1 X24.053 Y12.103 E4.66821
G1 X24.755 Y13.985 F6000.000
G1 X27.003 Y16.664 E4.82258 F600.000
G1 X26.762 Y17.071 E4.84347
G1 X24.755 Y16.670 E4.93380
G1 X24.755 Y14.030 E5.05033
G1 F2400.000 E2.35033
G92 E0
G1 X47.069 Y18.087 F6000.000
G1 E2.70000 F2400.000
G1 X54.636 Y9.070 E3.21952 F600.000
G1 X57.323 Y9.070 E3.33813
G1 X48.962 Y19.034 E3.91219
G1 X45.176 Y19.034 E4.07930
G1 X36.815 Y9.070 E4.65335
G1 X39.502 Y9.070 E4.77196
G1 X47.040 Y18.053 E5.28950
G1 X47.069 Y17.048 F6000.000
G1 X54.324 Y8.402 E5.78764 F600.000
G1 X58.756 Y8.402 E5.98319
G1 X49.274 Y19.702 E6.63419
G1 X44.864 Y19.702 E6.82879
G1 X35.382 Y8.402 E7.47979
G1 X39.813 Y8.402 E7.67535
G1 X47.040 Y17.014 E8.17150
G1 X47.635 Y18.400 F6000.000
G1 X54.932 Y9.704 E8.67246 F600.000
G1 X55.963 Y9.704 E8.71797
G1 X48.666 Y18.400 E9.21893
G1 X47.680 Y18.400 E9.26246
G1 X38.175 Y9.704 F6000.000
G1 X39.206 Y9.704 E9.30797 F600.000
G1 X46.503 Y18.400 E9.80892
G1 X45.471 Y18.400 E9.85444
G1 X38.204 Y9.738 E10.35341
G1 F2400.000 E7.65341
G92 E0
G1 X45.815 Y9.070 F6000.000
G1 E2.70000 F2400.000
G1 X48.323 Y9.070 E2.81072 F600.000
G1 X47.069 Y10.564 E2.89685
G1 X45.843 Y9.104 E2.98099
G1 X44.382 Y8.402 F6000.000
G1 X49.756 Y8.402 E3.21811 F600.000
G1 X47.069 Y11.603 E3.40257
G1 X44.411 Y8.436 E3.58503
G1 F2400.000 E0.88503
G92 E0
G1 X55.275 Y19.034 F6000.000
G1 E2.70000 F2400.000
G1 X63.252 Y9.526 E3.24773 F600.000
G1 X65.554 Y9.987 E3.35131
G1 X57.962 Y19.034 E3.87253
G1 X55.320 Y19.034 E3.98915
G1 X53.843 Y19.702 F6000.000
G1 X62.995 Y8.794 E4.61755 F600.000
G1 X66.790 Y9.553 E4.78832
G1 X58.274 Y19.702 E5.37301
G1 X53.888 Y19.702 E5.56657
G1 X56.635 Y18.400 F6000.000
G1 X63.497 Y10.222 E6.03767 F600.000
G1 X64.380 Y10.399 E6.07742
G1 X57.666 Y18.400 E6.53834
G1 X56.680 Y18.400 E6.58187
G1 F2400.000 E3.88187
G92 E0
G1 X65.309 Y17.801 F6000.000
G1 E2.70000 F2400.000
G1 X70.051 Y12.150 E3.02559 F600.000
G1 X70.051 Y17.217 E3.24923
G1 X65.502 Y18.127 E3.45397
G1 X65.332 Y17.840 E3.46870
G1 X63.575 Y18.829 F6000.000
G1 X70.719 Y10.315 E3.95921 F600.000
G1 X70.719 Y17.765 E4.28798
G1 X63.768 Y19.155 E4.60083
G1 X63.598 Y18.868 E4.61556
G1 X66.589 Y17.263 F6000.000
G1 X69.417 Y13.893 E4.80970 F600.000
G1 X69.417 Y16.697 E4.93347
G1 X66.633 Y17.254 E5.05874
G1 F2400.000 E2.35874
G92 E0
G1 X18.060 Y113.240 F6000.000
G1 E2.70000 F2400.000
G1 X18.386 Y113.433 E2.71671 F600.000
G1 X17.476 Y117.982 E2.92145
G1 X12.408 Y117.982 E3.14509
G1 X18.026 Y113.269 E3.46870
G1 X19.088 Y111.506 F6000.000
G1 X19.414 Y111.699 E3.48541 F600.000
G1 X18.023 Y118.650 E3.79826
G1 X10.574 Y118.650 E4.12703
G1 X19.053 Y111.535 E4.61556
G1 X17.521 Y114.520 F6000.000
G1 X16.956 Y117.348 E4.74282 F600.000
G1 X14.151 Y117.348 E4.86659
