; generated by Slic3r 1.2.0 on 2014-12-03 at 14:03:53

; external perimeters extrusion width = 0.30mm
; perimeters extrusion width = 0.90mm
; infill extrusion width = 0.50mm
; solid infill extrusion width = 0.50mm
; top infill extrusion width = 0.60mm

G21 ; set units to millimeters
M107
M104 S210 ; set temperature
G21           ;metric is good!
G90           ;absolute positioning
G28           ;go home
G92 E0        ;reset extruder
M109 S210 ; wait for temperature to be reached
G90 ; use absolute coordinates
G92 E0
M82 ; use absolute distances for extrusion
G1 F2400.000 E-2.70000
G92 E0
G1 Z0.150 F6000.000
G1 X56.294 Y56.461 F6000.000
G1 E2.70000 F2400.000
G1 X57.273 Y55.528 E2.75967 F600.000
G1 X58.313 Y54.665 E2.81933
G1 X59.412 Y53.877 E2.87900
G1 X60.563 Y53.168 E2.93866
G1 X61.541 Y52.648 E2.98754
G1 X62.999 Y51.998 E3.05799
G1 X64.272 Y51.543 E3.11766
G1 X65.574 Y51.178 E3.17732
G1 X66.898 Y50.905 E3.23699
G1 X68.238 Y50.725 E3.29666
G1 X69.343 Y50.647 E3.34554
G1 X70.939 Y50.647 E3.41598
G1 X72.287 Y50.749 E3.47565 F600.000
G1 X73.625 Y50.945 E3.53532
G1 X74.945 Y51.234 E3.59498
G1 X76.243 Y51.615 E3.65465
G1 X77.510 Y52.085 E3.71431
G1 X78.742 Y52.642 E3.77398
G1 X79.932 Y53.284 E3.83365
G1 X80.871 Y53.871 E3.88253
G1 X82.163 Y54.808 E3.95297
G1 X83.194 Y55.684 E4.01264
G1 X84.161 Y56.629 E4.07231
G1 X85.059 Y57.639 E4.13197
G1 X85.885 Y58.709 E4.19164
G1 X86.634 Y59.835 E4.25130
G1 X87.303 Y61.009 E4.31097
G1 X87.889 Y62.228 E4.37064
G1 X88.388 Y63.485 E4.43030
G1 X88.798 Y64.773 E4.48997
G1 X89.117 Y66.087 E4.54963
G1 X89.309 Y67.178 E4.59852
G1 X89.477 Y68.765 E4.66896
G1 X89.516 Y70.116 E4.72863
G1 X89.461 Y71.467 E4.78829
G1 X89.311 Y72.811 E4.84796
G1 X89.068 Y74.141 E4.90763
G1 X88.733 Y75.451 E4.96729
G1 X88.308 Y76.734 E5.02696
G1 X87.794 Y77.985 E5.08662
G1 X87.194 Y79.196 E5.14629
G1 X86.511 Y80.363 E5.20596
G1 X85.748 Y81.479 E5.26562
G1 X85.066 Y82.352 E5.31451
G1 X83.999 Y83.539 E5.38495
G1 X83.021 Y84.472 E5.44462
G1 X81.980 Y85.335 E5.50428
G1 X80.881 Y86.123 E5.56395
G1 X79.942 Y86.710 E5.61283
G1 X78.533 Y87.460 E5.68328
G1 X77.295 Y88.002 E5.74294
G1 X76.021 Y88.457 E5.80261
G1 X74.719 Y88.822 E5.86227
G1 X73.395 Y89.095 E5.92194
G1 X72.055 Y89.275 E5.98161
G1 X70.706 Y89.362 E6.04127
G1 X69.354 Y89.353 E6.10094
G1 X68.006 Y89.251 E6.16060
G1 X66.669 Y89.055 E6.22027
G1 X65.348 Y88.766 E6.27994
G1 X64.050 Y88.385 E6.33960
G1 X62.783 Y87.915 E6.39927
G1 X61.551 Y87.358 E6.45893
G1 X60.573 Y86.838 E6.50783
G1 X59.219 Y85.993 E6.57826
G1 X58.130 Y85.192 E6.63793
G1 X57.100 Y84.316 E6.69759
G1 X56.133 Y83.371 E6.75726
G1 X55.234 Y82.361 E6.81693
G1 X54.408 Y81.291 E6.87659
G1 X53.789 Y80.373 E6.92547
G1 X52.990 Y78.991 E6.99592
G1 X52.405 Y77.772 E7.05559
G1 X51.906 Y76.515 E7.11525
G1 X51.496 Y75.227 E7.17492
G1 X51.176 Y73.913 E7.23458
G1 X50.950 Y72.580 E7.29425
G1 X50.834 Y71.479 E7.34313
G1 X50.777 Y69.884 E7.41358
G1 X50.833 Y68.533 E7.47324
G1 X50.982 Y67.189 E7.53291
G1 X51.225 Y65.859 E7.59258
G1 X51.560 Y64.549 E7.65224
G1 X51.985 Y63.266 E7.71191
G1 X52.499 Y62.015 E7.77157
G1 X53.099 Y60.804 E7.83124
G1 X53.782 Y59.637 E7.89091
G1 X54.402 Y58.719 E7.93978
G1 X55.384 Y57.461 E8.01023
G1 X56.264 Y56.494 E8.06791
G1 X56.757 Y56.943 F6000.000
G1 X57.702 Y56.040 E8.12560 F600.000
G1 X58.706 Y55.205 E8.18321
G1 X59.766 Y54.443 E8.24082
G1 X60.876 Y53.757 E8.29843
G1 X61.854 Y53.237 E8.34730
G1 X63.227 Y52.625 E8.41365
G1 X64.456 Y52.185 E8.47126
G1 X65.713 Y51.831 E8.52887
G1 X66.991 Y51.566 E8.58648
G1 X68.284 Y51.391 E8.64409
G1 X69.389 Y51.314 E8.69297
G1 X70.892 Y51.313 E8.75930
G1 X72.194 Y51.410 E8.81691 F600.000
G1 X73.486 Y51.598 E8.87452
G1 X74.761 Y51.876 E8.93213
G1 X76.014 Y52.242 E8.98974
G1 X77.239 Y52.695 E9.04735
G1 X78.429 Y53.232 E9.10496
G1 X79.578 Y53.850 E9.16257
G1 X80.517 Y54.437 E9.21145
G1 X81.734 Y55.320 E9.27779
G1 X82.730 Y56.164 E9.33540
G1 X83.664 Y57.076 E9.39301
G1 X84.533 Y58.050 E9.45062
G1 X85.331 Y59.083 E9.50823
G1 X86.056 Y60.168 E9.56584
G1 X86.703 Y61.302 E9.62345
G1 X87.269 Y62.478 E9.68105
G1 X87.752 Y63.691 E9.73866
G1 X88.150 Y64.935 E9.79627
G1 X88.459 Y66.203 E9.85388
G1 X88.651 Y67.294 E9.90277
G1 X88.809 Y68.788 E9.96910
G1 X88.848 Y70.093 E10.02671
G1 X88.796 Y71.397 E10.08432
G1 X88.653 Y72.695 E10.14193
G1 X88.420 Y73.979 E10.19954
G1 X88.098 Y75.244 E10.25715
G1 X87.689 Y76.484 E10.31476
G1 X87.194 Y77.692 E10.37237
G1 X86.616 Y78.862 E10.42998
G1 X85.957 Y79.989 E10.48759
G1 X85.222 Y81.068 E10.54520
G1 X84.540 Y81.941 E10.59408
G1 X83.535 Y83.058 E10.66041
G1 X82.591 Y83.960 E10.71802
G1 X81.587 Y84.795 E10.77563
G1 X80.527 Y85.557 E10.83324
G1 X79.588 Y86.144 E10.88212
G1 X78.261 Y86.850 E10.94846
G1 X77.066 Y87.375 E11.00607
G1 X75.837 Y87.815 E11.06368
G1 X74.581 Y88.169 E11.12129
G1 X73.302 Y88.434 E11.17890
G1 X72.009 Y88.609 E11.23651
G1 X70.706 Y88.694 E11.29412
G1 X69.401 Y88.687 E11.35173
G1 X68.099 Y88.590 E11.40934
G1 X66.807 Y88.402 E11.46695
G1 X65.532 Y88.124 E11.52456
G1 X64.279 Y87.758 E11.58217
G1 X63.054 Y87.305 E11.63978
G1 X61.865 Y86.768 E11.69739
G1 X60.886 Y86.248 E11.74628
G1 X59.611 Y85.452 E11.81260
G1 X58.559 Y84.680 E11.87021
G1 X57.563 Y83.836 E11.92782
G1 X56.629 Y82.924 E11.98543
G1 X55.760 Y81.950 E12.04304
G1 X54.962 Y80.917 E12.10065
G1 X54.342 Y79.999 E12.14953
G1 X53.590 Y78.698 E12.21587
G1 X53.024 Y77.522 E12.27348
G1 X52.541 Y76.309 E12.33109
G1 X52.144 Y75.065 E12.38870
G1 X51.834 Y73.797 E12.44631
G1 X51.614 Y72.511 E12.50392
G1 X51.498 Y71.409 E12.55280
G1 X51.445 Y69.907 E12.61913
G1 X51.497 Y68.603 E12.67674
G1 X51.640 Y67.305 E12.73435
G1 X51.873 Y66.021 E12.79196
G1 X52.195 Y64.756 E12.84957
G1 X52.604 Y63.516 E12.90718
G1 X53.099 Y62.308 E12.96479
G1 X53.678 Y61.138 E13.02240
G1 X54.336 Y60.011 E13.08001
G1 X54.955 Y59.092 E13.12889
G1 X55.880 Y57.907 E13.19523
G1 X56.727 Y56.976 E13.25078
G1 F2400.000 E10.55078
G92 E0
G1 X67.256 Y67.209 F6000.000
G1 E2.70000 F2400.000
G1 X67.458 Y67.014 E2.71238 F600.000
G1 X67.900 Y66.669 E2.73712
G1 X68.137 Y66.520 E2.74950
G1 X68.641 Y66.274 E2.77424
G1 X69.174 Y66.101 E2.79898
G1 X69.727 Y66.004 E2.82372
G1 X70.287 Y65.984 E2.84846
G1 X70.567 Y66.004 E2.86084
G1 X71.119 Y66.101 E2.88559 F600.000
G1 X71.652 Y66.274 E2.91033
G1 X71.908 Y66.388 E2.92270
G1 X72.394 Y66.669 E2.94745
G1 X72.835 Y67.014 E2.97219
G1 X73.225 Y67.417 E2.99693
G1 X73.398 Y67.638 E3.00931
G1 X73.695 Y68.113 E3.03405
G1 X73.923 Y68.626 E3.05879
G1 X74.077 Y69.165 E3.08353
G1 X74.126 Y69.441 E3.09591
G1 X74.155 Y69.720 E3.10829
G1 X74.155 Y70.280 E3.13303
G1 X74.077 Y70.835 E3.15777
G1 X73.923 Y71.374 E3.18251
G1 X73.818 Y71.634 E3.19489
G1 X73.554 Y72.129 E3.21963
G1 X73.225 Y72.583 E3.24438
G1 X72.835 Y72.986 E3.26912
G1 X72.621 Y73.167 E3.28150
G1 X72.156 Y73.480 E3.30624
G1 X71.652 Y73.726 E3.33098
G1 X71.388 Y73.822 E3.34336
G1 X70.844 Y73.957 E3.36810
G1 X70.287 Y74.016 E3.39284
G1 X69.727 Y73.996 E3.41758
G1 X69.449 Y73.957 E3.42996
G1 X68.905 Y73.822 E3.45470
G1 X68.641 Y73.726 E3.46708
G1 X68.137 Y73.480 E3.49182
G1 X67.673 Y73.167 E3.51656
G1 X67.256 Y72.791 E3.54130
G1 X66.896 Y72.362 E3.56605
G1 X66.739 Y72.129 E3.57842
G1 X66.476 Y71.634 E3.60317
G1 X66.284 Y71.108 E3.62791
G1 X66.167 Y70.559 E3.65265
G1 X66.128 Y70.000 E3.67739
G1 X66.138 Y69.720 E3.68977
G1 X66.216 Y69.165 E3.71451
G1 X66.371 Y68.626 E3.73925
G1 X66.476 Y68.366 E3.75163
G1 X66.739 Y67.871 E3.77637
G1 X66.896 Y67.638 E3.78875
G1 X67.226 Y67.242 E3.81151
G1 X67.722 Y67.689 F6000.000
G1 X68.084 Y67.360 E3.83309 F600.000
G1 X68.471 Y67.099 E3.85371
G1 X68.678 Y66.989 E3.86403
G1 X68.892 Y66.894 E3.87435
G1 X69.336 Y66.749 E3.89498
G1 X69.796 Y66.668 E3.91561
G1 X70.030 Y66.652 E3.92593
G1 X70.497 Y66.668 E3.94656 F600.000
G1 X70.728 Y66.701 E3.95688
G1 X71.182 Y66.814 E3.97750
G1 X71.402 Y66.894 E3.98782
G1 X71.822 Y67.099 E4.00845
G1 X72.209 Y67.360 E4.02908
G1 X72.557 Y67.673 E4.04970
G1 X72.857 Y68.031 E4.07033
G1 X72.988 Y68.225 E4.08065
G1 X73.207 Y68.637 E4.10128
G1 X73.367 Y69.077 E4.12191
G1 X73.464 Y69.534 E4.14253
G1 X73.489 Y69.766 E4.15285
G1 X73.489 Y70.234 E4.17348
G1 X73.424 Y70.697 E4.19411
G1 X73.295 Y71.146 E4.21474
G1 X73.207 Y71.363 E4.22506
G1 X72.988 Y71.775 E4.24568
G1 X72.857 Y71.969 E4.25600
G1 X72.557 Y72.327 E4.27663
G1 X72.209 Y72.640 E4.29726
G1 X71.822 Y72.901 E4.31789
G1 X71.615 Y73.011 E4.32821
G1 X71.182 Y73.186 E4.34883
G1 X70.728 Y73.299 E4.36946
G1 X70.497 Y73.332 E4.37978
G1 X70.030 Y73.348 E4.40041
G1 X69.796 Y73.332 E4.41073
G1 X69.336 Y73.251 E4.43136
G1 X68.892 Y73.106 E4.45198
G1 X68.678 Y73.011 E4.46230
G1 X68.273 Y72.777 E4.48293
G1 X68.084 Y72.640 E4.49325
G1 X67.737 Y72.327 E4.51388
G1 X67.436 Y71.969 E4.53450
G1 X67.305 Y71.775 E4.54482
G1 X67.086 Y71.363 E4.56545
G1 X66.926 Y70.923 E4.58608
G1 X66.829 Y70.466 E4.60671
G1 X66.796 Y70.000 E4.62733
G1 X66.805 Y69.766 E4.63765
G1 X66.870 Y69.303 E4.65828
G1 X66.998 Y68.854 E4.67891
G1 X67.086 Y68.637 E4.68923
G1 X67.305 Y68.225 E4.70986
G1 X67.436 Y68.031 E4.72018
G1 X67.692 Y67.722 E4.73786
G1 X59.027 Y59.920 F6000.000
G1 X59.344 Y59.568 E4.75877 F600.000
G1 X60.098 Y58.840 E4.80503
G1 X60.901 Y58.166 E4.85129
G1 X61.749 Y57.550 E4.89755
G1 X62.638 Y56.995 E4.94381
G1 X63.563 Y56.503 E4.99007
G1 X64.521 Y56.076 E5.03633
G1 X65.506 Y55.718 E5.08259
G1 X66.514 Y55.429 E5.12885
G1 X67.539 Y55.211 E5.17510
G1 X68.577 Y55.065 E5.22136
G1 X69.622 Y54.992 E5.26762
G1 X70.671 Y54.992 E5.31388 F600.000
G1 X71.716 Y55.065 E5.36014
G1 X72.754 Y55.211 E5.40640
G1 X73.780 Y55.429 E5.45266
G1 X74.787 Y55.718 E5.49892
G1 X75.772 Y56.076 E5.54518
G1 X76.730 Y56.503 E5.59144
G1 X77.655 Y56.995 E5.63770
G1 X78.544 Y57.550 E5.68395
G1 X79.392 Y58.166 E5.73021
G1 X80.195 Y58.840 E5.77647
G1 X80.949 Y59.568 E5.82273
G1 X81.650 Y60.347 E5.86899
G1 X82.296 Y61.173 E5.91525
G1 X82.882 Y62.042 E5.96151
G1 X83.406 Y62.950 E6.00777
G1 X83.866 Y63.892 E6.05403
G1 X84.258 Y64.864 E6.10028
G1 X84.582 Y65.861 E6.14654
G1 X84.836 Y66.878 E6.19280
G1 X85.018 Y67.910 E6.23906
G1 X85.127 Y68.952 E6.28532
G1 X85.164 Y70.000 E6.33158
G1 X85.127 Y71.048 E6.37784
G1 X85.018 Y72.090 E6.42410
G1 X84.836 Y73.122 E6.47036
G1 X84.582 Y74.139 E6.51662
G1 X84.258 Y75.136 E6.56287
G1 X83.866 Y76.108 E6.60913
G1 X83.406 Y77.050 E6.65539
G1 X82.882 Y77.958 E6.70165
G1 X82.296 Y78.827 E6.74791
G1 X81.650 Y79.653 E6.79417
G1 X80.949 Y80.432 E6.84043
G1 X80.195 Y81.160 E6.88669
G1 X79.392 Y81.834 E6.93295
G1 X78.544 Y82.450 E6.97920
G1 X77.655 Y83.005 E7.02546
G1 X76.730 Y83.497 E7.07172
G1 X75.772 Y83.924 E7.11798
G1 X74.787 Y84.282 E7.16424
G1 X73.780 Y84.571 E7.21050
G1 X72.754 Y84.789 E7.25676
G1 X71.716 Y84.935 E7.30302
G1 X70.671 Y85.008 E7.34928
G1 X69.622 Y85.008 E7.39553
G1 X68.577 Y84.935 E7.44179
G1 X67.539 Y84.789 E7.48805
G1 X66.514 Y84.571 E7.53431
G1 X65.506 Y84.282 E7.58057
G1 X64.521 Y83.924 E7.62683
G1 X63.563 Y83.497 E7.67309
G1 X62.638 Y83.005 E7.71935
G1 X61.749 Y82.450 E7.76561
G1 X60.901 Y81.834 E7.81187
G1 X60.098 Y81.160 E7.85812
G1 X59.344 Y80.432 E7.90438
G1 X58.643 Y79.653 E7.95064
G1 X57.997 Y78.827 E7.99690
G1 X57.411 Y77.958 E8.04316
G1 X56.887 Y77.050 E8.08942
G1 X56.428 Y76.108 E8.13568
G1 X56.035 Y75.136 E8.18194
G1 X55.711 Y74.139 E8.22820
G1 X55.458 Y73.122 E8.27446
G1 X55.275 Y72.090 E8.32071
G1 X55.166 Y71.048 E8.36697
G1 X55.129 Y70.000 E8.41323
G1 X55.166 Y68.952 E8.45949
G1 X55.275 Y67.910 E8.50575
G1 X55.458 Y66.878 E8.55201
G1 X55.711 Y65.861 E8.59827
G1 X56.035 Y64.864 E8.64453
G1 X56.428 Y63.892 E8.69079
G1 X56.887 Y62.950 E8.73704
G1 X57.411 Y62.042 E8.78330
G1 X57.997 Y61.173 E8.82956
G1 X58.643 Y60.347 E8.87582
G1 X58.997 Y59.954 E8.89918
G1 X58.501 Y59.507 F6000.000
G1 X58.863 Y59.104 E8.92311 F600.000
G1 X59.651 Y58.343 E8.97143
G1 X60.490 Y57.640 E9.01974
G1 X61.375 Y56.996 E9.06806
G1 X62.304 Y56.416 E9.11638
G1 X63.271 Y55.902 E9.16470
G1 X64.271 Y55.457 E9.21301
G1 X65.300 Y55.082 E9.26133
G1 X66.352 Y54.780 E9.30965
G1 X67.423 Y54.553 E9.35797
G1 X68.507 Y54.400 E9.40628
G1 X69.599 Y54.324 E9.45460
G1 X70.694 Y54.324 E9.50292
G1 X71.786 Y54.400 E9.55124
G1 X72.870 Y54.553 E9.59955 F600.000
G1 X73.941 Y54.780 E9.64787
G1 X74.994 Y55.082 E9.69619
G1 X76.022 Y55.457 E9.74450
G1 X77.023 Y55.902 E9.79282
G1 X77.989 Y56.416 E9.84114
G1 X78.918 Y56.996 E9.88946
G1 X79.804 Y57.640 E9.93777
G1 X80.642 Y58.343 E9.98609
G1 X81.430 Y59.104 E10.03441
G1 X82.162 Y59.918 E10.08273
G1 X82.836 Y60.780 E10.13104
G1 X83.449 Y61.688 E10.17936
G1 X83.996 Y62.636 E10.22768
G1 X84.476 Y63.620 E10.27600
G1 X84.886 Y64.635 E10.32431
G1 X85.224 Y65.676 E10.37263
G1 X85.489 Y66.739 E10.42095
G1 X85.679 Y67.817 E10.46926
G1 X85.794 Y68.906 E10.51758
G1 X85.832 Y70.000 E10.56590
G1 X85.794 Y71.094 E10.61422
G1 X85.679 Y72.183 E10.66253
G1 X85.489 Y73.261 E10.71085
G1 X85.224 Y74.324 E10.75917
G1 X84.886 Y75.365 E10.80749
G1 X84.476 Y76.380 E10.85580
G1 X83.996 Y77.364 E10.90412
G1 X83.449 Y78.312 E10.95244
G1 X82.836 Y79.220 E11.00075
G1 X82.162 Y80.082 E11.04907
G1 X81.430 Y80.896 E11.09739
G1 X80.642 Y81.657 E11.14571
G1 X79.804 Y82.360 E11.19402
G1 X78.918 Y83.004 E11.24234
G1 X77.989 Y83.584 E11.29066
G1 X77.023 Y84.098 E11.33898
G1 X76.022 Y84.543 E11.38729
G1 X74.994 Y84.918 E11.43561
G1 X73.941 Y85.220 E11.48393
G1 X72.870 Y85.447 E11.53225
G1 X71.786 Y85.600 E11.58056
G1 X70.694 Y85.676 E11.62888
G1 X69.599 Y85.676 E11.67720
G1 X68.507 Y85.600 E11.72552
G1 X67.423 Y85.447 E11.77383
G1 X66.352 Y85.220 E11.82215
G1 X65.300 Y84.918 E11.87047
G1 X64.271 Y84.543 E11.91878
G1 X63.271 Y84.098 E11.96710
G1 X62.304 Y83.584 E12.01542
G1 X61.375 Y83.004 E12.06374
G1 X60.490 Y82.360 E12.11205
G1 X59.651 Y81.657 E12.16037
G1 X58.863 Y80.896 E12.20869
G1 X58.131 Y80.082 E12.25700
G1 X57.457 Y79.220 E12.30532
G1 X56.845 Y78.312 E12.35364
G1 X56.297 Y77.364 E12.40196
G1 X55.817 Y76.380 E12.45027
G1 X55.407 Y75.365 E12.49859
G1 X55.069 Y74.324 E12.54691
G1 X54.804 Y73.261 E12.59523
G1 X54.614 Y72.183 E12.64354
G1 X54.499 Y71.094 E12.69186
G1 X54.461 Y70.000 E12.74018
G1 X54.499 Y68.906 E12.78850
G1 X54.614 Y67.817 E12.83681
G1 X54.804 Y66.739 E12.88513
G1 X55.069 Y65.676 E12.93345
G1 X55.407 Y64.635 E12.98177
G1 X55.817 Y63.620 E13.03008
G1 X56.297 Y62.636 E13.07840
G1 X56.845 Y61.688 E13.12672
G1 X57.457 Y60.780 E13.17503
G1 X58.131 Y59.918 E13.22335
G1 X58.471 Y59.540 E13.24575
G1 X59.801 Y60.009 F6000.000
G1 X60.523 Y59.312 E13.29006 F600.000
G1 X61.292 Y58.666 E13.33436
G1 X62.104 Y58.076 E13.37867
G1 X62.955 Y57.544 E13.42297
G1 X63.842 Y57.073 E13.46727
G1 X64.759 Y56.665 E13.51158
G1 X65.702 Y56.321 E13.55588
G1 X66.667 Y56.045 E13.60018
G1 X67.649 Y55.836 E13.64449
G1 X68.643 Y55.696 E13.68879
G1 X69.645 Y55.626 E13.73309
G1 X70.649 Y55.626 E13.77740
G1 X71.650 Y55.696 E13.82170
G1 X72.644 Y55.836 E13.86600
G1 X73.626 Y56.045 E13.91031
G1 X74.591 Y56.321 E13.95461
G1 X75.534 Y56.665 E13.99892
G1 X76.451 Y57.073 E14.04322
G1 X77.338 Y57.544 E14.08752
G1 X78.189 Y58.076 E14.13183
G1 X79.001 Y58.666 E14.17613
G1 X79.770 Y59.312 E14.22043
G1 X80.492 Y60.009 E14.26474
G1 X81.164 Y60.755 E14.30904
G1 X81.782 Y61.546 E14.35334
G1 X82.344 Y62.378 E14.39765
G1 X82.846 Y63.248 E14.44195
G1 X83.286 Y64.150 E14.48626
G1 X83.662 Y65.081 E14.53056
G1 X83.972 Y66.036 E14.57486
G1 X84.215 Y67.010 E14.61917
G1 X84.389 Y67.998 E14.66347
G1 X84.494 Y68.997 E14.70777
G1 X84.529 Y70.000 E14.75208
G1 X84.494 Y71.003 E14.79638
G1 X84.389 Y72.002 E14.84068
G1 X84.215 Y72.990 E14.88499
G1 X83.972 Y73.964 E14.92929
G1 X83.662 Y74.919 E14.97359
G1 X83.286 Y75.850 E15.01790
G1 X82.846 Y76.752 E15.06220
G1 X82.344 Y77.622 E15.10651
G1 X81.782 Y78.454 E15.15081
G1 X81.164 Y79.245 E15.19511
G1 X80.492 Y79.991 E15.23942
G1 X79.770 Y80.688 E15.28372
G1 X79.001 Y81.334 E15.32802
G1 X78.189 Y81.924 E15.37233
G1 X77.338 Y82.456 E15.41663
G1 X76.451 Y82.927 E15.46093
G1 X75.534 Y83.335 E15.50524
G1 X74.591 Y83.679 E15.54954
G1 X73.626 Y83.955 E15.59385
G1 X72.644 Y84.164 E15.63815
G1 X71.650 Y84.304 E15.68245
G1 X70.649 Y84.374 E15.72676
G1 X69.645 Y84.374 E15.77106
G1 X68.643 Y84.304 E15.81536
G1 X67.649 Y84.164 E15.85967
