; generated by Slic3r 1.2.0 on 2014-10-09 at 10:19:25

; external perimeters extrusion width = 0.30mm
; perimeters extrusion width = 0.90mm
; infill extrusion width = 0.50mm
; solid infill extrusion width = 0.50mm
; top infill extrusion width = 0.60mm

G21 ; set units to millimeters
M107
M104 S210 ; set temperature
G21           ;metric is good!
G90           ;absolute positioning
G28           ;go home
G92 E0        ;reset extruder
M109 S210 ; wait for temperature to be reached
G90 ; use absolute coordinates
G92 E0
M82 ; use absolute distances for extrusion
G1 F2400.000 E-2.70000
G92 E0
G1 Z2.350 F3000.000
G1 X95.203 Y97.773 F3000.000
G1 E2.70000 F2400.000
G1 X96.040 Y97.009 E2.75003 F600.000
G1 X97.034 Y96.417 E2.80108
G1 X97.943 Y96.078 E2.84387
G1 X98.176 Y95.996 E2.85479
G1 X99.384 Y95.785 E2.90892
G1 X100.662 Y95.793 E2.96530
G1 X101.822 Y95.996 E3.01730 F600.000
G1 X102.948 Y96.407 E3.07020
G1 X103.958 Y97.009 E3.12206
G1 X104.795 Y97.773 E3.17209
G1 X105.427 Y98.671 E3.22055
G1 X105.820 Y99.665 E3.26772
G1 X105.954 Y100.709 E3.31419
G1 X105.820 Y101.754 E3.36065
G1 X105.427 Y102.747 E3.40783
G1 X104.795 Y103.646 E3.45628
G1 X103.958 Y104.409 E3.50632
G1 X102.894 Y105.031 E3.56066
G1 X101.820 Y105.423 E3.61113
G1 X100.614 Y105.634 E3.66518
G1 X99.384 Y105.634 E3.71944
G1 X98.226 Y105.432 E3.77131
G1 X97.015 Y104.991 E3.82818
G1 X96.040 Y104.409 E3.87828
G1 X95.203 Y103.646 E3.92832
G1 X94.571 Y102.747 E3.97677
G1 X94.178 Y101.754 E4.02395
G1 X94.044 Y100.709 E4.07041
G1 X94.178 Y99.665 E4.11688
G1 X94.571 Y98.671 E4.16405
G1 X95.177 Y97.810 E4.21052
G1 X93.987 Y96.884 F3000.000
G1 X94.374 Y96.444 E4.23636 F600.000
G1 X94.733 Y96.099 E4.25836
G1 X95.119 Y95.776 E4.28057
G1 X95.530 Y95.477 E4.30302
G1 X95.964 Y95.204 E4.32565
G1 X96.419 Y94.958 E4.34846
G1 X96.892 Y94.742 E4.37139
G1 X97.381 Y94.558 E4.39445
G1 X97.883 Y94.406 E4.41761
G1 X98.396 Y94.286 E4.44087
G1 X98.917 Y94.200 E4.46418
G1 X99.444 Y94.149 E4.48754
G1 X100.040 Y94.132 E4.51384
G1 X100.556 Y94.149 E4.53662 F600.000
G1 X101.083 Y94.200 E4.55998
G1 X101.604 Y94.286 E4.58329
G1 X102.117 Y94.406 E4.60655
G1 X102.619 Y94.558 E4.62971
G1 X103.108 Y94.742 E4.65278
G1 X103.581 Y94.958 E4.67570
G1 X104.036 Y95.204 E4.69852
G1 X104.470 Y95.477 E4.72115
G1 X104.881 Y95.776 E4.74360
G1 X105.267 Y96.099 E4.76581
G1 X105.626 Y96.444 E4.78780
G1 X105.956 Y96.811 E4.80955
G1 X106.256 Y97.196 E4.83108
G1 X106.523 Y97.598 E4.85240
G1 X106.758 Y98.016 E4.87354
G1 X106.958 Y98.447 E4.89452
G1 X107.123 Y98.889 E4.91533
G1 X107.252 Y99.340 E4.93603
G1 X107.344 Y99.797 E4.95665
G1 X107.400 Y100.260 E4.97720
G1 X107.419 Y100.724 E4.99771
G1 X107.400 Y101.189 E5.01822
G1 X107.344 Y101.651 E5.03877
G1 X107.252 Y102.109 E5.05939
G1 X107.123 Y102.560 E5.08009
G1 X106.958 Y103.002 E5.10091
G1 X106.758 Y103.432 E5.12187
G1 X106.523 Y103.850 E5.14300
G1 X106.256 Y104.252 E5.16431
G1 X105.956 Y104.636 E5.18581
G1 X105.627 Y105.001 E5.20751
G1 X105.268 Y105.345 E5.22943
G1 X104.883 Y105.665 E5.25154
G1 X104.472 Y105.960 E5.27385
G1 X104.038 Y106.228 E5.29637
G1 X103.584 Y106.469 E5.31907
G1 X103.111 Y106.680 E5.34192
G1 X102.622 Y106.860 E5.36493
G1 X102.119 Y107.009 E5.38807
G1 X101.605 Y107.126 E5.41132
G1 X101.084 Y107.210 E5.43464
G1 X100.556 Y107.261 E5.45801
G1 X100.026 Y107.278 E5.48142
G1 X99.444 Y107.261 E5.50713
G1 X98.916 Y107.210 E5.53051
G1 X98.395 Y107.126 E5.55383
G1 X97.881 Y107.009 E5.57708
G1 X97.378 Y106.860 E5.60022
G1 X96.889 Y106.680 E5.62322
G1 X96.416 Y106.469 E5.64608
G1 X95.962 Y106.228 E5.66878
G1 X95.528 Y105.960 E5.69129
G1 X95.117 Y105.665 E5.71361
G1 X94.732 Y105.345 E5.73572
G1 X94.373 Y105.001 E5.75763
G1 X94.044 Y104.636 E5.77934
G1 X93.744 Y104.252 E5.80084
G1 X93.477 Y103.850 E5.82214
G1 X93.242 Y103.432 E5.84327
G1 X93.042 Y103.002 E5.86424
G1 X92.877 Y102.560 E5.88506
G1 X92.748 Y102.109 E5.90576
G1 X92.656 Y101.651 E5.92637
G1 X92.600 Y101.189 E5.94692
G1 X92.581 Y100.724 E5.96744
G1 X92.600 Y100.260 E5.98795
G1 X92.656 Y99.797 E6.00850
G1 X92.748 Y99.340 E6.02911
G1 X92.877 Y98.889 E6.04981
G1 X93.042 Y98.447 E6.07063
G1 X93.242 Y98.016 E6.09160
G1 X93.477 Y97.598 E6.11274
G1 X93.744 Y97.196 E6.13406
G1 X93.959 Y96.919 E6.14951
G1 X94.566 Y97.368 F3000.000
G1 X94.928 Y96.981 E6.18519 F600.000
G1 X95.547 Y96.419 E6.24142
G1 X96.365 Y95.890 E6.30691
G1 X96.771 Y95.666 E6.33812
G1 X97.641 Y95.326 E6.40098
G1 X97.995 Y95.211 E6.42599
G1 X98.557 Y95.094 E6.46457
G1 X99.356 Y94.973 E6.51898
G1 X100.026 Y94.959 E6.56403
G1 X100.721 Y94.980 E6.61078
G1 X101.443 Y95.094 E6.65999
G1 X102.001 Y95.211 E6.69834
G1 X102.358 Y95.327 E6.72356
G1 X103.229 Y95.667 E6.78642
G1 X103.635 Y95.891 E6.81763
G1 X104.383 Y96.366 E6.87724
G1 X104.748 Y96.677 E6.90948
G1 X105.379 Y97.294 E6.96885
G1 X105.876 Y97.994 E7.02657
G1 X106.098 Y98.354 E7.05500
G1 X106.411 Y99.123 E7.11088
G1 X106.539 Y99.513 E7.13851
G1 X106.606 Y99.917 E7.16600
G1 X106.685 Y100.659 E7.21621
G1 X106.654 Y101.129 E7.24788
G1 X106.545 Y101.889 E7.29951
G1 X106.406 Y102.324 E7.33024
G1 X106.092 Y103.092 E7.38605
G1 X105.869 Y103.450 E7.41442
G1 X105.373 Y104.146 E7.47194
G1 X104.744 Y104.757 E7.53091
G1 X104.406 Y105.048 E7.56090
G1 X103.639 Y105.533 E7.62190
G1 X103.251 Y105.746 E7.65172
G1 X102.804 Y105.928 E7.68415
G1 X102.365 Y106.089 E7.71562
G1 X101.914 Y106.227 E7.74736
G1 X101.449 Y106.321 E7.77927
G1 X100.642 Y106.441 E7.83417
G1 X99.974 Y106.455 E7.87909
G1 X99.278 Y106.434 E7.92592
G1 X98.551 Y106.321 E7.97539
G1 X98.009 Y106.209 E8.01266
G1 X97.196 Y105.928 E8.07051
G1 X96.748 Y105.746 E8.10306
G1 X96.360 Y105.533 E8.13277
G1 X95.594 Y105.048 E8.19377
G1 X94.934 Y104.457 E8.25339
G1 X94.627 Y104.146 E8.28274
G1 X94.130 Y103.450 E8.34027
G1 X93.907 Y103.092 E8.36865
G1 X93.741 Y102.709 E8.39672
G1 X93.463 Y101.935 E8.45208
G1 X93.345 Y101.129 E8.50686
G1 X93.314 Y100.659 E8.53853
G1 X93.393 Y99.916 E8.58876 F600.000
G1 X93.460 Y99.513 E8.61625
G1 X93.588 Y99.123 E8.64389
G1 X93.901 Y98.353 E8.69978
G1 X94.123 Y97.993 E8.72821
G1 X94.539 Y97.404 E8.77670
M104 S197 ; set temperature
G1 F2400.000 E6.07670
G92 E0
G1 Z2.550 F3000.000
G1 X94.862 Y97.631 F3000.000
G1 E2.70000 F2400.000
G1 X94.931 Y97.534 E2.70901 F1021.350
G1 X95.824 Y96.719 E2.80030
G1 X96.940 Y96.062 E2.89812
G1 X98.073 Y95.648 E2.98919
G1 X99.354 Y95.425 E3.08743
G1 X99.566 Y95.425 E3.10347
G1 X100.644 Y95.425 E3.18484 F1021.350
G1 X102.438 Y95.737 E3.32236
G1 X102.438 Y95.837 E3.32991
G1 X103.114 Y96.087 E3.38434
G1 X104.174 Y96.719 E3.47756
G1 X105.067 Y97.534 E3.56885
G1 X105.746 Y98.499 E3.65796
G1 X106.172 Y99.575 E3.74531
G1 X106.317 Y100.709 E3.83170
G1 X106.172 Y101.844 E3.91809
G1 X105.746 Y102.919 E4.00544
G1 X105.067 Y103.885 E4.09456
G1 X104.174 Y104.699 E4.18586
G1 X103.102 Y105.337 E4.28006
G1 X101.915 Y105.772 E4.37557
G1 X100.644 Y105.993 E4.47299
G1 X99.354 Y105.993 E4.57039
G1 X98.209 Y105.794 E4.65820
G1 X97.993 Y105.739 E4.67502
G1 X96.896 Y105.338 E4.76325
G1 X96.819 Y105.294 E4.76991
G1 X95.824 Y104.699 E4.85747
G1 X94.931 Y103.885 E4.94876
G1 X94.252 Y102.919 E5.03788
G1 X93.826 Y101.844 E5.12523
G1 X93.681 Y100.709 E5.21162
G1 X93.826 Y99.575 E5.29801
G1 X94.252 Y98.499 E5.38536
G1 X94.836 Y97.668 E5.46207
G1 X95.292 Y97.989 F3000.000
G1 X95.351 Y97.904 E5.46440 F1021.350
G1 X96.158 Y97.168 E5.48915
G1 X97.126 Y96.591 E5.51467
G1 X98.227 Y96.187 E5.54125
G1 X99.328 Y95.994 E5.56656
G1 X100.597 Y95.982 E5.59531 F1021.350
G1 X101.881 Y96.206 E5.62482
G1 X101.881 Y96.227 E5.62530
G1 X102.868 Y96.589 E5.64911
G1 X103.840 Y97.168 E5.67475
G1 X104.647 Y97.904 E5.69949
G1 X105.253 Y98.766 E5.72334
G1 X105.628 Y99.715 E5.74646
G1 X105.755 Y100.709 E5.76918
G1 X105.628 Y101.704 E5.79189
G1 X105.253 Y102.653 E5.81501
G1 X104.647 Y103.514 E5.83886
G1 X103.840 Y104.250 E5.86361
G1 X102.865 Y104.831 E5.88930
G1 X101.770 Y105.232 E5.91572
G1 X100.597 Y105.436 E5.94269
G1 X99.401 Y105.436 E5.96980
G1 X98.228 Y105.232 E5.99675
G1 X97.235 Y104.869 E6.02070
G1 X97.101 Y104.813 E6.02401
G1 X96.158 Y104.250 E6.04887
G1 X95.351 Y103.514 E6.07361
G1 X94.745 Y102.653 E6.09746
G1 X94.370 Y101.704 E6.12058
G1 X94.242 Y100.709 E6.14330
G1 X94.370 Y99.715 E6.16601
G1 X94.745 Y98.766 E6.18913
G1 X95.266 Y98.025 E6.20963
G1 X93.754 Y96.851 F3000.000
G1 X94.191 Y96.349 E6.25992 F1021.350
G1 X94.560 Y95.992 E6.29871
G1 X94.958 Y95.657 E6.33798
G1 X95.382 Y95.347 E6.37766
G1 X95.831 Y95.063 E6.41775
G1 X96.300 Y94.808 E6.45808
G1 X96.788 Y94.584 E6.49866
G1 X97.293 Y94.393 E6.53941
G1 X97.812 Y94.234 E6.58041
G1 X98.343 Y94.110 E6.62154
G1 X98.881 Y94.021 E6.66280
G1 X99.426 Y93.967 E6.70412
G1 X100.000 Y93.950 E6.74749
G1 X100.574 Y93.967 E6.79085 F1021.350
G1 X101.119 Y94.021 E6.83218
G1 X101.657 Y94.110 E6.87343
G1 X102.188 Y94.234 E6.91457
G1 X102.707 Y94.393 E6.95556
G1 X103.212 Y94.584 E6.99631
G1 X103.700 Y94.808 E7.03689
G1 X104.169 Y95.063 E7.07722
G1 X104.618 Y95.347 E7.11731
G1 X105.042 Y95.657 E7.15699
G1 X105.440 Y95.992 E7.19627
G1 X105.809 Y96.349 E7.23506
G1 X106.149 Y96.726 E7.27340
G1 X106.456 Y97.122 E7.31124
G1 X106.730 Y97.535 E7.34865
G1 X106.970 Y97.963 E7.38569
G1 X107.174 Y98.403 E7.42237
G1 X107.343 Y98.854 E7.45872
G1 X107.474 Y99.314 E7.49484
G1 X107.569 Y99.780 E7.53079
G1 X107.626 Y100.251 E7.56662
G1 X107.645 Y100.724 E7.60236
G1 X107.626 Y101.197 E7.63810
G1 X107.569 Y101.668 E7.67393
G1 X107.474 Y102.135 E7.70988
G1 X107.343 Y102.594 E7.74599
G1 X107.174 Y103.045 E7.78234
G1 X106.970 Y103.486 E7.81900
G1 X106.730 Y103.913 E7.85599
G1 X106.457 Y104.324 E7.89331
G1 X106.150 Y104.718 E7.93102
G1 X105.811 Y105.093 E7.96915
G1 X105.443 Y105.446 E8.00769
G1 X105.046 Y105.775 E8.04662
G1 X104.623 Y106.079 E8.08594
G1 X104.176 Y106.356 E8.12567
G1 X103.707 Y106.604 E8.16576
G1 X103.218 Y106.822 E8.20616
G1 X102.713 Y107.008 E8.24685
G1 X102.193 Y107.163 E8.28781
G1 X101.661 Y107.284 E8.32898
G1 X101.121 Y107.371 E8.37029
G1 X100.575 Y107.423 E8.41170
G1 X100.026 Y107.440 E8.45319
G1 X99.425 Y107.423 E8.49861
G1 X98.879 Y107.371 E8.54003
G1 X98.339 Y107.284 E8.58134
G1 X97.807 Y107.163 E8.62250
G1 X97.287 Y107.008 E8.66347
G1 X96.782 Y106.822 E8.70416
G1 X96.293 Y106.604 E8.74455
G1 X95.824 Y106.356 E8.78464
G1 X95.377 Y106.079 E8.82437
G1 X94.954 Y105.775 E8.86370
G1 X94.557 Y105.446 E8.90262
G1 X94.189 Y105.093 E8.94116
G1 X93.850 Y104.718 E8.97929
G1 X93.543 Y104.324 E9.01700
G1 X93.270 Y103.913 E9.05433
G1 X93.030 Y103.486 E9.09131
G1 X92.826 Y103.045 E9.12797
G1 X92.657 Y102.594 E9.16432
G1 X92.526 Y102.135 E9.20044
G1 X92.431 Y101.668 E9.23639
G1 X92.374 Y101.197 E9.27222
G1 X92.355 Y100.724 E9.30796
G1 X92.374 Y100.251 E9.34370
G1 X92.431 Y99.780 E9.37953
G1 X92.526 Y99.314 E9.41548
G1 X92.657 Y98.854 E9.45159
G1 X92.826 Y98.403 E9.48795
G1 X93.030 Y97.963 E9.52463
G1 X93.270 Y97.535 E9.56166
G1 X93.544 Y97.122 E9.59908
G1 X93.726 Y96.887 E9.62155
G1 X93.286 Y96.545 F3000.000
G1 X93.790 Y95.962 E9.64554 F1200.000
G1 X94.187 Y95.578 E9.66275
G1 X94.614 Y95.219 E9.68013
G1 X95.069 Y94.886 E9.69767
G1 X95.549 Y94.583 E9.71535
G1 X96.051 Y94.310 E9.73315
G1 X96.573 Y94.070 E9.75105
G1 X97.113 Y93.865 E9.76902
G1 X97.667 Y93.696 E9.78708
G1 X98.233 Y93.563 E9.80519
G1 X98.809 Y93.468 E9.82334
G1 X99.390 Y93.411 E9.84153
G1 X100.260 Y93.400 E9.86864
G1 X100.610 Y93.411 E9.87955 F1200.000
G1 X101.191 Y93.468 E9.89773
G1 X101.767 Y93.563 E9.91588
G1 X102.333 Y93.696 E9.93399
G1 X102.887 Y93.865 E9.95205
G1 X103.427 Y94.070 E9.97002
G1 X103.949 Y94.310 E9.98792
G1 X104.451 Y94.583 E10.00572
G1 X104.931 Y94.886 E10.02341
G1 X105.386 Y95.219 E10.04095
G1 X105.813 Y95.578 E10.05832
G1 X106.051 Y95.808 E10.06863
G1 X106.576 Y96.369 E10.09256
G1 X106.909 Y96.797 E10.10944
G1 X107.206 Y97.244 E10.12616
G1 X107.466 Y97.709 E10.14274
G1 X107.689 Y98.188 E10.15920
G1 X107.873 Y98.680 E10.17555
G1 X108.016 Y99.182 E10.19181
G1 X108.119 Y99.692 E10.20801
G1 X108.181 Y100.207 E10.22417
G1 X108.202 Y100.724 E10.24030
G1 X108.181 Y101.242 E10.25643
G1 X108.119 Y101.757 E10.27259
G1 X108.016 Y102.267 E10.28879
G1 X107.873 Y102.769 E10.30505
G1 X107.689 Y103.261 E10.32140
G1 X107.466 Y103.740 E10.33785
G1 X107.206 Y104.204 E10.35442
G1 X106.909 Y104.650 E10.37112
G1 X106.577 Y105.077 E10.38795
G1 X106.211 Y105.481 E10.40493
G1 X105.814 Y105.862 E10.42206
G1 X105.387 Y106.216 E10.43934
G1 X104.932 Y106.542 E10.45676
G1 X104.453 Y106.839 E10.47433
G1 X103.951 Y107.105 E10.49202
G1 X103.428 Y107.338 E10.50984
G1 X102.888 Y107.537 E10.52776
G1 X102.334 Y107.702 E10.54577
G1 X101.767 Y107.831 E10.56387
G1 X101.192 Y107.924 E10.58202
G1 X100.611 Y107.979 E10.60020
G1 X100.026 Y107.998 E10.61841
G1 X99.389 Y107.979 E10.63825
G1 X98.808 Y107.924 E10.65644
G1 X98.233 Y107.831 E10.67459
G1 X97.666 Y107.702 E10.69268
G1 X97.112 Y107.537 E10.71070
G1 X96.572 Y107.338 E10.72862
G1 X96.049 Y107.105 E10.74643
G1 X95.547 Y106.839 E10.76413
G1 X95.068 Y106.542 E10.78169
G1 X94.613 Y106.216 E10.79911
G1 X94.186 Y105.862 E10.81639
G1 X93.789 Y105.481 E10.83352
G1 X93.423 Y105.077 E10.85050
G1 X93.091 Y104.650 E10.86734
G1 X92.794 Y104.204 E10.88403
G1 X92.534 Y103.740 E10.90060
G1 X92.311 Y103.261 E10.91706
G1 X92.127 Y102.769 E10.93340
G1 X91.984 Y102.267 E10.94967
G1 X91.881 Y101.757 E10.96587
G1 X91.819 Y101.242 E10.98202
G1 X91.798 Y100.724 E10.99815
G1 X91.819 Y100.207 E11.01428
G1 X91.881 Y99.692 E11.03044
G1 X91.984 Y99.182 E11.04664
G1 X92.127 Y98.680 E11.06290
G1 X92.311 Y98.188 E11.07925
G1 X92.534 Y97.709 E11.09571
G1 X92.794 Y97.244 E11.11229
G1 X93.091 Y96.797 E11.12902
G1 X93.259 Y96.581 E11.13753
G1 X94.253 Y97.316 F3000.000
G1 X94.444 Y97.070 E11.14869 F1021.350
G1 X95.025 Y96.508 E11.17769
G1 X95.394 Y96.185 E11.19527
G1 X95.778 Y95.928 E11.21184
G1 X96.652 Y95.420 E11.24812
G1 X97.243 Y95.183 E11.27095
G1 X97.912 Y94.951 E11.29635
G1 X98.486 Y94.830 E11.31739
G1 X99.270 Y94.708 E11.34584
G1 X99.974 Y94.687 E11.37111
G1 X100.526 Y94.696 E11.39092
G1 X101.023 Y94.747 E11.40882
G1 X101.514 Y94.831 E11.42669
G1 X102.484 Y95.045 E11.46233
G1 X102.955 Y95.178 E11.47987
G1 X103.026 Y95.218 E11.48282
G1 X103.148 Y95.338 E11.48894
G1 X103.440 Y95.465 E11.50038
G1 X104.222 Y95.928 E11.53298
G1 X104.604 Y96.185 E11.54948
G1 X104.974 Y96.508 E11.56712
G1 X105.590 Y97.109 E11.59797
G1 X105.898 Y97.523 E11.61648
G1 X106.345 Y98.207 E11.64581
G1 X106.545 Y98.666 E11.66376
G1 X106.821 Y99.437 E11.69314
G1 X106.897 Y99.889 E11.70955
G1 X106.981 Y100.680 E11.73808
G1 X106.947 Y101.143 E11.75473
G1 X106.840 Y101.912 E11.78259
G1 X106.694 Y102.381 E11.80021
G1 X106.325 Y103.264 E11.83454
G1 X105.893 Y103.918 E11.86265
G1 X105.597 Y104.315 E11.88040
G1 X104.974 Y104.921 E11.91157
G1 X104.608 Y105.238 E11.92895
G1 X103.822 Y105.738 E11.96238
G1 X103.399 Y105.974 E11.97972
G1 X103.202 Y106.055 E11.98738
G1 X102.486 Y106.327 E12.01486
G1 X102.013 Y106.476 E12.03265
G1 X101.523 Y106.574 E12.05056
G1 X100.680 Y106.702 E12.08117
G1 X99.974 Y106.717 E12.10648
G1 X99.272 Y106.697 E12.13166
G1 X98.477 Y106.574 E12.16054
G1 X97.926 Y106.461 E12.18072
G1 X97.052 Y106.158 E12.21387
G1 X96.600 Y105.974 E12.23138
G1 X96.178 Y105.739 E12.24872
G1 X95.432 Y105.269 E12.28035
G1 X94.689 Y104.607 E12.31604
G1 X94.373 Y104.279 E12.33236
G1 X93.857 Y103.553 E12.36431
G1 X93.647 Y103.213 E12.37864
G1 X93.459 Y102.780 E12.39557
G1 X93.173 Y101.982 E12.42600
G1 X93.052 Y101.143 E12.45641
G1 X93.018 Y100.680 E12.47306
G1 X93.102 Y99.888 E12.50160 F1021.350
G1 X93.171 Y99.471 E12.51677
G1 X93.300 Y99.066 E12.53203
G1 X93.653 Y98.208 E12.56532
G1 X93.850 Y97.889 E12.57874
G1 X94.227 Y97.352 E12.60227
G1 F2400.000 E9.90227
G92 E0
G1 Z2.750 F3000.000
G1 X94.780 Y97.742 F3000.000
G1 E2.70000 F2400.000
G1 X94.928 Y97.532 E2.71934 F1049.661
G1 X95.821 Y96.717 E2.81068
G1 X96.934 Y96.061 E2.90822
G1 X98.076 Y95.644 E3.00000
G1 X99.354 Y95.422 E3.09798
G1 X100.644 Y95.422 E3.19544
G1 X100.813 Y95.451 E3.20838
G1 X101.918 Y95.645 E3.29312 F1049.661
G1 X103.042 Y96.055 E3.38343
G1 X104.177 Y96.717 E3.48266
G1 X105.070 Y97.532 E3.57400
G1 X105.750 Y98.498 E3.66317
G1 X106.175 Y99.574 E3.75057
G1 X106.321 Y100.709 E3.83701
