; generated by Slic3r 1.2.0 on 2014-09-18 at 11:26:57

; external perimeters extrusion width = 0.30mm
; perimeters extrusion width = 0.90mm
; infill extrusion width = 0.50mm
; solid infill extrusion width = 0.50mm
; top infill extrusion width = 0.60mm

G21 ; set units to millimeters
M107
M104 S210 ; set temperature
G21           ;metric is good!
G90           ;absolute positioning
G28           ;go home
G92 E0        ;reset extruder
M109 S210 ; wait for temperature to be reached
G90 ; use absolute coordinates
G92 E0
M82 ; use absolute distances for extrusion
G1 F2400.000 E-2.70000
G92 E0
G1 Z0.150 F3000.000
G1 X63.216 Y64.700 F3000.000
G1 E2.70000 F2400.000
G1 X63.674 Y64.270 E2.72774 F600.000
G1 X64.161 Y63.872 E2.75548
G1 X64.674 Y63.508 E2.78325
G1 X65.211 Y63.178 E2.81108
G1 X65.558 Y62.991 E2.82846
G1 X66.356 Y62.626 E2.86720
G1 X66.954 Y62.408 E2.89529
G1 X67.564 Y62.230 E2.92335
G1 X68.186 Y62.092 E2.95145
G1 X68.817 Y61.996 E2.97963
G1 X69.217 Y61.957 E2.99735
G1 X70.127 Y61.927 E3.03756
G1 X70.784 Y61.957 E3.06655 F600.000
G1 X71.400 Y62.024 E3.09392
G1 X72.028 Y62.135 E3.12204
G1 X72.647 Y62.287 E3.15019
G1 X73.255 Y62.478 E3.17830
G1 X73.852 Y62.712 E3.20659
G1 X74.444 Y62.992 E3.23549
G1 X74.981 Y63.291 E3.26262
G1 X75.511 Y63.633 E3.29047
G1 X76.018 Y64.012 E3.31843
G1 X76.497 Y64.424 E3.34629
G1 X76.948 Y64.870 E3.37428
G1 X77.367 Y65.347 E3.40231
G1 X77.752 Y65.858 E3.43054
G1 X78.097 Y66.395 E3.45871
G1 X78.401 Y66.956 E3.48689
G1 X78.662 Y67.541 E3.51514
G1 X78.877 Y68.147 E3.54351
G1 X79.044 Y68.766 E3.57181
G1 X79.160 Y69.396 E3.60010
G1 X79.227 Y70.034 E3.62841
G1 X79.242 Y70.678 E3.65681
G1 X79.205 Y71.318 E3.68510
G1 X79.118 Y71.952 E3.71334
G1 X78.981 Y72.576 E3.74157
G1 X78.795 Y73.190 E3.76986
G1 X78.668 Y73.529 E3.78586
G1 X78.285 Y74.357 E3.82610
G1 X77.966 Y74.907 E3.85416
G1 X77.605 Y75.432 E3.88228
G1 X77.208 Y75.927 E3.91027
G1 X76.778 Y76.390 E3.93820
G1 X76.315 Y76.822 E3.96613
G1 X75.822 Y77.221 E3.99411
G1 X75.304 Y77.583 E4.02200
G1 X74.764 Y77.909 E4.04985
G1 X74.418 Y78.091 E4.06708
G1 X73.621 Y78.449 E4.10565
G1 X73.026 Y78.661 E4.13352
G1 X72.419 Y78.834 E4.16137
G1 X71.802 Y78.967 E4.18925
G1 X71.175 Y79.061 E4.21721
G1 X70.545 Y79.115 E4.24510
G1 X70.020 Y79.130 E4.26832
G1 X69.224 Y79.099 E4.30347
G1 X68.612 Y79.034 E4.33063
G1 X67.988 Y78.926 E4.35856
G1 X67.373 Y78.779 E4.38648
G1 X66.750 Y78.586 E4.41527
G1 X66.174 Y78.365 E4.44248
G1 X65.598 Y78.100 E4.47047
G1 X65.041 Y77.797 E4.49845
G1 X64.505 Y77.456 E4.52647
G1 X63.993 Y77.078 E4.55459
G1 X63.509 Y76.665 E4.58266
G1 X63.056 Y76.219 E4.61073
G1 X62.624 Y75.726 E4.63964
G1 X62.249 Y75.229 E4.66711
G1 X62.044 Y74.921 E4.68343
G1 X61.599 Y74.130 E4.72349
G1 X61.338 Y73.545 E4.75175
G1 X61.123 Y72.940 E4.78012
G1 X60.956 Y72.320 E4.80842
G1 X60.840 Y71.690 E4.83670
G1 X60.773 Y71.052 E4.86502
G1 X60.758 Y70.409 E4.89342
G1 X60.795 Y69.769 E4.92171
G1 X60.882 Y69.135 E4.94995
G1 X61.019 Y68.510 E4.97819
G1 X61.118 Y68.163 E4.99410
G1 X61.438 Y67.303 E5.03461
G1 X61.714 Y66.730 E5.06268
G1 X62.033 Y66.181 E5.09072
G1 X62.393 Y65.656 E5.11878
G1 X62.622 Y65.361 E5.13527
G1 X63.185 Y64.733 E5.17248
G1 X63.675 Y65.185 F3000.000
G1 X64.103 Y64.782 E5.19843 F600.000
G1 X64.554 Y64.412 E5.22416
G1 X65.030 Y64.073 E5.24994
G1 X65.529 Y63.766 E5.27581
G1 X65.875 Y63.579 E5.29318
G1 X66.592 Y63.250 E5.32797
G1 X67.148 Y63.047 E5.35410
G1 X67.716 Y62.880 E5.38023
G1 X68.295 Y62.751 E5.40640
G1 X68.882 Y62.660 E5.43265
G1 X69.282 Y62.621 E5.45036
G1 X70.106 Y62.594 E5.48675
G1 X70.699 Y62.619 E5.51296 F600.000
G1 X71.292 Y62.683 E5.53925
G1 X71.895 Y62.790 E5.56630
G1 X72.453 Y62.926 E5.59165
G1 X73.019 Y63.103 E5.61781
G1 X73.574 Y63.319 E5.64411
G1 X74.126 Y63.579 E5.67104
G1 X74.625 Y63.856 E5.69620
G1 X75.118 Y64.173 E5.72208
G1 X75.590 Y64.524 E5.74802
G1 X76.034 Y64.905 E5.77385
G1 X76.452 Y65.317 E5.79975
G1 X76.840 Y65.757 E5.82565
G1 X77.196 Y66.227 E5.85168
G1 X77.515 Y66.721 E5.87763
G1 X77.796 Y67.238 E5.90357
G1 X78.037 Y67.775 E5.92954
G1 X78.235 Y68.330 E5.95558
G1 X78.389 Y68.898 E5.98155
G1 X78.497 Y69.476 E6.00750
G1 X78.559 Y70.061 E6.03346
G1 X78.574 Y70.651 E6.05949
G1 X78.542 Y71.237 E6.08542
G1 X78.464 Y71.819 E6.11133
G1 X78.339 Y72.393 E6.13723
G1 X78.169 Y72.956 E6.16320
G1 X78.043 Y73.296 E6.17919
G1 X77.703 Y74.030 E6.21490
G1 X77.410 Y74.537 E6.24075
G1 X77.078 Y75.022 E6.26666
G1 X76.713 Y75.479 E6.29249
G1 X76.316 Y75.908 E6.31830
G1 X75.888 Y76.308 E6.34414
G1 X75.432 Y76.678 E6.37006
G1 X74.953 Y77.015 E6.39592
G1 X74.451 Y77.318 E6.42178
G1 X74.106 Y77.501 E6.43902
G1 X73.390 Y77.822 E6.47366
G1 X72.836 Y78.021 E6.49961
G1 X72.271 Y78.182 E6.52556
G1 X71.696 Y78.308 E6.55155
G1 X71.112 Y78.396 E6.57761
G1 X70.524 Y78.447 E6.60363
G1 X70.020 Y78.462 E6.62592
G1 X69.287 Y78.434 E6.65826
G1 X68.718 Y78.374 E6.68352
G1 X68.136 Y78.275 E6.70956
G1 X67.563 Y78.139 E6.73558
G1 X66.981 Y77.959 E6.76245
G1 X66.446 Y77.756 E6.78771
G1 X65.910 Y77.510 E6.81373
G1 X65.393 Y77.229 E6.83972
G1 X64.895 Y76.914 E6.86572
G1 X64.419 Y76.564 E6.89177
G1 X63.971 Y76.183 E6.91775
G1 X63.551 Y75.771 E6.94371
G1 X63.151 Y75.316 E6.97046
G1 X62.805 Y74.859 E6.99572
G1 X62.600 Y74.552 E7.01204
G1 X62.204 Y73.849 E7.04764
G1 X61.963 Y73.312 E7.07361
G1 X61.765 Y72.756 E7.09965
G1 X61.611 Y72.188 E7.12562
G1 X61.503 Y71.610 E7.15157
G1 X61.441 Y71.025 E7.17753
G1 X61.426 Y70.436 E7.20356
G1 X61.458 Y69.849 E7.22949
G1 X61.536 Y69.267 E7.25540
G1 X61.661 Y68.693 E7.28131
G1 X61.760 Y68.347 E7.29722
G1 X62.043 Y67.584 E7.33313
G1 X62.297 Y67.057 E7.35895
G1 X62.590 Y66.550 E7.38477
G1 X62.920 Y66.066 E7.41064
G1 X63.149 Y65.771 E7.42712
G1 X63.645 Y65.218 E7.45989
G1 F2400.000 E4.75989
G92 E0
G1 X66.386 Y68.225 F3000.000
G1 E2.70000 F2400.000
G1 X66.978 Y67.686 E2.73532 F600.000
G1 X67.714 Y67.247 E2.77315
G1 X68.600 Y66.913 E2.81493
G1 X69.531 Y66.751 E2.85665
G1 X70.516 Y66.759 E2.90011
G1 X71.390 Y66.912 E2.93928 F600.000
G1 X72.248 Y67.226 E2.97962
G1 X73.021 Y67.686 E3.01931
G1 X73.663 Y68.271 E3.05764
G1 X74.148 Y68.961 E3.09487
G1 X74.451 Y69.727 E3.13119
G1 X74.554 Y70.532 E3.16702
G1 X74.451 Y71.337 E3.20285
G1 X74.148 Y72.103 E3.23918
G1 X73.663 Y72.793 E3.27641
G1 X73.021 Y73.378 E3.31474
G1 X72.249 Y73.838 E3.35439
G1 X71.427 Y74.139 E3.39304
G1 X70.468 Y74.313 E3.43606
G1 X69.531 Y74.313 E3.47740
G1 X68.611 Y74.152 E3.51862
G1 X67.749 Y73.838 E3.55909
G1 X67.035 Y73.412 E3.59578
G1 X66.336 Y72.793 E3.63702
G1 X65.850 Y72.103 E3.67425
G1 X65.548 Y71.337 E3.71058
G1 X65.444 Y70.532 E3.74641
G1 X65.548 Y69.727 E3.78224
G1 X65.850 Y68.961 E3.81856
G1 X66.353 Y68.256 E3.85679
G1 X65.585 Y67.564 F3000.000
G1 X66.050 Y67.087 E3.88618 F600.000
G1 X66.339 Y66.845 E3.90283
G1 X66.647 Y66.621 E3.91965
G1 X66.973 Y66.416 E3.93663
G1 X67.314 Y66.231 E3.95372
G1 X67.669 Y66.069 E3.97093
G1 X68.035 Y65.931 E3.98821
G1 X68.412 Y65.817 E4.00560
G1 X68.797 Y65.727 E4.02304
G1 X69.188 Y65.663 E4.04053
G1 X69.583 Y65.624 E4.05805
G1 X69.980 Y65.611 E4.07560
G1 X70.417 Y65.624 E4.09488
G1 X70.812 Y65.663 E4.11240 F600.000
G1 X71.203 Y65.727 E4.12989
G1 X71.588 Y65.817 E4.14733
G1 X71.965 Y65.931 E4.16472
G1 X72.331 Y66.069 E4.18200
G1 X72.686 Y66.231 E4.19921
G1 X73.027 Y66.416 E4.21630
G1 X73.353 Y66.621 E4.23329
G1 X73.661 Y66.845 E4.25010
G1 X73.950 Y67.087 E4.26676
G1 X74.219 Y67.346 E4.28322
G1 X74.466 Y67.620 E4.29951
G1 X74.690 Y67.908 E4.31561
G1 X74.890 Y68.209 E4.33156
G1 X75.065 Y68.521 E4.34736
G1 X75.214 Y68.843 E4.36302
G1 X75.338 Y69.173 E4.37857
G1 X75.434 Y69.510 E4.39402
G1 X75.503 Y69.852 E4.40940
G1 X75.545 Y70.197 E4.42474
G1 X75.559 Y70.543 E4.44004
G1 X75.545 Y70.890 E4.45535
G1 X75.503 Y71.235 E4.47069
G1 X75.434 Y71.576 E4.48607
G1 X75.338 Y71.913 E4.50152
G1 X75.214 Y72.243 E4.51707
G1 X75.065 Y72.565 E4.53273
G1 X74.890 Y72.877 E4.54852
G1 X74.690 Y73.177 E4.56444
G1 X74.466 Y73.465 E4.58052
G1 X74.219 Y73.738 E4.59676
G1 X73.951 Y73.995 E4.61317
G1 X73.662 Y74.234 E4.62972
G1 X73.354 Y74.455 E4.64644
G1 X73.029 Y74.657 E4.66331
G1 X72.689 Y74.837 E4.68032
G1 X72.334 Y74.995 E4.69746
G1 X71.967 Y75.131 E4.71472
G1 X71.590 Y75.242 E4.73208
G1 X71.205 Y75.330 E4.74952
G1 X70.813 Y75.393 E4.76702
G1 X70.417 Y75.431 E4.78456
G1 X70.020 Y75.444 E4.80213
G1 X69.583 Y75.431 E4.82143
G1 X69.187 Y75.393 E4.83897
G1 X68.795 Y75.330 E4.85647
G1 X68.410 Y75.242 E4.87391
G1 X68.033 Y75.131 E4.89127
G1 X67.666 Y74.995 E4.90853
G1 X67.311 Y74.837 E4.92567
G1 X66.971 Y74.657 E4.94268
G1 X66.646 Y74.455 E4.95955
G1 X66.338 Y74.234 E4.97627
G1 X66.049 Y73.995 E4.99283
G1 X65.781 Y73.738 E5.00923
G1 X65.534 Y73.465 E5.02547
G1 X65.310 Y73.177 E5.04155
G1 X65.110 Y72.877 E5.05747
G1 X64.935 Y72.565 E5.07326
G1 X64.786 Y72.243 E5.08893
G1 X64.662 Y71.913 E5.10447
G1 X64.566 Y71.576 E5.11992
G1 X64.497 Y71.235 E5.13531
G1 X64.455 Y70.890 E5.15064
G1 X64.441 Y70.543 E5.16595
G1 X64.455 Y70.197 E5.18125
G1 X64.497 Y69.852 E5.19659
G1 X64.566 Y69.510 E5.21198
G1 X64.662 Y69.173 E5.22743
G1 X64.786 Y68.843 E5.24297
G1 X64.935 Y68.521 E5.25864
G1 X65.110 Y68.209 E5.27444
G1 X65.310 Y67.908 E5.29038
G1 X65.555 Y67.597 E5.30785
G1 X64.944 Y70.573 F3000.000
G1 X65.056 Y71.457 E5.32654 F600.000
G1 X65.155 Y71.751 E5.33306
G1 X65.391 Y72.331 E5.34623
G1 X65.559 Y72.602 E5.35292
G1 X65.934 Y73.129 E5.36650
G1 X66.166 Y73.364 E5.37343
G1 X66.643 Y73.794 E5.38692
G1 X66.950 Y73.999 E5.39468
G1 X67.534 Y74.339 E5.40887
G1 X68.453 Y74.681 E5.42945
G1 X68.903 Y74.776 E5.43912
G1 X69.467 Y74.864 E5.45110
G1 X70.020 Y74.878 E5.46272
G1 X70.532 Y74.864 E5.47348
G1 X71.097 Y74.776 E5.48549
G1 X71.546 Y74.681 E5.49514
G1 X72.464 Y74.339 E5.51572
G1 X73.050 Y73.999 E5.52994
G1 X73.356 Y73.795 E5.53767
G1 X73.834 Y73.363 E5.55118
G1 X74.065 Y73.128 E5.55811
G1 X74.440 Y72.602 E5.57169
G1 X74.608 Y72.331 E5.57838
G1 X74.942 Y71.464 E5.59790
G1 X74.994 Y71.153 E5.60452
G1 X75.056 Y70.556 E5.61712
G1 X75.055 Y70.497 F3000.000
G1 X74.974 Y69.801 E5.63184 F600.000
G1 X74.785 Y69.654 E5.63686
G1 X74.884 Y69.437 E5.64187
G1 X74.623 Y68.776 E5.65681
G1 X74.264 Y68.215 E5.67080
G1 X74.064 Y67.945 E5.67786
G1 X73.838 Y67.714 E5.68463
G1 X73.336 Y67.261 E5.69885
G1 X72.751 Y66.888 E5.71341
G1 X72.462 Y66.726 E5.72036
G1 X71.520 Y66.374 E5.74148
G1 X71.093 Y66.284 E5.75066
G1 X70.533 Y66.196 E5.76256
G1 X70.020 Y66.181 E5.77334
G1 X69.503 Y66.193 E5.78419
G1 X68.907 Y66.284 E5.79685
G1 X68.475 Y66.374 E5.80612
G1 X67.556 Y66.718 E5.82673
G1 X66.952 Y67.070 E5.84142
G1 X66.647 Y67.274 E5.84913
G1 X66.162 Y67.714 E5.86288
G1 X65.930 Y67.952 E5.86985
G1 X65.412 Y68.701 E5.88899
G1 X65.263 Y69.043 E5.89682
G1 X65.064 Y69.589 E5.90903
M104 S197 ; set temperature
G1 F2400.000 E3.20903
G92 E0
G1 Z0.350 F3000.000
G1 X65.196 Y69.636 F3000.000
G1 E2.70000 F2400.000
G1 X65.531 Y68.789 E2.76878 F620.396
G1 X66.064 Y68.032 E2.83869
G1 X66.761 Y67.396 E2.90996
G1 X67.565 Y66.917 E2.98065
G1 X67.987 Y66.754 E3.01482
G1 X67.987 Y66.654 E3.02236
G1 X69.501 Y66.391 E3.13838
G1 X70.498 Y66.391 E3.21368
G1 X70.618 Y66.411 E3.22293
G1 X71.485 Y66.564 E3.28935 F620.396
G1 X72.348 Y66.879 E3.35871
G1 X73.238 Y67.396 E3.43647
G1 X73.935 Y68.032 E3.50774
G1 X74.467 Y68.789 E3.57764
G1 X74.803 Y69.636 E3.64643
G1 X74.917 Y70.532 E3.71461
G1 X74.803 Y71.428 E3.78281
G1 X74.467 Y72.274 E3.85159
G1 X73.935 Y73.032 E3.92149
G1 X73.238 Y73.667 E3.99277
G1 X72.403 Y74.165 E4.06615
G1 X72.257 Y74.218 E4.07784
G1 X71.481 Y74.501 E4.14028
G1 X70.498 Y74.673 E4.21562
G1 X69.501 Y74.673 E4.29091
G1 X68.642 Y74.523 E4.35677
G1 X68.518 Y74.501 E4.36626
G1 X67.596 Y74.165 E4.44038
G1 X66.761 Y73.667 E4.51377
G1 X66.064 Y73.032 E4.58505
G1 X65.531 Y72.274 E4.65495
G1 X65.196 Y71.428 E4.72373
G1 X65.081 Y70.532 E4.79193
G1 X65.190 Y69.681 E4.85672
G1 X65.740 Y69.776 F3000.000
G1 X66.025 Y69.056 E4.87427 F620.396
G1 X66.484 Y68.403 E4.89235
G1 X67.095 Y67.845 E4.91110
G1 X67.826 Y67.409 E4.93037
G1 X68.544 Y67.144 E4.94771
G1 X68.544 Y67.123 E4.94819
G1 X69.547 Y66.948 E4.97125
G1 X70.335 Y66.948 E4.98909
G1 X70.451 Y66.948 E4.99173 F620.396
G1 X71.338 Y67.103 E5.01212
G1 X72.203 Y67.427 E5.03305
G1 X72.903 Y67.845 E5.05151
G1 X73.514 Y68.403 E5.07025
G1 X73.974 Y69.056 E5.08834
G1 X74.259 Y69.776 E5.10589
G1 X74.356 Y70.532 E5.12315
G1 X74.259 Y71.287 E5.14040
G1 X73.974 Y72.008 E5.15796
G1 X73.514 Y72.661 E5.17604
G1 X72.903 Y73.219 E5.19479
G1 X72.166 Y73.658 E5.21423
G1 X72.065 Y73.695 E5.21666
G1 X71.337 Y73.961 E5.23421
G1 X70.451 Y74.116 E5.25458
G1 X69.547 Y74.116 E5.27506
G1 X68.739 Y73.975 E5.29365
G1 X67.833 Y73.658 E5.31539
G1 X67.095 Y73.219 E5.33484
G1 X66.484 Y72.661 E5.35358
G1 X66.025 Y72.008 E5.37166
G1 X65.740 Y71.287 E5.38922
G1 X65.643 Y70.532 E5.40647
G1 X65.734 Y69.821 E5.42271
G1 X64.432 Y69.558 F3000.000
G1 X64.540 Y69.164 E5.45353 F620.396
G1 X64.664 Y68.831 E5.48036
G1 X64.816 Y68.506 E5.50747
G1 X64.993 Y68.189 E5.53487
G1 X65.196 Y67.884 E5.56258
G1 X65.424 Y67.590 E5.59063
G1 X65.676 Y67.309 E5.61911
G1 X65.950 Y67.044 E5.64794
G1 X66.246 Y66.795 E5.67717
G1 X66.561 Y66.563 E5.70671
G1 X66.895 Y66.352 E5.73657
G1 X67.244 Y66.161 E5.76660
G1 X67.608 Y65.994 E5.79682
G1 X67.983 Y65.851 E5.82715
G1 X68.370 Y65.733 E5.85769
G1 X68.765 Y65.640 E5.88833
G1 X69.166 Y65.574 E5.91906
G1 X69.572 Y65.534 E5.94985
G1 X70.000 Y65.521 E5.98217
G1 X70.428 Y65.534 E6.01450 F620.396
G1 X70.834 Y65.574 E6.04528
G1 X71.235 Y65.640 E6.07602
G1 X71.630 Y65.733 E6.10666
G1 X72.017 Y65.851 E6.13720
G1 X72.392 Y65.994 E6.16753
G1 X72.756 Y66.161 E6.19775
G1 X73.105 Y66.352 E6.22777
G1 X73.439 Y66.563 E6.25764
G1 X73.754 Y66.795 E6.28717
G1 X74.050 Y67.044 E6.31640
G1 X74.324 Y67.309 E6.34523
G1 X74.576 Y67.590 E6.37371
G1 X74.804 Y67.884 E6.40177
G1 X75.007 Y68.189 E6.42948
G1 X75.184 Y68.506 E6.45687
G1 X75.336 Y68.831 E6.48398
G1 X75.460 Y69.164 E6.51082
G1 X75.557 Y69.503 E6.53746
G1 X75.627 Y69.847 E6.56397
G1 X75.668 Y70.195 E6.59038
G1 X75.683 Y70.543 E6.61672
G1 X75.668 Y70.892 E6.64306
G1 X75.627 Y71.239 E6.66948
G1 X75.557 Y71.583 E6.69599
G1 X75.460 Y71.922 E6.72263
G1 X75.336 Y72.255 E6.74946
G1 X75.184 Y72.580 E6.77655
G1 X75.007 Y72.896 E6.80389
G1 X74.805 Y73.200 E6.83150
G1 X74.578 Y73.492 E6.85943
G1 X74.327 Y73.770 E6.88769
G1 X74.053 Y74.032 E6.91628
G1 X73.759 Y74.276 E6.94518
G1 X73.445 Y74.502 E6.97440
G1 X73.112 Y74.708 E7.00394
G1 X72.763 Y74.892 E7.03377
G1 X72.399 Y75.055 E7.06385
G1 X72.023 Y75.194 E7.09415
G1 X71.635 Y75.309 E7.12468
G1 X71.239 Y75.399 E7.15537
G1 X70.836 Y75.464 E7.18617
G1 X70.429 Y75.503 E7.21706
G1 X69.980 Y75.516 E7.25096
G1 X69.571 Y75.503 E7.28190
G1 X69.164 Y75.464 E7.31279
G1 X68.761 Y75.399 E7.34359
G1 X68.365 Y75.309 E7.37428
G1 X67.977 Y75.194 E7.40480
G1 X67.601 Y75.055 E7.43511
G1 X67.237 Y74.892 E7.46519
G1 X66.888 Y74.708 E7.49502
G1 X66.555 Y74.502 E7.52456
G1 X66.241 Y74.276 E7.55378
G1 X65.947 Y74.032 E7.58268
G1 X65.673 Y73.770 E7.61127
G1 X65.422 Y73.492 E7.63953
G1 X65.195 Y73.200 E7.66746
G1 X64.993 Y72.896 E7.69507
G1 X64.815 Y72.580 E7.72241
G1 X64.664 Y72.255 E7.74950
G1 X64.540 Y71.922 E7.77633
G1 X64.443 Y71.583 E7.80297
G1 X64.373 Y71.239 E7.82948
G1 X64.332 Y70.892 E7.85590
G1 X64.317 Y70.543 E7.88224
G1 X64.332 Y70.195 E7.90858
G1 X64.423 Y69.602 E7.95388
G1 X63.877 Y69.491 F3000.000
G1 X64.048 Y68.858 E7.97431 F1200.000
G1 X64.150 Y68.616 E7.98248
G1 X64.319 Y68.252 E7.99499
G1 X64.517 Y67.899 E8.00760
G1 X64.743 Y67.558 E8.02032
G1 X64.996 Y67.233 E8.03316
G1 X65.274 Y66.923 E8.04613
G1 X65.502 Y66.702 E8.05601
G1 X65.901 Y66.356 E8.07246
G1 X66.247 Y66.103 E8.08581
G1 X66.612 Y65.871 E8.09928
G1 X66.995 Y65.663 E8.11283
G1 X67.392 Y65.480 E8.12646
G1 X67.803 Y65.324 E8.14014
G1 X68.225 Y65.195 E8.15388
G1 X68.656 Y65.094 E8.16767
G1 X69.093 Y65.021 E8.18149
G1 X69.536 Y64.978 E8.19533
G1 X69.980 Y64.963 E8.20918
G1 X70.355 Y64.974 E8.22084
G1 X70.907 Y65.021 E8.23809 F1200.000
G1 X71.344 Y65.094 E8.25191
G1 X71.775 Y65.195 E8.26570
G1 X72.197 Y65.324 E8.27944
G1 X72.608 Y65.480 E8.29312
G1 X73.005 Y65.663 E8.30675
G1 X73.388 Y65.871 E8.32030
G1 X73.753 Y66.103 E8.33377
G1 X74.099 Y66.356 E8.34712
