; generated by Slic3r 1.2.0 on 2015-01-08 at 16:03:14

; external perimeters extrusion width = 0.30mm
; perimeters extrusion width = 0.90mm
; infill extrusion width = 0.50mm
; solid infill extrusion width = 0.50mm
; top infill extrusion width = 0.60mm
; support material extrusion width = 0.30mm

G21 ; set units to millimeters
M107
M104 S210 ; set temperature
G21           ;metric is good!
G90           ;absolute positioning
G28           ;go home
G92 E0        ;reset extruder
M109 S210 ; wait for temperature to be reached
G90 ; use absolute coordinates
G92 E0
M82 ; use absolute distances for extrusion
G1 F2400.000 E-2.70000
G92 E0
G1 Z0.050 F4800.000
G1 X51.734 Y51.479 F4800.000
G1 E2.70000 F2400.000
G1 X53.023 Y50.273 E2.78087 F600.000
G1 X54.550 Y49.076 E2.86976
G1 X60.898 Y45.566 E3.20206
G1 X61.739 Y45.268 E3.24290
G1 X63.312 Y44.795 E3.31817
G1 X64.158 Y44.576 E3.35819
G1 X65.728 Y44.251 E3.43166
G1 X67.144 Y44.054 E3.49716
G1 X67.880 Y43.981 E3.53102
G1 X69.305 Y43.887 E3.59644
G1 X70.632 Y43.878 E3.65726
G1 X71.745 Y43.944 E3.70834 F600.000
G1 X78.268 Y45.166 E4.01233
G1 X78.867 Y45.373 E4.04138
G1 X80.066 Y45.831 E4.10017
G1 X81.170 Y46.326 E4.15558
G1 X82.713 Y47.106 E4.23479
G1 X83.362 Y47.465 E4.26879
G1 X84.921 Y48.456 E4.35341
G1 X86.381 Y49.532 E4.43648
G1 X86.847 Y49.912 E4.46406
G1 X87.323 Y50.314 E4.49257
G1 X88.110 Y51.061 E4.54227
G1 X91.914 Y55.671 E4.81611
G1 X92.512 Y56.496 E4.86278
G1 X93.261 Y57.825 E4.93265
G1 X93.560 Y58.434 E4.96374
G1 X93.917 Y59.175 E5.00142
G1 X94.530 Y60.645 E5.07437
G1 X94.830 Y61.461 E5.11421
G1 X95.354 Y63.158 E5.19557
G1 X95.784 Y64.992 E5.28187
G1 X95.997 Y66.476 E5.35056
G1 X95.896 Y74.397 E5.71345
G1 X95.434 Y76.515 E5.81275
G1 X95.157 Y77.298 E5.85080
G1 X91.433 Y84.589 E6.22586
G1 X87.544 Y89.492 E6.51256
G1 X86.349 Y90.490 E6.58388
G1 X85.282 Y91.280 E6.64468
G1 X84.260 Y91.973 E6.70127
G1 X83.206 Y92.624 E6.75800
G1 X81.347 Y93.598 E6.85416
G1 X79.632 Y94.340 E6.93976
G1 X78.795 Y94.653 E6.98069
G1 X77.571 Y95.028 E7.03934
G1 X71.161 Y96.110 E7.33714
G1 X70.465 Y96.124 E7.36904
G1 X69.058 Y96.101 E7.43352
G1 X67.817 Y96.013 E7.49050
G1 X67.096 Y95.942 E7.52367
G1 X65.852 Y95.764 E7.58125
G1 X65.198 Y95.645 E7.61170
G1 X63.963 Y95.379 E7.66958
G1 X62.177 Y94.878 E7.75459
G1 X61.014 Y94.478 E7.81091
G1 X60.046 Y94.064 E7.85914
G1 X54.030 Y90.565 E8.17794
G1 X53.531 Y90.161 E8.20736
G1 X52.542 Y89.301 E8.26742
G1 X51.173 Y87.954 E8.35536
G1 X50.327 Y87.012 E8.41339
G1 X49.879 Y86.474 E8.44546
G1 X49.037 Y85.387 E8.50846
G1 X48.296 Y84.303 E8.56860
G1 X47.883 Y83.667 E8.60334
G1 X47.516 Y83.051 E8.63622
G1 X46.970 Y81.994 E8.69069
G1 X44.548 Y75.225 E9.02005
G1 X44.367 Y74.214 E9.06709
G1 X44.222 Y73.165 E9.11560
G1 X44.104 Y71.996 E9.16943
G1 X44.045 Y70.773 E9.22553
G1 X44.037 Y69.425 E9.28727
G1 X44.110 Y67.900 E9.35723
G1 X44.426 Y65.684 E9.45978
G1 X46.953 Y58.173 E9.82281
G1 X48.066 Y56.051 E9.93258
G1 X50.266 Y53.054 E10.10287
G1 X51.703 Y51.512 E10.19947
G1 X52.191 Y51.966 F4800.000
G1 X53.450 Y50.787 E10.27850 F600.000
G1 X54.877 Y49.658 E10.36184
G1 X61.123 Y46.195 E10.68899
G1 X61.941 Y45.905 E10.72876
G1 X63.482 Y45.440 E10.80249
G1 X64.297 Y45.229 E10.84105
G1 X65.821 Y44.912 E10.91238
G1 X67.212 Y44.719 E10.97671
G1 X67.926 Y44.647 E11.00961
G1 X69.315 Y44.555 E11.07334
G1 X70.617 Y44.546 E11.13302
G1 X71.626 Y44.601 E11.17931 F600.000
G1 X78.052 Y45.798 E11.47875
G1 X78.634 Y45.998 E11.50694
G1 X79.794 Y46.441 E11.56383
G1 X80.873 Y46.924 E11.61799
G1 X82.394 Y47.693 E11.69608
G1 X83.008 Y48.032 E11.72818
G1 X84.529 Y48.996 E11.81067
G1 X85.959 Y50.050 E11.89206
G1 X86.417 Y50.423 E11.91915
G1 X86.882 Y50.815 E11.94700
G1 X87.595 Y51.486 E11.99183
G1 X91.384 Y56.077 E12.26455
G1 X91.935 Y56.832 E12.30733
G1 X92.661 Y58.118 E12.37502
G1 X92.959 Y58.727 E12.40606
G1 X93.305 Y59.441 E12.44238
G1 X93.904 Y60.877 E12.51368
G1 X94.195 Y61.667 E12.55226
G1 X94.706 Y63.319 E12.63149
G1 X95.127 Y65.111 E12.71581
G1 X95.329 Y66.474 E12.77892
G1 X95.244 Y74.254 E13.13538
G1 X94.560 Y76.999 E13.26493
G1 X90.905 Y84.180 E13.63409
G1 X87.113 Y88.981 E13.91433
G1 X85.950 Y89.954 E13.98381
G1 X84.906 Y90.728 E14.04335
G1 X83.906 Y91.407 E14.09872
G1 X82.889 Y92.037 E14.15353
G1 X81.076 Y92.988 E14.24734
G1 X79.397 Y93.715 E14.33113
G1 X78.580 Y94.021 E14.37111
G1 X77.456 Y94.370 E14.42501
G1 X71.146 Y95.442 E14.71821
G1 X70.468 Y95.456 E14.74928
G1 X69.104 Y95.435 E14.81178
G1 X67.189 Y95.280 E14.89978
G1 X65.970 Y95.107 E14.95621
G1 X65.337 Y94.992 E14.98568
G1 X64.132 Y94.733 E15.04213
G1 X62.388 Y94.244 E15.12513
G1 X61.253 Y93.854 E15.18009
G1 X60.378 Y93.485 E15.22360
G1 X54.449 Y90.045 E15.53762
G1 X53.964 Y89.653 E15.56617
G1 X53.005 Y88.821 E15.62434
G1 X51.670 Y87.508 E15.71015
G1 X50.839 Y86.583 E15.76711
G1 X50.405 Y86.063 E15.79812
G1 X49.585 Y85.007 E15.85937
G1 X48.855 Y83.937 E15.91871
G1 X48.456 Y83.325 E15.95218
G1 X48.097 Y82.723 E15.98430
G1 X47.598 Y81.765 E16.03378
G1 X45.205 Y75.105 E16.35796
G1 X45.028 Y74.121 E16.40375
G1 X44.886 Y73.095 E16.45120
G1 X44.771 Y71.963 E16.50337
G1 X44.713 Y70.767 E16.55821
G1 X44.704 Y69.454 E16.61835
G1 X44.774 Y67.972 E16.68631
G1 X45.060 Y65.894 E16.78241
G1 X47.550 Y58.472 E17.14104
G1 X48.607 Y56.443 E17.24586
G1 X50.756 Y53.508 E17.41249
G1 X52.160 Y51.999 E17.50694
G1 F2400.000 E14.80694
G92 E0
G1 X67.256 Y67.209 F4800.000
G1 E2.70000 F2400.000
G1 X67.458 Y67.014 E2.71285 F600.000
G1 X67.900 Y66.669 E2.73853
G1 X68.137 Y66.520 E2.75138
G1 X68.641 Y66.274 E2.77707
G1 X69.174 Y66.101 E2.80275
G1 X69.727 Y66.004 E2.82843
G1 X70.287 Y65.984 E2.85411
G1 X70.567 Y66.004 E2.86696
G1 X71.119 Y66.101 E2.89265 F600.000
G1 X71.652 Y66.274 E2.91833
G1 X71.908 Y66.388 E2.93118
G1 X72.394 Y66.669 E2.95686
G1 X72.835 Y67.014 E2.98254
G1 X73.225 Y67.417 E3.00822
G1 X73.398 Y67.638 E3.02107
G1 X73.695 Y68.113 E3.04676
G1 X73.923 Y68.626 E3.07244
G1 X74.077 Y69.165 E3.09812
G1 X74.126 Y69.441 E3.11097
G1 X74.155 Y69.720 E3.12382
G1 X74.155 Y70.280 E3.14950
G1 X74.077 Y70.835 E3.17519
G1 X73.923 Y71.374 E3.20087
G1 X73.818 Y71.634 E3.21372
G1 X73.554 Y72.129 E3.23940
G1 X73.225 Y72.583 E3.26509
G1 X72.835 Y72.986 E3.29077
G1 X72.621 Y73.167 E3.30362
G1 X72.156 Y73.480 E3.32930
G1 X71.652 Y73.726 E3.35498
G1 X71.388 Y73.822 E3.36783
G1 X70.844 Y73.957 E3.39351
G1 X70.287 Y74.016 E3.41920
G1 X69.727 Y73.996 E3.44488
G1 X69.449 Y73.957 E3.45773
G1 X68.905 Y73.822 E3.48341
G1 X68.641 Y73.726 E3.49626
G1 X68.137 Y73.480 E3.52194
G1 X67.673 Y73.167 E3.54763
G1 X67.256 Y72.791 E3.57331
G1 X66.896 Y72.362 E3.59899
G1 X66.739 Y72.129 E3.61184
G1 X66.476 Y71.634 E3.63752
G1 X66.284 Y71.108 E3.66321
G1 X66.167 Y70.559 E3.68889
G1 X66.128 Y70.000 E3.71457
G1 X66.138 Y69.720 E3.72742
G1 X66.216 Y69.165 E3.75310
G1 X66.370 Y68.626 E3.77879
G1 X66.476 Y68.366 E3.79164
G1 X66.739 Y67.871 E3.81732
G1 X66.896 Y67.638 E3.83017
G1 X67.226 Y67.242 E3.85379
G1 X67.722 Y67.689 F4800.000
G1 X68.084 Y67.360 E3.87619 F600.000
G1 X68.471 Y67.099 E3.89760
G1 X68.678 Y66.989 E3.90831
G1 X68.892 Y66.894 E3.91903
G1 X69.336 Y66.749 E3.94044
G1 X69.796 Y66.668 E3.96185
G1 X70.030 Y66.652 E3.97256
G1 X70.497 Y66.668 E3.99398 F600.000
G1 X70.728 Y66.701 E4.00469
G1 X71.182 Y66.814 E4.02610
G1 X71.402 Y66.894 E4.03681
G1 X71.822 Y67.099 E4.05822
G1 X72.209 Y67.360 E4.07964
G1 X72.557 Y67.673 E4.10105
G1 X72.857 Y68.031 E4.12246
G1 X72.988 Y68.225 E4.13317
G1 X73.207 Y68.637 E4.15459
G1 X73.367 Y69.077 E4.17600
G1 X73.464 Y69.534 E4.19741
G1 X73.489 Y69.766 E4.20812
G1 X73.489 Y70.234 E4.22953
G1 X73.424 Y70.697 E4.25095
G1 X73.295 Y71.146 E4.27236
G1 X73.207 Y71.363 E4.28307
G1 X72.988 Y71.775 E4.30448
G1 X72.857 Y71.969 E4.31520
G1 X72.557 Y72.327 E4.33661
G1 X72.209 Y72.640 E4.35802
G1 X71.822 Y72.901 E4.37943
G1 X71.615 Y73.011 E4.39014
G1 X71.182 Y73.186 E4.41156
G1 X70.728 Y73.299 E4.43297
G1 X70.497 Y73.332 E4.44368
G1 X70.030 Y73.348 E4.46509
G1 X69.796 Y73.332 E4.47581
G1 X69.336 Y73.251 E4.49722
G1 X68.892 Y73.106 E4.51863
G1 X68.678 Y73.011 E4.52934
G1 X68.273 Y72.777 E4.55075
G1 X68.084 Y72.640 E4.56147
G1 X67.737 Y72.327 E4.58288
G1 X67.436 Y71.969 E4.60429
G1 X67.305 Y71.775 E4.61500
G1 X67.086 Y71.363 E4.63641
G1 X66.926 Y70.923 E4.65783
G1 X66.829 Y70.466 E4.67924
G1 X66.796 Y70.000 E4.70065
G1 X66.805 Y69.766 E4.71136
G1 X66.870 Y69.303 E4.73278
G1 X66.998 Y68.854 E4.75419
G1 X67.086 Y68.637 E4.76490
G1 X67.305 Y68.225 E4.78631
G1 X67.436 Y68.031 E4.79702
G1 X67.692 Y67.722 E4.81538
G1 X60.597 Y58.421 F4800.000
G1 X60.901 Y58.166 E4.83354 F600.000
G1 X61.749 Y57.550 E4.88156
G1 X62.638 Y56.995 E4.92958
G1 X63.563 Y56.503 E4.97760
G1 X64.521 Y56.076 E5.02561
G1 X65.506 Y55.718 E5.07363
G1 X66.514 Y55.429 E5.12165
G1 X67.539 Y55.211 E5.16967
G1 X68.577 Y55.065 E5.21769
G1 X69.622 Y54.992 E5.26571
G1 X70.671 Y54.992 E5.31373 F600.000
G1 X71.716 Y55.065 E5.36175
G1 X72.754 Y55.211 E5.40976
G1 X73.780 Y55.429 E5.45778
G1 X74.787 Y55.718 E5.50580
G1 X75.772 Y56.076 E5.55382
G1 X76.730 Y56.503 E5.60184
G1 X77.655 Y56.995 E5.64986
G1 X78.544 Y57.550 E5.69788
G1 X79.392 Y58.166 E5.74590
G1 X80.195 Y58.840 E5.79391
G1 X80.949 Y59.568 E5.84193
G1 X81.650 Y60.347 E5.88995
G1 X82.296 Y61.173 E5.93797
G1 X82.882 Y62.042 E5.98599
G1 X83.406 Y62.950 E6.03401
G1 X83.866 Y63.892 E6.08203
G1 X84.258 Y64.864 E6.13004
G1 X84.582 Y65.861 E6.17806
G1 X84.836 Y66.878 E6.22608
G1 X85.018 Y67.910 E6.27410
G1 X85.127 Y68.952 E6.32212
G1 X85.164 Y70.000 E6.37014
G1 X85.127 Y71.048 E6.41816
G1 X85.018 Y72.090 E6.46618
G1 X84.836 Y73.122 E6.51420
G1 X84.582 Y74.139 E6.56221
G1 X84.258 Y75.136 E6.61023
G1 X83.866 Y76.108 E6.65825
G1 X83.406 Y77.050 E6.70627
G1 X82.882 Y77.958 E6.75429
G1 X82.296 Y78.827 E6.80231
G1 X81.650 Y79.653 E6.85032
G1 X80.949 Y80.432 E6.89834
G1 X80.195 Y81.160 E6.94636
G1 X79.392 Y81.834 E6.99438
G1 X78.544 Y82.450 E7.04240
G1 X77.655 Y83.005 E7.09042
G1 X76.730 Y83.497 E7.13844
G1 X75.772 Y83.924 E7.18646
G1 X74.787 Y84.282 E7.23448
G1 X73.780 Y84.571 E7.28249
G1 X72.754 Y84.789 E7.33051
G1 X71.716 Y84.935 E7.37853
G1 X70.671 Y85.008 E7.42655
G1 X69.622 Y85.008 E7.47457
G1 X68.577 Y84.935 E7.52259
G1 X67.539 Y84.789 E7.57061
G1 X66.514 Y84.571 E7.61862
G1 X65.506 Y84.282 E7.66664
G1 X64.521 Y83.924 E7.71466
G1 X63.563 Y83.497 E7.76268
G1 X62.638 Y83.005 E7.81070
G1 X61.749 Y82.450 E7.85872
G1 X60.901 Y81.834 E7.90674
G1 X60.098 Y81.160 E7.95475
G1 X59.344 Y80.432 E8.00277
G1 X58.643 Y79.653 E8.05079
G1 X57.997 Y78.827 E8.09881
G1 X57.411 Y77.958 E8.14683
G1 X56.887 Y77.050 E8.19485
G1 X56.428 Y76.108 E8.24287
G1 X56.035 Y75.136 E8.29089
G1 X55.711 Y74.139 E8.33890
G1 X55.457 Y73.122 E8.38692
G1 X55.275 Y72.090 E8.43494
G1 X55.166 Y71.048 E8.48296
G1 X55.129 Y70.000 E8.53098
G1 X55.166 Y68.952 E8.57900
G1 X55.275 Y67.910 E8.62702
G1 X55.458 Y66.878 E8.67504
G1 X55.711 Y65.861 E8.72305
G1 X56.035 Y64.864 E8.77107
G1 X56.428 Y63.892 E8.81909
G1 X56.887 Y62.950 E8.86711
G1 X57.411 Y62.042 E8.91513
G1 X57.997 Y61.173 E8.96315
G1 X58.643 Y60.347 E9.01117
G1 X59.344 Y59.568 E9.05918
G1 X60.098 Y58.840 E9.10720
G1 X60.563 Y58.450 E9.13500
G1 X60.134 Y57.938 F4800.000
G1 X60.490 Y57.640 E9.15629 F600.000
G1 X61.375 Y56.996 E9.20645
G1 X62.304 Y56.416 E9.25660
G1 X63.271 Y55.902 E9.30676
G1 X64.271 Y55.457 E9.35691
G1 X65.300 Y55.082 E9.40707
G1 X66.352 Y54.780 E9.45722
G1 X67.423 Y54.553 E9.50738
G1 X68.507 Y54.400 E9.55753
G1 X69.599 Y54.324 E9.60769
G1 X70.694 Y54.324 E9.65784
G1 X71.786 Y54.400 E9.70800
G1 X72.870 Y54.553 E9.75815 F600.000
G1 X73.941 Y54.780 E9.80831
G1 X74.994 Y55.082 E9.85847
G1 X76.022 Y55.457 E9.90862
G1 X77.023 Y55.902 E9.95878
G1 X77.989 Y56.416 E10.00893
G1 X78.918 Y56.996 E10.05909
G1 X79.804 Y57.640 E10.10924
G1 X80.642 Y58.343 E10.15940
G1 X81.430 Y59.104 E10.20955
G1 X82.162 Y59.918 E10.25971
G1 X82.836 Y60.780 E10.30986
G1 X83.449 Y61.688 E10.36002
G1 X83.996 Y62.636 E10.41017
G1 X84.476 Y63.620 E10.46033
G1 X84.886 Y64.635 E10.51048
G1 X85.224 Y65.676 E10.56064
G1 X85.489 Y66.739 E10.61080
G1 X85.679 Y67.817 E10.66095
G1 X85.794 Y68.906 E10.71111
G1 X85.832 Y70.000 E10.76126
G1 X85.794 Y71.094 E10.81142
G1 X85.679 Y72.183 E10.86157
G1 X85.489 Y73.261 E10.91173
G1 X85.224 Y74.324 E10.96188
G1 X84.886 Y75.365 E11.01204
G1 X84.476 Y76.380 E11.06219
G1 X83.996 Y77.364 E11.11235
G1 X83.449 Y78.312 E11.16250
G1 X82.836 Y79.220 E11.21266
G1 X82.162 Y80.082 E11.26281
G1 X81.430 Y80.896 E11.31297
G1 X80.642 Y81.657 E11.36313
G1 X79.804 Y82.360 E11.41328
G1 X78.918 Y83.004 E11.46344
G1 X77.989 Y83.584 E11.51359
G1 X77.023 Y84.098 E11.56375
G1 X76.022 Y84.543 E11.61390
G1 X74.994 Y84.918 E11.66406
G1 X73.941 Y85.220 E11.71421
G1 X72.870 Y85.447 E11.76437
G1 X71.786 Y85.600 E11.81452
G1 X70.694 Y85.676 E11.86468
G1 X69.599 Y85.676 E11.91484
G1 X68.507 Y85.600 E11.96499
G1 X67.423 Y85.447 E12.01515
G1 X66.352 Y85.220 E12.06530
G1 X65.300 Y84.918 E12.11546
G1 X64.271 Y84.543 E12.16561
G1 X63.271 Y84.098 E12.21577
G1 X62.304 Y83.584 E12.26592
G1 X61.375 Y83.004 E12.31608
G1 X60.490 Y82.360 E12.36623
G1 X59.651 Y81.657 E12.41639
G1 X58.863 Y80.896 E12.46654
G1 X58.131 Y80.082 E12.51670
G1 X57.457 Y79.220 E12.56685
G1 X56.845 Y78.312 E12.61701
G1 X56.297 Y77.364 E12.66716
G1 X55.817 Y76.380 E12.71732
G1 X55.407 Y75.365 E12.76748
G1 X55.069 Y74.324 E12.81763
G1 X54.804 Y73.261 E12.86779
G1 X54.614 Y72.183 E12.91794
G1 X54.499 Y71.094 E12.96810
G1 X54.461 Y70.000 E13.01825
G1 X54.499 Y68.906 E13.06841
G1 X54.614 Y67.817 E13.11856
G1 X54.804 Y66.739 E13.16872
G1 X55.069 Y65.676 E13.21887
G1 X55.407 Y64.635 E13.26903
G1 X55.817 Y63.620 E13.31918
G1 X56.297 Y62.636 E13.36934
G1 X56.845 Y61.688 E13.41950
G1 X57.457 Y60.780 E13.46965
G1 X58.131 Y59.918 E13.51981
G1 X58.863 Y59.104 E13.56996
G1 X59.651 Y58.343 E13.62012
G1 X60.099 Y57.967 E13.64692
G1 X59.801 Y60.009 F4800.000
G1 X60.523 Y59.312 E13.69291 F600.000
G1 X61.292 Y58.666 E13.73890
G1 X62.104 Y58.076 E13.78489
G1 X62.955 Y57.544 E13.83088
G1 X63.842 Y57.073 E13.87687
G1 X64.759 Y56.665 E13.92286
G1 X65.702 Y56.321 E13.96885
G1 X66.667 Y56.045 E14.01484
G1 X67.649 Y55.836 E14.06082
G1 X68.643 Y55.696 E14.10681
G1 X69.645 Y55.626 E14.15280
G1 X70.649 Y55.626 E14.19879
G1 X71.650 Y55.696 E14.24478
G1 X72.644 Y55.836 E14.29077
G1 X73.626 Y56.045 E14.33676
G1 X74.591 Y56.321 E14.38275
G1 X75.534 Y56.665 E14.42874
G1 X76.451 Y57.073 E14.47472
G1 X77.338 Y57.544 E14.52071
G1 X78.189 Y58.076 E14.56670
G1 X79.001 Y58.666 E14.61269
G1 X79.770 Y59.312 E14.65868
G1 X80.492 Y60.009 E14.70467
G1 X81.164 Y60.755 E14.75066
G1 X81.782 Y61.546 E14.79665
G1 X82.344 Y62.378 E14.84264
G1 X82.846 Y63.248 E14.88863
G1 X83.286 Y64.150 E14.93461
G1 X83.662 Y65.081 E14.98060
G1 X83.972 Y66.036 E15.02659
G1 X84.215 Y67.010 E15.07258
G1 X84.389 Y67.998 E15.11857
G1 X84.494 Y68.997 E15.16456
G1 X84.529 Y70.000 E15.21055
G1 X84.494 Y71.003 E15.25654
G1 X84.389 Y72.002 E15.30253
G1 X84.215 Y72.990 E15.34852
G1 X83.972 Y73.964 E15.39450
G1 X83.662 Y74.919 E15.44049
G1 X83.286 Y75.850 E15.48648
G1 X82.846 Y76.752 E15.53247
G1 X82.344 Y77.622 E15.57846
G1 X81.782 Y78.454 E15.62445
G1 X81.164 Y79.245 E15.67044
G1 X80.492 Y79.991 E15.71642
G1 X79.770 Y80.688 E15.76242
G1 X79.001 Y81.334 E15.80840
G1 X78.189 Y81.924 E15.85439
G1 X77.338 Y82.456 E15.90038
G1 X76.451 Y82.927 E15.94637
G1 X75.534 Y83.335 E15.99236
G1 X74.591 Y83.679 E16.03835
G1 X73.626 Y83.955 E16.08434
G1 X72.644 Y84.164 E16.13033
G1 X71.650 Y84.304 E16.17631
G1 X70.649 Y84.374 E16.22230
G1 X69.645 Y84.374 E16.26829
G1 X68.643 Y84.304 E16.31428
G1 X67.649 Y84.164 E16.36027
G1 X66.667 Y83.955 E16.40626
G1 X65.702 Y83.679 E16.45225
G1 X64.759 Y83.335 E16.49824
G1 X63.842 Y82.927 E16.54423
G1 X62.955 Y82.456 E16.59021
G1 X62.104 Y81.924 E16.63620
G1 X61.292 Y81.334 E16.68219
G1 X60.523 Y80.688 E16.72818
G1 X59.801 Y79.991 E16.77417
G1 X59.129 Y79.245 E16.82016
G1 X58.511 Y78.454 E16.86615
G1 X57.950 Y77.622 E16.91214
G1 X57.448 Y76.752 E16.95813
G1 X57.008 Y75.850 E17.00412
G1 X56.631 Y74.919 E17.05010
G1 X56.321 Y73.964 E17.09609
G1 X56.078 Y72.990 E17.14208
G1 X55.904 Y72.002 E17.18807
G1 X55.799 Y71.003 E17.23406
