; generated by Slic3r 1.2.0 on 2014-11-26 at 18:59:43

; external perimeters extrusion width = 0.30mm
; perimeters extrusion width = 0.90mm
; infill extrusion width = 0.50mm
; solid infill extrusion width = 0.50mm
; top infill extrusion width = 0.60mm

G21 ; set units to millimeters
M107
M104 S210 ; set temperature
G21           ;metric is good!
G90           ;absolute positioning
G28           ;go home
G92 E0        ;reset extruder
M109 S210 ; wait for temperature to be reached
G90 ; use absolute coordinates
G92 E0
M82 ; use absolute distances for extrusion
G1 F2400.000 E-2.70000
G92 E0
G1 Z0.150 F6000.000
G1 X67.372 Y67.202 F6000.000
G1 E2.70000 F2400.000
G1 X68.798 Y66.333 E2.77369 F600.000
G1 X69.766 Y66.189 E2.81688
G1 X70.234 Y66.189 E2.83754
G1 X71.807 Y66.583 E2.90909
G1 X72.628 Y67.202 E2.95446 F600.000
G1 X73.462 Y68.592 E3.02601
G1 X73.605 Y69.560 E3.06920
G1 X73.605 Y70.390 E3.10580
G1 X73.211 Y71.962 E3.17735
G1 X72.628 Y72.748 E3.22053
G1 X72.543 Y72.834 E3.22586
G1 X71.152 Y73.667 E3.29741
G1 X70.184 Y73.811 E3.34060
G1 X69.816 Y73.811 E3.35685
G1 X68.243 Y73.417 E3.42840
G1 X67.458 Y72.834 E3.47155
G1 X67.372 Y72.748 E3.47691
G1 X66.539 Y71.358 E3.54846
G1 X66.395 Y70.390 E3.59165
G1 X66.395 Y69.560 E3.62825
G1 X66.789 Y67.988 E3.69980
G1 X67.345 Y67.238 E3.74099
G1 X67.844 Y67.674 F6000.000
G1 X67.880 Y67.639 E3.74320 F600.000
G1 X69.766 Y66.857 E3.83331
G1 X70.234 Y66.857 E3.85397
G1 X72.121 Y67.639 E3.94408
G1 X72.156 Y67.674 E3.94629 F600.000
G1 X72.937 Y69.560 E4.03640
G1 X72.937 Y70.390 E4.07300
G1 X72.156 Y72.276 E4.16311
G1 X72.071 Y72.361 E4.16844
G1 X70.184 Y73.143 E4.25855
G1 X69.816 Y73.143 E4.27480
G1 X67.930 Y72.362 E4.36489
G1 X67.844 Y72.276 E4.37024
G1 X67.063 Y70.390 E4.46035
G1 X67.063 Y69.560 E4.49695
G1 X67.827 Y67.716 E4.58507
M104 S197 ; set temperature
G1 F2400.000 E1.88507
G92 E0
G1 Z0.350 F6000.000
G1 Z0.550 F6000.000
M104 S0            ;Heater off
M140 S0             ;heated bed off
M107
G1 X5 Y130 F4000
M84 ; motor off
; filament used = 1.9mm (0.0cm3)

; avoid_crossing_perimeters = 0
; bed_shape = 0x0,140x0,140x140,0x140
; bed_temperature = 0
; bridge_acceleration = 0
; bridge_fan_speed = 100
; brim_width = 0
; complete_objects = 0
; cooling = 1
; default_acceleration = 0
; disable_fan_first_layers = 3
; duplicate_distance = 6
; end_gcode = M104 S0            ;Heater off\nM140 S0             ;heated bed off\nM107\nG1 X5 Y130 F4000\nM84 ; motor off
; extruder_clearance_height = 20
; extruder_clearance_radius = 20
; extruder_offset = 0x0
; extrusion_axis = E
; extrusion_multiplier = 1
; fan_always_on = 0
; fan_below_layer_time = 30
; filament_diameter = 1.7
; first_layer_acceleration = 0
; first_layer_bed_temperature = 0
; first_layer_extrusion_width = 0.7
; first_layer_speed = 10
; first_layer_temperature = 210
; g0 = 0
; gcode_arcs = 0
; gcode_comments = 0
; gcode_flavor = reprap
; infill_acceleration = 0
; infill_first = 0
; layer_gcode = 
; max_fan_speed = 100
; min_fan_speed = 35
; min_print_speed = 10
; min_skirt_length = 0
; notes = 
; nozzle_diameter = 0.3
; only_retract_when_crossing_perimeters = 1
; ooze_prevention = 0
; output_filename_format = [input_filename_base].gcode
; perimeter_acceleration = 0
; post_process = 
; resolution = 0
; retract_before_travel = 2
; retract_layer_change = 1
; retract_length = 2.7
; retract_length_toolchange = 3
; retract_lift = 0
; retract_restart_extra = 0
; retract_restart_extra_toolchange = 0
; retract_speed = 40
; skirt_distance = 2
; skirt_height = 1
; skirts = 2
; slowdown_below_layer_time = 12
; spiral_vase = 0
; standby_temperature_delta = -5
; start_gcode = G21           ;metric is good!\nG90           ;absolute positioning\nG28           ;go home\nG92 E0        ;reset extruder
; temperature = 197
; threads = 2
; toolchange_gcode = 
; travel_speed = 100
; use_firmware_retraction = 0
; use_relative_e_distances = 0
; vibration_limit = 0
; wipe = 0
; z_offset = 0
; dont_support_bridges = 1
; extrusion_width = 0
; first_layer_height = 0.15
; infill_only_where_needed = 0
; interface_shells = 0
; layer_height = 0.2
; raft_layers = 0
; seam_position = aligned
; support_material = 0
; support_material_angle = 0
; support_material_enforce_layers = 0
; support_material_extruder = 1
; support_material_extrusion_width = 0
; support_material_interface_extruder = 1
; support_material_interface_layers = 0
; support_material_interface_spacing = 0
; support_material_interface_speed = 100%
; support_material_pattern = rectilinear
; support_material_spacing = 2.5
; support_material_speed = 20
; support_material_threshold = 45
; xy_size_compensation = 0
; bottom_solid_layers = 3
; bridge_flow_ratio = 1
; bridge_speed = 20
; external_perimeter_extrusion_width = 0
; external_perimeter_speed = 50
; external_perimeters_first = 0
; extra_perimeters = 1
; fill_angle = 45
; fill_density = 40%
; fill_pattern = concentric
; gap_fill_speed = 50
; infill_every_layers = 1
; infill_extruder = 1
; infill_extrusion_width = 0.5
; infill_speed = 50
; overhangs = 1
; perimeter_extruder = 1
; perimeter_extrusion_width = 0.9
; perimeter_speed = 50
; perimeters = 1
; small_perimeter_speed = 20
; solid_fill_pattern = concentric
; solid_infill_below_area = 0
; solid_infill_every_layers = 0
; solid_infill_extrusion_width = 0.5
; solid_infill_speed = 50
; thin_walls = 1
; top_infill_extrusion_width = 0.6
; top_solid_infill_speed = 50
; top_solid_layers = 3
