; generated by Slic3r 1.2.0 on 2014-09-19 at 22:19:18

; external perimeters extrusion width = 0.30mm
; perimeters extrusion width = 0.90mm
; infill extrusion width = 0.50mm
; solid infill extrusion width = 0.50mm
; top infill extrusion width = 0.60mm

G21 ; set units to millimeters
M107
M104 S210 ; set temperature
G21           ;metric is good!
G90           ;absolute positioning
G28           ;go home
G92 E0        ;reset extruder
M109 S210 ; wait for temperature to be reached
G90 ; use absolute coordinates
G92 E0
M82 ; use absolute distances for extrusion
G1 F2400.000 E-2.70000
G92 E0
G1 Z0.350 F3000.000
G1 X45.940 Y31.700 F3000.000
G1 E2.70000 F2400.000
G1 X46.392 Y31.123 E2.73236 F600.000
G1 X46.913 Y30.607 E2.76467
G1 X47.493 Y30.161 E2.79697
G1 X48.126 Y29.791 E2.82936
G1 X48.798 Y29.503 E2.86161
G1 X49.504 Y29.302 E2.89399
G1 X50.227 Y29.191 E2.92631
G1 X50.537 Y29.171 E2.94002
G1 X89.458 Y29.171 E4.65769
G1 X90.191 Y29.244 E4.69019 F600.000
G1 X90.903 Y29.406 E4.72241
G1 X91.589 Y29.657 E4.75464
G1 X92.242 Y29.993 E4.78706
G1 X92.848 Y30.409 E4.81951
G1 X93.392 Y30.893 E4.85165
G1 X93.875 Y31.446 E4.88403
G1 X94.284 Y32.053 E4.91634
G1 X94.614 Y32.708 E4.94871
G1 X94.858 Y33.397 E4.98098
G1 X94.981 Y33.901 E5.00385
G1 X102.715 Y74.112 E6.81097
G1 X102.781 Y74.843 E6.84337
G1 X102.754 Y85.576 E7.31702
G1 X102.637 Y86.297 E7.34930
G1 X102.430 Y86.999 E7.38158
G1 X102.133 Y87.674 E7.41413
G1 X101.760 Y88.300 E7.44629
G1 X101.308 Y88.877 E7.47865
G1 X100.845 Y89.344 E7.50766
G1 X77.687 Y109.393 E8.85944
G1 X77.107 Y109.839 E8.89173
G1 X76.474 Y110.209 E8.92411
G1 X75.802 Y110.496 E8.95637
G1 X75.099 Y110.698 E8.98863
G1 X74.373 Y110.809 E9.02107
G1 X73.850 Y110.836 E9.04416
G1 X65.941 Y110.829 E9.39322
G1 X65.212 Y110.757 E9.42554
G1 X64.497 Y110.594 E9.45792
G1 X63.810 Y110.343 E9.49018
G1 X63.158 Y110.007 E9.52256
G1 X62.555 Y109.593 E9.55485
G1 X62.255 Y109.344 E9.57202
G1 X38.907 Y89.106 E10.93564
G1 X38.425 Y88.554 E10.96799
G1 X38.016 Y87.947 E11.00030
G1 X37.686 Y87.292 E11.03266
G1 X37.572 Y87.002 E11.04640
G1 X37.442 Y86.602 E11.06495
G1 X37.285 Y85.887 E11.09727
G1 X37.219 Y85.157 E11.12962
G1 X37.246 Y74.424 E11.60328
G1 X37.285 Y74.115 E11.61703
G1 X45.064 Y33.702 E13.43332
G1 X45.271 Y33.000 E13.46559
G1 X45.385 Y32.711 E13.47931
G1 X45.565 Y32.329 E13.49796
G1 X45.917 Y31.739 E13.52829
G1 X46.481 Y32.093 F3000.000
G1 X46.879 Y31.580 E13.55694 F600.000
G1 X47.338 Y31.122 E13.58556
G1 X47.851 Y30.725 E13.61416
G1 X48.410 Y30.395 E13.64284
G1 X49.005 Y30.139 E13.67141
G1 X49.629 Y29.958 E13.70007
G1 X50.269 Y29.857 E13.72869
G1 X50.579 Y29.838 E13.74240
G1 X89.417 Y29.837 E15.45638
G1 X90.066 Y29.900 E15.48518 F600.000
G1 X90.697 Y30.041 E15.51369
G1 X91.305 Y30.261 E15.54224
G1 X91.884 Y30.557 E15.57095
G1 X92.423 Y30.924 E15.59970
G1 X92.906 Y31.351 E15.62815
G1 X93.335 Y31.839 E15.65682
G1 X93.699 Y32.375 E15.68543
G1 X93.993 Y32.954 E15.71409
G1 X94.211 Y33.564 E15.74267
G1 X94.325 Y34.027 E15.76374
G1 X102.052 Y74.196 E17.56898
G1 X102.113 Y74.843 E17.59766
G1 X102.092 Y85.492 E18.06761
G1 X101.990 Y86.131 E18.09620
G1 X101.809 Y86.753 E18.12479
G1 X101.548 Y87.353 E18.15362
G1 X101.219 Y87.907 E18.18209
G1 X100.821 Y88.420 E18.21074
G1 X100.408 Y88.839 E18.23672
G1 X77.262 Y108.878 E19.58783
G1 X76.749 Y109.275 E19.61643
G1 X76.190 Y109.605 E19.64510
G1 X75.595 Y109.861 E19.67368
G1 X74.974 Y110.042 E19.70225
G1 X74.331 Y110.143 E19.73097
G1 X73.850 Y110.168 E19.75221
G1 X65.983 Y110.163 E20.09942
G1 X65.337 Y110.101 E20.12804
G1 X64.703 Y109.959 E20.15671
G1 X64.094 Y109.739 E20.18528
G1 X63.516 Y109.443 E20.21395
G1 X62.980 Y109.078 E20.24255
G1 X62.692 Y108.839 E20.25905
G1 X39.394 Y88.649 E21.61964
G1 X38.965 Y88.161 E21.64829
G1 X38.601 Y87.625 E21.67690
G1 X38.307 Y87.046 E21.70556
G1 X38.193 Y86.757 E21.71928
G1 X38.088 Y86.436 E21.73415
G1 X37.948 Y85.803 E21.76278
G1 X37.887 Y85.157 E21.79142
G1 X37.908 Y74.508 E22.26138
G1 X37.947 Y74.199 E22.27512
G1 X45.710 Y33.868 E24.08772
G1 X45.892 Y33.246 E24.11630
G1 X46.006 Y32.957 E24.13002
G1 X46.150 Y32.650 E24.14497
G1 X46.458 Y32.131 E24.17160
G1 F2400.000 E21.47160
G92 E0
G1 X73.305 Y103.624 F3000.000
G1 E2.70000 F2400.000
G1 X73.664 Y103.531 E2.71637 F600.000
G1 X73.850 Y103.520 E2.72458 F600.000
G1 X74.218 Y103.566 E2.74095
G1 X74.563 Y103.703 E2.75733
G1 X74.720 Y103.803 E2.76553
G1 X74.863 Y103.921 E2.77374
G1 X75.100 Y104.207 E2.79010
G1 X75.189 Y104.370 E2.79831
G1 X75.304 Y104.723 E2.81468
G1 X75.327 Y104.907 E2.82289
G1 X75.304 Y105.277 E2.83926
G1 X75.189 Y105.630 E2.85564
G1 X75.100 Y105.793 E2.86384
G1 X74.991 Y105.943 E2.87204
G1 X74.720 Y106.197 E2.88842
G1 X74.563 Y106.297 E2.89662
G1 X74.218 Y106.434 E2.91300
G1 X73.850 Y106.480 E2.92937
G1 X73.664 Y106.469 E2.93758
G1 X73.482 Y106.434 E2.94577
G1 X73.137 Y106.297 E2.96215
G1 X72.837 Y106.079 E2.97853
G1 X72.709 Y105.943 E2.98673
G1 X72.600 Y105.793 E2.99493
G1 X72.442 Y105.457 E3.01131
G1 X72.396 Y105.277 E3.01951
G1 X72.373 Y104.907 E3.03589
G1 X72.396 Y104.723 E3.04409
G1 X72.511 Y104.370 E3.06047
G1 X72.600 Y104.207 E3.06867
G1 X72.837 Y103.921 E3.08504
G1 X72.980 Y103.803 E3.09325
G1 X73.264 Y103.643 E3.10764
G1 X72.980 Y103.039 F3000.000
G1 X73.316 Y102.918 E3.12336 F600.000
G1 X73.581 Y102.868 E3.13527
G1 X73.850 Y102.851 E3.14719
G1 X74.119 Y102.868 E3.15910
G1 X74.384 Y102.918 E3.17101 F600.000
G1 X74.641 Y103.002 E3.18292
G1 X74.885 Y103.117 E3.19483
G1 X75.113 Y103.261 E3.20675
G1 X75.321 Y103.433 E3.21866
G1 X75.506 Y103.630 E3.23057
G1 X75.665 Y103.848 E3.24248
G1 X75.795 Y104.085 E3.25439
G1 X75.894 Y104.336 E3.26631
G1 X75.961 Y104.597 E3.27821
G1 X75.995 Y104.865 E3.29013
G1 X75.995 Y105.135 E3.30204
G1 X75.961 Y105.403 E3.31395
G1 X75.894 Y105.664 E3.32586
G1 X75.795 Y105.915 E3.33777
G1 X75.665 Y106.152 E3.34969
G1 X75.506 Y106.370 E3.36160
G1 X75.321 Y106.567 E3.37351
G1 X75.113 Y106.739 E3.38542
G1 X74.885 Y106.883 E3.39734
G1 X74.641 Y106.998 E3.40925
G1 X74.384 Y107.082 E3.42116
G1 X74.119 Y107.132 E3.43307
G1 X73.850 Y107.149 E3.44498
G1 X73.581 Y107.132 E3.45690
G1 X73.316 Y107.082 E3.46880
G1 X73.059 Y106.998 E3.48072
G1 X72.815 Y106.883 E3.49263
G1 X72.587 Y106.739 E3.50454
G1 X72.379 Y106.567 E3.51646
G1 X72.194 Y106.370 E3.52836
G1 X72.035 Y106.152 E3.54028
G1 X71.905 Y105.915 E3.55219
G1 X71.806 Y105.664 E3.56410
G1 X71.739 Y105.403 E3.57601
G1 X71.705 Y105.135 E3.58792
G1 X71.705 Y104.865 E3.59984
G1 X71.739 Y104.597 E3.61175
G1 X71.806 Y104.336 E3.62366
G1 X71.905 Y104.085 E3.63557
G1 X72.035 Y103.848 E3.64749
G1 X72.194 Y103.630 E3.65940
G1 X72.379 Y103.433 E3.67130
G1 X72.587 Y103.261 E3.68322
G1 X72.939 Y103.058 E3.70119
G1 X74.451 Y104.195 F3000.000
G1 X74.694 Y104.438 E3.71636 F600.000
G1 X74.551 Y105.701 E3.77244
G1 X73.149 Y104.299 E3.85998
G1 X73.006 Y105.562 E3.91606
G1 X73.249 Y105.805 E3.93123
G1 F2400.000 E1.23123
G92 E0
G1 X67.627 Y105.093 F3000.000
G1 E2.70000 F2400.000
G1 X67.558 Y105.457 E2.71637 F600.000
G1 X67.400 Y105.793 E2.73275
G1 X67.291 Y105.943 E2.74095
G1 X67.020 Y106.197 E2.75733
G1 X66.695 Y106.376 E2.77370
G1 X66.336 Y106.469 E2.79007
G1 X66.150 Y106.480 E2.79828
G1 X65.782 Y106.434 E2.81465
G1 X65.437 Y106.297 E2.83103
G1 X65.137 Y106.079 E2.84741
G1 X64.900 Y105.793 E2.86377
G1 X64.811 Y105.630 E2.87198
G1 X64.696 Y105.277 E2.88835
G1 X64.673 Y104.907 E2.90473
G1 X64.742 Y104.543 E2.92110
G1 X64.900 Y104.207 E2.93748
G1 X65.137 Y103.921 E2.95385
G1 X65.437 Y103.703 E2.97023
G1 X65.782 Y103.566 E2.98660
G1 X65.964 Y103.531 E2.99480
G1 X66.150 Y103.520 E3.00301 F600.000
G1 X66.518 Y103.566 E3.01938
G1 X66.863 Y103.703 E3.03576
G1 X67.163 Y103.921 E3.05214
G1 X67.400 Y104.207 E3.06850
G1 X67.489 Y104.370 E3.07671
G1 X67.604 Y104.723 E3.09308
G1 X67.627 Y105.048 E3.10748
G1 X68.295 Y105.048 F3000.000
G1 X68.261 Y105.403 E3.12321 F600.000
G1 X68.194 Y105.664 E3.13512
G1 X68.095 Y105.915 E3.14703
G1 X67.965 Y106.152 E3.15894
G1 X67.806 Y106.370 E3.17085
G1 X67.621 Y106.567 E3.18276
G1 X67.413 Y106.739 E3.19468
G1 X67.185 Y106.883 E3.20659
G1 X66.941 Y106.998 E3.21850
G1 X66.684 Y107.082 E3.23042
G1 X66.419 Y107.132 E3.24232
G1 X66.150 Y107.149 E3.25424
G1 X65.881 Y107.132 E3.26615
G1 X65.616 Y107.082 E3.27806
G1 X65.359 Y106.998 E3.28997
G1 X65.115 Y106.883 E3.30188
G1 X64.887 Y106.739 E3.31380
G1 X64.679 Y106.567 E3.32571
G1 X64.494 Y106.370 E3.33762
G1 X64.335 Y106.152 E3.34953
G1 X64.205 Y105.915 E3.36144
G1 X64.106 Y105.664 E3.37336
G1 X64.039 Y105.403 E3.38527
G1 X64.005 Y105.135 E3.39718
G1 X64.005 Y104.865 E3.40909
G1 X64.039 Y104.597 E3.42100
G1 X64.106 Y104.336 E3.43291
G1 X64.205 Y104.085 E3.44482
G1 X64.335 Y103.848 E3.45674
G1 X64.494 Y103.630 E3.46865
G1 X64.679 Y103.433 E3.48056
G1 X64.887 Y103.261 E3.49247
G1 X65.115 Y103.117 E3.50438
G1 X65.359 Y103.002 E3.51630
G1 X65.616 Y102.918 E3.52821
G1 X65.881 Y102.868 E3.54012
G1 X66.150 Y102.851 E3.55203
G1 X66.419 Y102.868 E3.56394
G1 X66.684 Y102.918 E3.57585 F600.000
G1 X66.941 Y103.002 E3.58777
G1 X67.185 Y103.117 E3.59968
G1 X67.413 Y103.261 E3.61159
G1 X67.621 Y103.433 E3.62351
G1 X67.806 Y103.630 E3.63542
G1 X67.965 Y103.848 E3.64732
G1 X68.095 Y104.085 E3.65924
G1 X68.194 Y104.336 E3.67115
G1 X68.261 Y104.597 E3.68306
G1 X68.295 Y105.003 E3.70103
G1 X66.751 Y104.195 F3000.000
G1 X66.994 Y104.438 E3.71620 F600.000
G1 X66.852 Y105.700 E3.77224
G1 X65.448 Y104.296 E3.85988
G1 X65.320 Y105.573 E3.91650
G1 X65.561 Y105.814 E3.93153
G1 F2400.000 E1.23153
G92 E0
G1 X66.148 Y96.480 F3000.000
G1 E2.70000 F2400.000
G1 X65.782 Y96.434 E2.71628 F600.000
G1 X65.605 Y96.376 E2.72449
G1 X65.437 Y96.297 E2.73269
G1 X65.137 Y96.079 E2.74907
G1 X64.900 Y95.793 E2.76544
G1 X64.811 Y95.630 E2.77364
G1 X64.696 Y95.277 E2.79002
G1 X64.673 Y95.093 E2.79822
G1 X64.673 Y94.907 E2.80643
G1 X64.742 Y94.543 E2.82280
G1 X64.900 Y94.207 E2.83918
G1 X65.009 Y94.057 E2.84738
G1 X65.137 Y93.921 E2.85558
G1 X65.437 Y93.703 E2.87196
G1 X65.782 Y93.566 E2.88833
G1 X65.964 Y93.531 E2.89653
G1 X66.150 Y93.520 E2.90474 F600.000
G1 X66.518 Y93.566 E2.92111
G1 X66.863 Y93.703 E2.93749
G1 X67.163 Y93.921 E2.95387
G1 X67.400 Y94.207 E2.97023
G1 X67.489 Y94.370 E2.97844
G1 X67.604 Y94.723 E2.99481
G1 X67.627 Y94.907 E3.00302
G1 X67.604 Y95.277 E3.01939
G1 X67.558 Y95.457 E3.02759
G1 X67.400 Y95.793 E3.04397
G1 X67.291 Y95.943 E3.05217
G1 X67.163 Y96.079 E3.06037
G1 X66.863 Y96.297 E3.07675
G1 X66.518 Y96.434 E3.09313
G1 X66.193 Y96.477 E3.10761
G1 X66.235 Y97.144 F3000.000
G1 X65.881 Y97.132 E3.12325 F600.000
G1 X65.615 Y97.082 E3.13516
G1 X65.359 Y96.998 E3.14707
G1 X65.115 Y96.883 E3.15898
G1 X64.887 Y96.739 E3.17089
G1 X64.679 Y96.567 E3.18281
G1 X64.494 Y96.370 E3.19472
G1 X64.335 Y96.152 E3.20663
G1 X64.205 Y95.915 E3.21854
G1 X64.106 Y95.664 E3.23046
G1 X64.039 Y95.403 E3.24236
G1 X64.005 Y95.135 E3.25428
G1 X64.005 Y94.865 E3.26619
G1 X64.039 Y94.597 E3.27810
G1 X64.106 Y94.336 E3.29001
G1 X64.205 Y94.085 E3.30192
G1 X64.335 Y93.848 E3.31384
G1 X64.494 Y93.630 E3.32575
G1 X64.679 Y93.433 E3.33766
G1 X64.887 Y93.261 E3.34957
G1 X65.115 Y93.117 E3.36148
G1 X65.359 Y93.002 E3.37340
G1 X65.616 Y92.918 E3.38531
G1 X65.881 Y92.868 E3.39722
G1 X66.150 Y92.851 E3.40913
G1 X66.419 Y92.868 E3.42105
G1 X66.684 Y92.918 E3.43295 F600.000
G1 X66.941 Y93.002 E3.44487
G1 X67.185 Y93.117 E3.45678
G1 X67.413 Y93.261 E3.46869
G1 X67.621 Y93.433 E3.48060
G1 X67.806 Y93.630 E3.49251
G1 X67.965 Y93.848 E3.50442
G1 X68.095 Y94.085 E3.51634
G1 X68.194 Y94.336 E3.52825
G1 X68.261 Y94.597 E3.54016
G1 X68.295 Y94.865 E3.55207
G1 X68.295 Y95.135 E3.56399
G1 X68.261 Y95.403 E3.57590
G1 X68.194 Y95.664 E3.58781
G1 X68.095 Y95.915 E3.59972
G1 X67.965 Y96.152 E3.61163
G1 X67.806 Y96.370 E3.62355
G1 X67.621 Y96.567 E3.63545
G1 X67.413 Y96.739 E3.64737
G1 X67.185 Y96.883 E3.65928
G1 X66.941 Y96.998 E3.67119
G1 X66.684 Y97.082 E3.68311
G1 X66.280 Y97.141 E3.70116
G1 X65.549 Y95.805 F3000.000
G1 X65.306 Y95.562 E3.71633 F600.000
G1 X65.448 Y94.300 E3.77237
G1 X66.851 Y95.703 E3.85997
G1 X66.980 Y94.427 E3.91656
G1 X66.739 Y94.186 E3.93159
G1 F2400.000 E1.23159
G92 E0
G1 X72.374 Y94.898 F3000.000
G1 E2.70000 F2400.000
G1 X72.442 Y94.543 E2.71597 F600.000
G1 X72.511 Y94.370 E2.72418
G1 X72.600 Y94.207 E2.73239
G1 X72.837 Y93.921 E2.74875
G1 X73.137 Y93.703 E2.76513
G1 X73.482 Y93.566 E2.78151
G1 X73.664 Y93.531 E2.78971
G1 X73.850 Y93.520 E2.79791 F600.000
G1 X74.218 Y93.566 E2.81428
G1 X74.563 Y93.703 E2.83066
G1 X74.863 Y93.921 E2.84704
G1 X75.100 Y94.207 E2.86341
G1 X75.189 Y94.370 E2.87162
G1 X75.304 Y94.723 E2.88799
G1 X75.327 Y95.093 E2.90437
G1 X75.304 Y95.277 E2.91257
G1 X75.189 Y95.630 E2.92894
G1 X74.991 Y95.943 E2.94532
G1 X74.863 Y96.079 E2.95352
G1 X74.563 Y96.297 E2.96990
G1 X74.218 Y96.434 E2.98627
G1 X73.850 Y96.480 E3.00264
G1 X73.664 Y96.469 E3.01085
G1 X73.305 Y96.376 E3.02722
G1 X73.137 Y96.297 E3.03542
G1 X72.837 Y96.079 E3.05180
G1 X72.600 Y95.793 E3.06817
G1 X72.442 Y95.457 E3.08455
G1 X72.396 Y95.277 E3.09275
G1 X72.373 Y94.943 E3.10754
G1 X71.705 Y94.943 F3000.000
G1 X71.739 Y94.597 E3.12288 F600.000
G1 X71.806 Y94.336 E3.13478
G1 X71.905 Y94.085 E3.14670
G1 X72.035 Y93.848 E3.15861
G1 X72.194 Y93.630 E3.17052
G1 X72.379 Y93.433 E3.18243
G1 X72.587 Y93.261 E3.19435
G1 X72.815 Y93.117 E3.20626
G1 X73.059 Y93.002 E3.21817
G1 X73.316 Y92.918 E3.23008
G1 X73.581 Y92.868 E3.24199
G1 X73.850 Y92.851 E3.25391
G1 X74.119 Y92.868 E3.26582
G1 X74.384 Y92.918 E3.27773 F600.000
G1 X74.641 Y93.002 E3.28964
G1 X74.885 Y93.117 E3.30155
G1 X75.113 Y93.261 E3.31346
G1 X75.321 Y93.433 E3.32538
G1 X75.506 Y93.630 E3.33729
G1 X75.665 Y93.848 E3.34920
G1 X75.795 Y94.085 E3.36111
G1 X75.894 Y94.336 E3.37303
G1 X75.961 Y94.597 E3.38493
G1 X75.995 Y94.865 E3.39685
G1 X75.995 Y95.135 E3.40876
G1 X75.961 Y95.403 E3.42067
G1 X75.894 Y95.664 E3.43258
G1 X75.795 Y95.915 E3.44449
G1 X75.665 Y96.152 E3.45641
G1 X75.506 Y96.370 E3.46832
G1 X75.321 Y96.567 E3.48023
G1 X75.113 Y96.739 E3.49214
G1 X74.885 Y96.883 E3.50405
G1 X74.641 Y96.998 E3.51597
G1 X74.384 Y97.082 E3.52788
G1 X74.119 Y97.132 E3.53979
G1 X73.850 Y97.149 E3.55170
G1 X73.581 Y97.132 E3.56361
G1 X73.315 Y97.082 E3.57553
G1 X73.059 Y96.998 E3.58744
G1 X72.815 Y96.883 E3.59935
G1 X72.587 Y96.739 E3.61126
G1 X72.379 Y96.567 E3.62317
G1 X72.194 Y96.370 E3.63508
G1 X72.035 Y96.152 E3.64700
G1 X71.905 Y95.915 E3.65891
G1 X71.806 Y95.664 E3.67082
G1 X71.739 Y95.403 E3.68273
G1 X71.705 Y94.988 E3.70109
G1 X73.249 Y95.805 F3000.000
G1 X73.006 Y95.562 E3.71626 F600.000
G1 X73.148 Y94.300 E3.77231
G1 X74.551 Y95.703 E3.85990
G1 X74.680 Y94.427 E3.91650
G1 X74.439 Y94.186 E3.93153
G1 F2400.000 E1.23153
G92 E0
G1 X80.680 Y86.198 F3000.000
G1 E2.70000 F2400.000
G1 X80.409 Y85.943 E2.71638 F600.000
G1 X80.211 Y85.630 E2.73275
G1 X80.096 Y85.277 E2.74912
G1 X80.073 Y84.907 E2.76550
G1 X80.096 Y84.723 E2.77370
G1 X80.211 Y84.370 E2.79008
G1 X80.300 Y84.207 E2.79828
G1 X80.537 Y83.921 E2.81465
G1 X80.837 Y83.703 E2.83103
G1 X81.182 Y83.566 E2.84741
G1 X81.364 Y83.531 E2.85561
G1 X81.736 Y83.531 E2.87198 F600.000
G1 X82.095 Y83.624 E2.88836
G1 X82.420 Y83.803 E2.90473
G1 X82.691 Y84.056 E2.92110
G1 X82.889 Y84.370 E2.93748
G1 X83.004 Y84.723 E2.95386
G1 X83.027 Y85.093 E2.97023
G1 X83.004 Y85.277 E2.97843
G1 X82.889 Y85.630 E2.99481
G1 X82.691 Y85.944 E3.01118
G1 X82.420 Y86.197 E3.02756
G1 X82.095 Y86.376 E3.04393
G1 X81.736 Y86.469 E3.06030
G1 X81.364 Y86.469 E3.07668
G1 X81.005 Y86.376 E3.09305
G1 X80.718 Y86.222 E3.10745
G1 X80.360 Y86.785 F3000.000
G1 X80.079 Y86.567 E3.12317 F600.000
G1 X79.894 Y86.370 E3.13508
G1 X79.735 Y86.152 E3.14699
G1 X79.605 Y85.915 E3.15891
G1 X79.506 Y85.664 E3.17082
G1 X79.439 Y85.403 E3.18273
G1 X79.405 Y85.135 E3.19464
G1 X79.405 Y84.865 E3.20655
G1 X79.439 Y84.597 E3.21847
G1 X79.506 Y84.336 E3.23038
G1 X79.605 Y84.085 E3.24229
G1 X79.735 Y83.848 E3.25420
G1 X79.894 Y83.630 E3.26611
G1 X80.079 Y83.433 E3.27802
G1 X80.287 Y83.261 E3.28994
G1 X80.515 Y83.117 E3.30185
G1 X80.759 Y83.002 E3.31376
G1 X81.016 Y82.918 E3.32567
G1 X81.281 Y82.868 E3.33758
G1 X81.550 Y82.851 E3.34950
G1 X81.819 Y82.868 E3.36141
