; generated by Slic3r 1.2.0 on 2014-09-22 at 17:13:05

; external perimeters extrusion width = 0.30mm
; perimeters extrusion width = 0.90mm
; infill extrusion width = 0.50mm
; solid infill extrusion width = 0.50mm
; top infill extrusion width = 0.60mm

G21 ; set units to millimeters
M107
M104 S210 ; set temperature
G21           ;metric is good!
G90           ;absolute positioning
G28           ;go home
G92 E0        ;reset extruder
M109 S210 ; wait for temperature to be reached
G90 ; use absolute coordinates
G92 E0
M82 ; use absolute distances for extrusion
G1 F2400.000 E-2.70000
G92 E0
G1 Z2.350 F3000.000
G1 X72.939 Y104.583 F200.000
G1 E2.70000 F2400.000
G1 X73.242 Y104.417 E2.71527 F600.000
G1 X73.577 Y104.331 E2.73054
G1 X73.923 Y104.331 E2.74580 F600.000
G1 X74.093 Y104.363 E2.75346
G1 X74.258 Y104.417 E2.76110
G1 X74.561 Y104.583 E2.77637
G1 X74.695 Y104.694 E2.78402
G1 X74.915 Y104.960 E2.79929
G1 X74.999 Y105.112 E2.80694
G1 X75.106 Y105.441 E2.82221
G1 X75.127 Y105.613 E2.82986
G1 X75.106 Y105.959 E2.84512
G1 X74.999 Y106.288 E2.86040
G1 X74.915 Y106.440 E2.86804
G1 X74.695 Y106.706 E2.88331
G1 X74.561 Y106.817 E2.89096
G1 X74.258 Y106.983 E2.90623
G1 X73.923 Y107.069 E2.92149
G1 X73.750 Y107.080 E2.92914
G1 X73.577 Y107.069 E2.93680
G1 X73.242 Y106.983 E2.95206
G1 X72.939 Y106.817 E2.96733
G1 X72.805 Y106.706 E2.97498
G1 X72.585 Y106.440 E2.99025
G1 X72.501 Y106.288 E2.99789
G1 X72.394 Y105.959 E3.01317
G1 X72.373 Y105.787 E3.02081
G1 X72.394 Y105.441 E3.03608
G1 X72.501 Y105.112 E3.05135
G1 X72.585 Y104.960 E3.05900
G1 X72.687 Y104.820 E3.06665
G1 X72.904 Y104.612 E3.07994
G1 X72.478 Y104.098 F3000.000
G1 X72.763 Y103.904 E3.09511 F600.000
G1 X72.996 Y103.795 E3.10647
G1 X73.240 Y103.715 E3.11783
G1 X73.493 Y103.667 E3.12918
G1 X73.750 Y103.651 E3.14054
G1 X74.007 Y103.667 E3.15190
G1 X74.260 Y103.715 E3.16326 F600.000
G1 X74.504 Y103.795 E3.17461
G1 X74.737 Y103.904 E3.18597
G1 X74.955 Y104.042 E3.19733
G1 X75.153 Y104.206 E3.20869
G1 X75.329 Y104.394 E3.22005
G1 X75.480 Y104.602 E3.23140
G1 X75.604 Y104.827 E3.24276
G1 X75.699 Y105.067 E3.25412
G1 X75.763 Y105.316 E3.26547
G1 X75.795 Y105.571 E3.27683
G1 X75.795 Y105.829 E3.28819
G1 X75.763 Y106.084 E3.29955
G1 X75.699 Y106.333 E3.31090
G1 X75.604 Y106.573 E3.32226
G1 X75.480 Y106.798 E3.33362
G1 X75.329 Y107.006 E3.34498
G1 X75.153 Y107.194 E3.35633
G1 X74.955 Y107.358 E3.36769
G1 X74.737 Y107.496 E3.37905
G1 X74.504 Y107.605 E3.39041
G1 X74.260 Y107.685 E3.40177
G1 X74.007 Y107.733 E3.41312
G1 X73.750 Y107.749 E3.42448
G1 X73.493 Y107.733 E3.43584
G1 X73.240 Y107.685 E3.44720
G1 X72.996 Y107.605 E3.45855
G1 X72.763 Y107.496 E3.46991
G1 X72.545 Y107.358 E3.48127
G1 X72.347 Y107.194 E3.49263
G1 X72.171 Y107.006 E3.50398
G1 X72.020 Y106.798 E3.51534
G1 X71.896 Y106.573 E3.52670
G1 X71.801 Y106.333 E3.53806
G1 X71.737 Y106.084 E3.54942
G1 X71.705 Y105.829 E3.56077
G1 X71.705 Y105.571 E3.57213
G1 X71.737 Y105.316 E3.58349
G1 X71.801 Y105.067 E3.59484
G1 X71.896 Y104.827 E3.60620
G1 X72.020 Y104.602 E3.61756
G1 X72.171 Y104.394 E3.62892
G1 X72.444 Y104.126 E3.64578
G1 X73.477 Y105.011 F3000.000
G1 X73.750 Y104.955 E3.65806 F600.000
G1 X74.042 Y105.016 E3.67123
G1 X74.273 Y105.172 E3.68353
G1 X74.431 Y105.402 E3.69582
G1 X74.493 Y105.673 E3.70812
G1 X74.451 Y105.949 E3.72042
G1 X74.388 Y106.081 E3.72689
G1 X74.203 Y106.290 E3.73919
G1 X74.023 Y106.389 E3.74828
G1 X73.823 Y106.440 E3.75736
G1 X73.677 Y106.440 E3.76383
G1 X73.477 Y106.389 E3.77291
G1 X73.297 Y106.290 E3.78200
G1 X73.112 Y106.081 E3.79430
G1 X73.009 Y105.767 E3.80890
G1 X73.042 Y105.470 E3.82207
G1 X73.179 Y105.228 E3.83435
G1 X73.315 Y105.101 E3.84255
G1 X73.438 Y105.033 E3.84876
G1 F2400.000 E1.14876
G92 E0
G1 X67.627 Y105.613 F3000.000
G1 E2.70000 F2400.000
G1 X67.606 Y105.959 E2.71527 F600.000
G1 X67.499 Y106.288 E2.73054
G1 X67.415 Y106.440 E2.73818
G1 X67.195 Y106.706 E2.75345
G1 X67.061 Y106.817 E2.76110
G1 X66.758 Y106.983 E2.77638
G1 X66.423 Y107.069 E2.79164
G1 X66.077 Y107.069 E2.80691
G1 X65.907 Y107.037 E2.81456
G1 X65.585 Y106.909 E2.82982
G1 X65.305 Y106.706 E2.84509
G1 X65.085 Y106.440 E2.86036
G1 X65.001 Y106.288 E2.86801
G1 X64.894 Y105.959 E2.88328
G1 X64.873 Y105.613 E2.89855
G1 X64.937 Y105.273 E2.91382
G1 X65.085 Y104.960 E2.92908
G1 X65.305 Y104.694 E2.94435
G1 X65.439 Y104.583 E2.95200
G1 X65.742 Y104.417 E2.96727
G1 X66.077 Y104.331 E2.98254
G1 X66.423 Y104.331 E2.99780 F600.000
G1 X66.593 Y104.363 E3.00546
G1 X66.758 Y104.417 E3.01310
G1 X67.061 Y104.583 E3.02837
G1 X67.195 Y104.694 E3.03602
G1 X67.415 Y104.960 E3.05129
G1 X67.563 Y105.274 E3.06656
G1 X67.622 Y105.569 E3.07984
G1 X68.284 Y105.485 F3000.000
G1 X68.295 Y105.829 E3.09502 F600.000
G1 X68.263 Y106.084 E3.10638
G1 X68.199 Y106.333 E3.11773
G1 X68.104 Y106.573 E3.12909
G1 X67.980 Y106.798 E3.14045
G1 X67.829 Y107.006 E3.15181
G1 X67.653 Y107.194 E3.16316
G1 X67.455 Y107.358 E3.17452
G1 X67.237 Y107.496 E3.18588
G1 X67.004 Y107.605 E3.19724
G1 X66.760 Y107.685 E3.20860
G1 X66.507 Y107.733 E3.21995
G1 X66.250 Y107.749 E3.23131
G1 X65.993 Y107.733 E3.24267
G1 X65.740 Y107.685 E3.25403
G1 X65.496 Y107.605 E3.26538
G1 X65.263 Y107.496 E3.27674
G1 X65.045 Y107.358 E3.28810
G1 X64.847 Y107.194 E3.29946
G1 X64.671 Y107.006 E3.31081
G1 X64.520 Y106.798 E3.32217
G1 X64.396 Y106.573 E3.33353
G1 X64.301 Y106.333 E3.34489
G1 X64.237 Y106.084 E3.35625
G1 X64.205 Y105.829 E3.36760
G1 X64.205 Y105.571 E3.37896
G1 X64.237 Y105.316 E3.39032
G1 X64.301 Y105.067 E3.40167
G1 X64.396 Y104.827 E3.41303
G1 X64.520 Y104.602 E3.42439
G1 X64.671 Y104.394 E3.43575
G1 X64.847 Y104.206 E3.44711
G1 X65.045 Y104.042 E3.45846
G1 X65.263 Y103.904 E3.46982
G1 X65.496 Y103.795 E3.48118
G1 X65.740 Y103.715 E3.49254
G1 X65.993 Y103.667 E3.50390
G1 X66.250 Y103.651 E3.51525
G1 X66.507 Y103.667 E3.52661
G1 X66.760 Y103.715 E3.53797 F600.000
G1 X67.004 Y103.795 E3.54932
G1 X67.237 Y103.904 E3.56068
G1 X67.455 Y104.042 E3.57204
G1 X67.653 Y104.206 E3.58340
G1 X67.829 Y104.394 E3.59476
G1 X67.980 Y104.602 E3.60611
G1 X68.104 Y104.827 E3.61747
G1 X68.199 Y105.067 E3.62883
G1 X68.279 Y105.440 E3.64569
G1 X65.977 Y105.011 F3000.000
G1 X66.250 Y104.955 E3.65797 F600.000
G1 X66.542 Y105.016 E3.67114
G1 X66.773 Y105.172 E3.68344
G1 X66.931 Y105.402 E3.69573
G1 X66.976 Y105.541 E3.70221
G1 X66.984 Y105.820 E3.71450
G1 X66.888 Y106.081 E3.72680
G1 X66.703 Y106.290 E3.73910
G1 X66.523 Y106.389 E3.74819
G1 X66.323 Y106.440 E3.75726
G1 X66.177 Y106.440 E3.76374
G1 X65.977 Y106.389 E3.77282
G1 X65.797 Y106.290 E3.78191
G1 X65.612 Y106.081 E3.79421
G1 X65.509 Y105.767 E3.80881
G1 X65.542 Y105.470 E3.82198
G1 X65.679 Y105.228 E3.83426
G1 X65.815 Y105.101 E3.84246
G1 X65.938 Y105.033 E3.84867
G1 F2400.000 E1.14867
G92 E0
G1 X66.250 Y96.880 F3000.000
G1 E2.70000 F2400.000
G1 X66.077 Y96.869 E2.70765 F600.000
G1 X65.742 Y96.783 E2.72291
G1 X65.439 Y96.617 E2.73819
G1 X65.305 Y96.506 E2.74584
G1 X65.085 Y96.240 E2.76110
G1 X65.001 Y96.088 E2.76875
G1 X64.894 Y95.759 E2.78402
G1 X64.873 Y95.587 E2.79167
G1 X64.894 Y95.241 E2.80694
G1 X64.937 Y95.074 E2.81459
G1 X65.001 Y94.912 E2.82224
G1 X65.187 Y94.620 E2.83750
G1 X65.439 Y94.383 E2.85277
G1 X65.585 Y94.291 E2.86043
G1 X65.742 Y94.217 E2.86807
G1 X66.077 Y94.131 E2.88334
G1 X66.423 Y94.131 E2.89861 F600.000
G1 X66.758 Y94.217 E2.91387
G1 X67.061 Y94.383 E2.92914
G1 X67.195 Y94.494 E2.93680
G1 X67.415 Y94.760 E2.95206
G1 X67.499 Y94.912 E2.95971
G1 X67.606 Y95.241 E2.97498
G1 X67.627 Y95.413 E2.98263
G1 X67.606 Y95.759 E2.99790
G1 X67.563 Y95.926 E3.00554
G1 X67.499 Y96.088 E3.01320
G1 X67.313 Y96.380 E3.02846
G1 X67.195 Y96.506 E3.03611
G1 X66.915 Y96.709 E3.05138
G1 X66.593 Y96.837 E3.06665
G1 X66.295 Y96.877 E3.07993
G1 X66.337 Y97.544 F3000.000
G1 X65.993 Y97.533 E3.09511 F600.000
G1 X65.740 Y97.485 E3.10647
G1 X65.496 Y97.405 E3.11782
G1 X65.263 Y97.296 E3.12918
G1 X65.045 Y97.158 E3.14054
G1 X64.847 Y96.994 E3.15190
G1 X64.671 Y96.806 E3.16325
G1 X64.520 Y96.598 E3.17461
G1 X64.396 Y96.373 E3.18597
G1 X64.301 Y96.133 E3.19733
G1 X64.237 Y95.884 E3.20868
G1 X64.205 Y95.629 E3.22004
G1 X64.205 Y95.371 E3.23140
G1 X64.237 Y95.116 E3.24276
G1 X64.301 Y94.867 E3.25411
G1 X64.396 Y94.627 E3.26547
G1 X64.520 Y94.402 E3.27683
G1 X64.671 Y94.194 E3.28819
G1 X64.847 Y94.006 E3.29954
G1 X65.045 Y93.842 E3.31090
G1 X65.263 Y93.704 E3.32226
G1 X65.496 Y93.595 E3.33362
G1 X65.740 Y93.515 E3.34497
G1 X65.993 Y93.467 E3.35633
G1 X66.250 Y93.451 E3.36769
G1 X66.507 Y93.467 E3.37905
G1 X66.760 Y93.515 E3.39041 F600.000
G1 X67.004 Y93.595 E3.40176
G1 X67.237 Y93.704 E3.41312
G1 X67.455 Y93.842 E3.42448
G1 X67.653 Y94.006 E3.43584
G1 X67.829 Y94.194 E3.44719
G1 X67.980 Y94.402 E3.45855
G1 X68.104 Y94.627 E3.46991
G1 X68.199 Y94.867 E3.48127
G1 X68.263 Y95.116 E3.49263
G1 X68.295 Y95.371 E3.50398
G1 X68.295 Y95.629 E3.51534
G1 X68.263 Y95.884 E3.52670
G1 X68.199 Y96.133 E3.53805
G1 X68.104 Y96.373 E3.54941
G1 X67.980 Y96.598 E3.56077
G1 X67.829 Y96.806 E3.57213
G1 X67.653 Y96.994 E3.58349
G1 X67.455 Y97.158 E3.59484
G1 X67.237 Y97.296 E3.60620
G1 X67.004 Y97.405 E3.61756
G1 X66.760 Y97.485 E3.62892
G1 X66.382 Y97.541 E3.64578
G1 X65.977 Y94.811 F3000.000
G1 X66.250 Y94.755 E3.65806 F600.000
G1 X66.542 Y94.816 E3.67123
G1 X66.810 Y95.011 E3.68584
G1 X66.958 Y95.270 E3.69901
G1 X66.991 Y95.567 E3.71218
G1 X66.914 Y95.835 E3.72448
G1 X66.744 Y96.055 E3.73677
G1 X66.523 Y96.189 E3.74819
G1 X66.250 Y96.245 E3.76047
G1 X65.977 Y96.189 E3.77274
G1 X65.815 Y96.099 E3.78095
G1 X65.679 Y95.972 E3.78914
G1 X65.569 Y95.798 E3.79822
G1 X65.524 Y95.659 E3.80469
G1 X65.509 Y95.433 E3.81467
G1 X65.586 Y95.165 E3.82697
G1 X65.756 Y94.945 E3.83926
G1 X65.938 Y94.833 E3.84869
G1 F2400.000 E1.14869
G92 E0
G1 X72.373 Y95.413 F3000.000
G1 E2.70000 F2400.000
G1 X72.394 Y95.241 E2.70765 F600.000
G1 X72.501 Y94.912 E2.72292
G1 X72.687 Y94.620 E2.73818
G1 X72.939 Y94.383 E2.75345
G1 X73.085 Y94.291 E2.76111
G1 X73.242 Y94.217 E2.76875
G1 X73.577 Y94.131 E2.78402
G1 X73.923 Y94.131 E2.79929 F600.000
G1 X74.258 Y94.217 E2.81455
G1 X74.561 Y94.383 E2.82983
G1 X74.695 Y94.494 E2.83748
G1 X74.915 Y94.760 E2.85274
G1 X74.999 Y94.912 E2.86039
G1 X75.106 Y95.241 E2.87566
G1 X75.127 Y95.587 E2.89093
G1 X75.106 Y95.759 E2.89858
G1 X74.999 Y96.088 E2.91385
G1 X74.813 Y96.380 E2.92911
G1 X74.561 Y96.617 E2.94438
G1 X74.258 Y96.783 E2.95965
G1 X74.093 Y96.837 E2.96730
G1 X73.923 Y96.869 E2.97495
G1 X73.577 Y96.869 E2.99022
G1 X73.242 Y96.783 E3.00548
G1 X72.939 Y96.617 E3.02076
G1 X72.805 Y96.506 E3.02840
G1 X72.585 Y96.240 E3.04367
G1 X72.437 Y95.927 E3.05894
G1 X72.394 Y95.759 E3.06659
G1 X72.373 Y95.458 E3.07987
G1 X71.705 Y95.458 F3000.000
G1 X71.737 Y95.116 E3.09505 F600.000
G1 X71.801 Y94.867 E3.10641
G1 X71.896 Y94.627 E3.11777
G1 X72.020 Y94.402 E3.12912
G1 X72.171 Y94.194 E3.14048
G1 X72.347 Y94.006 E3.15184
G1 X72.545 Y93.842 E3.16319
G1 X72.763 Y93.704 E3.17455
G1 X72.996 Y93.595 E3.18591
G1 X73.240 Y93.515 E3.19727
G1 X73.493 Y93.467 E3.20863
G1 X73.750 Y93.451 E3.21998
G1 X74.007 Y93.467 E3.23134
G1 X74.260 Y93.515 E3.24270 F600.000
G1 X74.504 Y93.595 E3.25406
G1 X74.737 Y93.704 E3.26541
G1 X74.955 Y93.842 E3.27677
G1 X75.153 Y94.006 E3.28813
G1 X75.329 Y94.194 E3.29949
G1 X75.480 Y94.402 E3.31084
G1 X75.604 Y94.627 E3.32220
G1 X75.699 Y94.867 E3.33356
G1 X75.763 Y95.116 E3.34492
G1 X75.795 Y95.371 E3.35627
G1 X75.795 Y95.629 E3.36763
G1 X75.763 Y95.884 E3.37899
G1 X75.699 Y96.133 E3.39035
G1 X75.604 Y96.373 E3.40171
G1 X75.480 Y96.598 E3.41306
G1 X75.329 Y96.806 E3.42442
G1 X75.153 Y96.994 E3.43578
G1 X74.955 Y97.158 E3.44713
G1 X74.737 Y97.296 E3.45849
G1 X74.504 Y97.405 E3.46985
G1 X74.260 Y97.485 E3.48121
G1 X74.007 Y97.533 E3.49257
G1 X73.750 Y97.549 E3.50392
G1 X73.493 Y97.533 E3.51528
G1 X73.240 Y97.485 E3.52664
G1 X72.996 Y97.405 E3.53799
G1 X72.763 Y97.296 E3.54935
G1 X72.545 Y97.158 E3.56071
G1 X72.347 Y96.994 E3.57207
G1 X72.171 Y96.806 E3.58343
G1 X72.020 Y96.598 E3.59478
G1 X71.896 Y96.373 E3.60614
G1 X71.801 Y96.133 E3.61750
G1 X71.737 Y95.884 E3.62886
G1 X71.705 Y95.503 E3.64572
G1 X73.477 Y94.811 F3000.000
G1 X73.750 Y94.755 E3.65800 F600.000
G1 X74.042 Y94.816 E3.67117
G1 X74.257 Y94.960 E3.68258
G1 X74.414 Y95.165 E3.69398
G1 X74.491 Y95.433 E3.70628
G1 X74.478 Y95.639 E3.71537
G1 X74.414 Y95.835 E3.72446
G1 X74.244 Y96.055 E3.73675
G1 X74.005 Y96.198 E3.74905
G1 X73.863 Y96.235 E3.75552
G1 X73.657 Y96.235 E3.76460
G1 X73.458 Y96.184 E3.77368
G1 X73.227 Y96.028 E3.78599
G1 X73.069 Y95.798 E3.79828
G1 X73.024 Y95.659 E3.80475
G1 X73.009 Y95.433 E3.81473
G1 X73.086 Y95.165 E3.82703
G1 X73.256 Y94.945 E3.83932
G1 X73.438 Y94.833 E3.84875
G1 F2400.000 E1.14875
G92 E0
G1 X80.416 Y86.398 F3000.000
G1 E2.70000 F2400.000
G1 X80.187 Y86.180 E2.71396 F600.000
G1 X80.085 Y86.040 E2.72161
G1 X79.937 Y85.726 E2.73688
G1 X79.873 Y85.387 E2.75214
G1 X79.873 Y85.213 E2.75979
G1 X79.937 Y84.873 E2.77506
G1 X80.085 Y84.561 E2.79033
G1 X80.305 Y84.294 E2.80560
G1 X80.439 Y84.183 E2.81325
G1 X80.742 Y84.017 E2.82852
G1 X81.077 Y83.931 E2.84378
G1 X81.423 Y83.931 E2.85905 F600.000
G1 X81.758 Y84.017 E2.87432
G1 X82.061 Y84.183 E2.88959
G1 X82.195 Y84.294 E2.89724
G1 X82.415 Y84.561 E2.91251
G1 X82.563 Y84.873 E2.92777
G1 X82.627 Y85.213 E2.94304
G1 X82.606 Y85.558 E2.95830
G1 X82.499 Y85.888 E2.97358
G1 X82.313 Y86.180 E2.98884
G1 X82.061 Y86.417 E3.00411
G1 X81.758 Y86.583 E3.01939
G1 X81.423 Y86.669 E3.03465
G1 X81.077 Y86.669 E3.04992
G1 X80.742 Y86.583 E3.06519
G1 X80.452 Y86.425 E3.07978
G1 X80.094 Y86.989 F3000.000
G1 X79.847 Y86.794 E3.09365 F600.000
G1 X79.671 Y86.606 E3.10501
G1 X79.520 Y86.398 E3.11637
G1 X79.396 Y86.173 E3.12773
G1 X79.301 Y85.933 E3.13909
G1 X79.237 Y85.684 E3.15044
G1 X79.205 Y85.429 E3.16180
G1 X79.205 Y85.171 E3.17316
G1 X79.237 Y84.916 E3.18451
G1 X79.301 Y84.667 E3.19587
G1 X79.396 Y84.427 E3.20723
G1 X79.520 Y84.202 E3.21859
G1 X79.671 Y83.994 E3.22994
G1 X79.847 Y83.806 E3.24130
G1 X80.045 Y83.642 E3.25266
G1 X80.263 Y83.504 E3.26402
G1 X80.496 Y83.395 E3.27538
G1 X80.740 Y83.315 E3.28673
G1 X80.993 Y83.267 E3.29809
G1 X81.250 Y83.251 E3.30945
G1 X81.507 Y83.267 E3.32081
G1 X81.760 Y83.315 E3.33217 F600.000
G1 X82.004 Y83.395 E3.34352
G1 X82.237 Y83.504 E3.35488
G1 X82.455 Y83.642 E3.36624
G1 X82.653 Y83.806 E3.37759
G1 X82.829 Y83.994 E3.38895
G1 X82.980 Y84.202 E3.40031
G1 X83.104 Y84.427 E3.41166
G1 X83.199 Y84.667 E3.42302
G1 X83.263 Y84.916 E3.43438
G1 X83.295 Y85.171 E3.44574
G1 X83.295 Y85.429 E3.45710
G1 X83.263 Y85.684 E3.46845
G1 X83.199 Y85.933 E3.47981
G1 X83.104 Y86.173 E3.49117
G1 X82.980 Y86.398 E3.50253
G1 X82.829 Y86.606 E3.51388
G1 X82.653 Y86.794 E3.52524
G1 X82.455 Y86.958 E3.53660
G1 X82.237 Y87.096 E3.54796
G1 X82.004 Y87.205 E3.55932
G1 X81.760 Y87.285 E3.57067
G1 X81.507 Y87.333 E3.58203
G1 X81.250 Y87.349 E3.59339
G1 X80.993 Y87.333 E3.60475
G1 X80.740 Y87.285 E3.61611
G1 X80.496 Y87.205 E3.62746
G1 X80.132 Y87.013 E3.64563
G1 X80.797 Y84.710 F3000.000
G1 X80.977 Y84.611 E3.65472 F600.000
G1 X81.177 Y84.560 E3.66380
G1 X81.323 Y84.560 E3.67027
G1 X81.609 Y84.648 E3.68344
G1 X81.821 Y84.828 E3.69573
G1 X81.958 Y85.070 E3.70801
G1 X81.991 Y85.367 E3.72118
G1 X81.914 Y85.635 E3.73348
G1 X81.703 Y85.890 E3.74808
G1 X81.523 Y85.989 E3.75717
G1 X81.323 Y86.040 E3.76625
G1 X81.177 Y86.040 E3.77272
G1 X80.977 Y85.989 E3.78180
G1 X80.815 Y85.899 E3.79000
G1 X80.679 Y85.772 E3.79820
G1 X80.549 Y85.549 E3.80960
G1 X80.507 Y85.253 E3.82278
G1 X80.586 Y84.965 E3.83595
G1 X80.762 Y84.739 E3.84861
G1 F2400.000 E1.14861
G92 E0
G1 X87.373 Y85.213 F3000.000
G1 E2.70000 F2400.000
G1 X87.394 Y85.042 E2.70765 F600.000
G1 X87.501 Y84.712 E2.72293
G1 X87.585 Y84.561 E2.73056
G1 X87.805 Y84.294 E2.74584
G1 X87.939 Y84.183 E2.75348
G1 X88.242 Y84.017 E2.76876
G1 X88.577 Y83.931 E2.78402
G1 X88.923 Y83.931 E2.79929 F600.000
G1 X89.258 Y84.017 E2.81456
G1 X89.415 Y84.091 E2.82221
G1 X89.695 Y84.294 E2.83748
G1 X89.915 Y84.561 E2.85275
G1 X89.999 Y84.712 E2.86039
G1 X90.106 Y85.042 E2.87567
G1 X90.127 Y85.387 E2.89093
G1 X90.106 Y85.558 E2.89857
G1 X89.999 Y85.888 E2.91385
G1 X89.813 Y86.180 E2.92911
