; generated by Slic3r 1.2.0 on 2014-09-22 at 18:00:06

; external perimeters extrusion width = 0.30mm
; perimeters extrusion width = 0.90mm
; infill extrusion width = 0.50mm
; solid infill extrusion width = 0.50mm
; top infill extrusion width = 0.60mm

G21 ; set units to millimeters
M107
M104 S210 ; set temperature
G21           ;metric is good!
G90           ;absolute positioning
G28           ;go home
G92 E0        ;reset extruder
M109 S210 ; wait for temperature to be reached
G90 ; use absolute coordinates
G92 E0
M82 ; use absolute distances for extrusion
G1 F2400.000 E-2.70000
G92 E0
G1 Z10.350 F3000.000
G1 X72.805 Y84.294 F200.000
G1 Z2.350 F50.000
G1 E2.70000 F2400.000
G1 X72.939 Y84.183 E2.70765 F600.000
G1 X73.242 Y84.017 E2.72292
G1 X73.577 Y83.931 E2.73819
G1 X73.923 Y83.931 E2.75346 F600.000
G1 X74.258 Y84.017 E2.76872
G1 X74.415 Y84.091 E2.77637
G1 X74.695 Y84.294 E2.79164
G1 X74.813 Y84.420 E2.79929
G1 X74.999 Y84.712 E2.81456
G1 X75.063 Y84.874 E2.82221
G1 X75.106 Y85.041 E2.82986
G1 X75.127 Y85.387 E2.84513
G1 X75.106 Y85.559 E2.85277
G1 X74.999 Y85.888 E2.86804
G1 X74.915 Y86.040 E2.87569
G1 X74.695 Y86.306 E2.89096
G1 X74.415 Y86.509 E2.90623
G1 X74.258 Y86.583 E2.91388
G1 X73.923 Y86.669 E2.92915
G1 X73.577 Y86.669 E2.94441
G1 X73.242 Y86.583 E2.95968
G1 X73.085 Y86.509 E2.96733
G1 X72.939 Y86.417 E2.97498
G1 X72.687 Y86.180 E2.99025
G1 X72.501 Y85.888 E3.00551
G1 X72.437 Y85.726 E3.01317
G1 X72.394 Y85.559 E3.02082
G1 X72.373 Y85.213 E3.03608
G1 X72.394 Y85.041 E3.04373
G1 X72.501 Y84.712 E3.05900
G1 X72.585 Y84.560 E3.06665
G1 X72.774 Y84.327 E3.07993
G1 X72.288 Y83.870 F3000.000
G1 X72.545 Y83.642 E3.09511 F600.000
G1 X72.763 Y83.504 E3.10647
G1 X72.996 Y83.395 E3.11783
G1 X73.240 Y83.315 E3.12918
G1 X73.493 Y83.267 E3.14054
G1 X73.750 Y83.251 E3.15190
G1 X74.007 Y83.267 E3.16326
G1 X74.260 Y83.315 E3.17462 F600.000
G1 X74.504 Y83.395 E3.18597
G1 X74.737 Y83.504 E3.19733
G1 X74.955 Y83.642 E3.20869
G1 X75.153 Y83.806 E3.22005
G1 X75.329 Y83.994 E3.23140
G1 X75.480 Y84.202 E3.24276
G1 X75.604 Y84.427 E3.25412
G1 X75.699 Y84.667 E3.26548
G1 X75.763 Y84.916 E3.27683
G1 X75.795 Y85.171 E3.28819
G1 X75.795 Y85.429 E3.29955
G1 X75.763 Y85.684 E3.31091
G1 X75.699 Y85.933 E3.32226
G1 X75.604 Y86.173 E3.33362
G1 X75.480 Y86.398 E3.34498
G1 X75.329 Y86.606 E3.35633
G1 X75.153 Y86.794 E3.36769
G1 X74.955 Y86.958 E3.37905
G1 X74.737 Y87.096 E3.39041
G1 X74.504 Y87.205 E3.40177
G1 X74.260 Y87.285 E3.41312
G1 X74.007 Y87.333 E3.42448
G1 X73.750 Y87.349 E3.43584
G1 X73.493 Y87.333 E3.44720
G1 X73.240 Y87.285 E3.45856
G1 X72.996 Y87.205 E3.46991
G1 X72.763 Y87.096 E3.48127
G1 X72.545 Y86.958 E3.49263
G1 X72.347 Y86.794 E3.50399
G1 X72.171 Y86.606 E3.51534
G1 X72.020 Y86.398 E3.52670
G1 X71.896 Y86.173 E3.53806
G1 X71.801 Y85.933 E3.54942
G1 X71.737 Y85.684 E3.56077
G1 X71.705 Y85.429 E3.57213
G1 X71.705 Y85.171 E3.58349
G1 X71.737 Y84.916 E3.59485
G1 X71.801 Y84.667 E3.60620
G1 X71.896 Y84.427 E3.61756
G1 X72.020 Y84.202 E3.62892
G1 X72.257 Y83.902 E3.64578
G1 X73.477 Y84.611 F3000.000
G1 X73.750 Y84.555 E3.65806 F600.000
G1 X74.042 Y84.616 E3.67123
G1 X74.257 Y84.760 E3.68264
G1 X74.414 Y84.965 E3.69404
G1 X74.491 Y85.233 E3.70634
G1 X74.478 Y85.439 E3.71543
G1 X74.414 Y85.635 E3.72452
G1 X74.244 Y85.855 E3.73681
G1 X74.005 Y85.998 E3.74911
G1 X73.863 Y86.035 E3.75558
G1 X73.657 Y86.035 E3.76466
G1 X73.458 Y85.984 E3.77374
G1 X73.329 Y85.913 E3.78022
G1 X73.179 Y85.772 E3.78931
G1 X73.069 Y85.598 E3.79838
G1 X73.024 Y85.459 E3.80486
G1 X73.009 Y85.233 E3.81483
G1 X73.080 Y84.985 E3.82624
G1 X73.240 Y84.757 E3.83852
G1 X73.438 Y84.633 E3.84883
M104 S197 ; set temperature
G1 F2400.000 E1.14883
G92 E0
G1 Z2.550 F3000.000
G1 X73.033 Y83.772 F3000.000
G1 E2.70000 F2400.000
G1 X73.329 Y83.662 E2.72391 F600.000
G1 X73.538 Y83.622 E2.73995
G1 X73.750 Y83.608 E2.75599 F600.000
G1 X73.962 Y83.622 E2.77204
G1 X74.171 Y83.662 E2.78808
G1 X74.373 Y83.727 E2.80411
G1 X74.565 Y83.818 E2.82016
G1 X74.744 Y83.932 E2.83621
G1 X74.908 Y84.067 E2.85225
G1 X75.053 Y84.222 E2.86829
G1 X75.178 Y84.394 E2.88433
G1 X75.281 Y84.580 E2.90037
G1 X75.359 Y84.777 E2.91642
G1 X75.412 Y84.983 E2.93246
G1 X75.438 Y85.194 E2.94850
G1 X75.438 Y85.406 E2.96454
G1 X75.412 Y85.617 E2.98058
G1 X75.359 Y85.823 E2.99662
G1 X75.281 Y86.020 E3.01267
G1 X75.178 Y86.206 E3.02871
G1 X75.053 Y86.378 E3.04475
G1 X74.908 Y86.533 E3.06079
G1 X74.744 Y86.668 E3.07683
G1 X74.565 Y86.782 E3.09288
G1 X74.373 Y86.873 E3.10892
G1 X74.171 Y86.938 E3.12496
G1 X73.962 Y86.978 E3.14101
G1 X73.750 Y86.992 E3.15705
G1 X73.538 Y86.978 E3.17309
G1 X73.329 Y86.938 E3.18913
G1 X73.127 Y86.873 E3.20517
G1 X72.935 Y86.782 E3.22121
G1 X72.756 Y86.668 E3.23726
G1 X72.592 Y86.533 E3.25330
G1 X72.447 Y86.378 E3.26935
G1 X72.322 Y86.206 E3.28539
G1 X72.219 Y86.020 E3.30143
G1 X72.141 Y85.823 E3.31747
G1 X72.088 Y85.617 E3.33351
G1 X72.062 Y85.406 E3.34955
G1 X72.062 Y85.194 E3.36560
G1 X72.088 Y84.983 E3.38164
G1 X72.141 Y84.777 E3.39768
G1 X72.219 Y84.580 E3.41373
G1 X72.322 Y84.394 E3.42976
G1 X72.447 Y84.222 E3.44580
G1 X72.592 Y84.067 E3.46185
G1 X72.756 Y83.932 E3.47789
G1 X72.992 Y83.791 E3.49864
G1 X72.755 Y83.287 F3000.000
G1 X72.922 Y83.208 E3.50283 F600.000
G1 X73.191 Y83.121 E3.50923
G1 X73.468 Y83.068 E3.51563
G1 X73.764 Y83.051 E3.52235
G1 X74.032 Y83.068 E3.52843 F600.000
G1 X74.309 Y83.121 E3.53483
G1 X74.578 Y83.208 E3.54123
G1 X74.834 Y83.329 E3.54763
G1 X75.072 Y83.480 E3.55403
G1 X75.290 Y83.660 E3.56043
G1 X75.483 Y83.866 E3.56683
G1 X75.649 Y84.095 E3.57322
G1 X75.786 Y84.342 E3.57962
G1 X75.890 Y84.605 E3.58602
G1 X75.960 Y84.878 E3.59242
G1 X75.995 Y85.159 E3.59882
G1 X75.995 Y85.441 E3.60522
G1 X75.960 Y85.722 E3.61162
G1 X75.890 Y85.995 E3.61802
G1 X75.786 Y86.258 E3.62442
G1 X75.649 Y86.505 E3.63082
G1 X75.483 Y86.734 E3.63722
G1 X75.290 Y86.940 E3.64362
G1 X75.072 Y87.120 E3.65002
G1 X74.834 Y87.271 E3.65642
G1 X74.578 Y87.392 E3.66282
G1 X74.309 Y87.479 E3.66922
G1 X74.032 Y87.532 E3.67562
G1 X73.750 Y87.550 E3.68202
G1 X73.468 Y87.532 E3.68842
G1 X73.191 Y87.479 E3.69482
G1 X72.922 Y87.392 E3.70122
G1 X72.666 Y87.271 E3.70762
G1 X72.428 Y87.120 E3.71402
G1 X72.221 Y86.949 E3.72010
G1 X72.017 Y86.734 E3.72682
G1 X71.851 Y86.505 E3.73321
G1 X71.714 Y86.258 E3.73961
G1 X71.610 Y85.995 E3.74601
G1 X71.540 Y85.722 E3.75241
G1 X71.505 Y85.441 E3.75881
G1 X71.505 Y85.159 E3.76521
G1 X71.540 Y84.878 E3.77161
G1 X71.610 Y84.605 E3.77801
G1 X71.714 Y84.342 E3.78441
G1 X71.850 Y84.095 E3.79081
G1 X72.017 Y83.866 E3.79721
G1 X72.210 Y83.660 E3.80361
G1 X72.428 Y83.480 E3.81001
G1 X72.714 Y83.306 E3.81759
G1 X73.080 Y84.331 F3000.000
G1 X72.784 Y84.628 E3.83451 F600.000
G1 X72.587 Y85.480 E3.86974
G1 X73.931 Y84.136 E3.94629
G1 X74.402 Y84.320 E3.96667
G1 X72.770 Y85.953 E4.05966
G1 X73.098 Y86.280 E4.07832
G1 X74.730 Y84.647 E4.17131
G1 X74.913 Y85.120 E4.19171
G1 X73.569 Y86.464 E4.26826
G1 X74.420 Y86.269 E4.30339
G1 X74.716 Y85.972 E4.32030
G1 F2400.000 E1.62030
G92 E0
G1 Z2.750 F3000.000
G1 X75.130 Y86.273 F3000.000
G1 E2.70000 F2400.000
G1 X74.908 Y86.533 E2.72585 F600.000
G1 X74.744 Y86.668 E2.74190
G1 X74.565 Y86.782 E2.75794
G1 X74.373 Y86.873 E2.77399
G1 X74.171 Y86.938 E2.79002
G1 X73.962 Y86.978 E2.80607
G1 X73.750 Y86.992 E2.82211
G1 X73.538 Y86.978 E2.83815
G1 X73.329 Y86.938 E2.85420
G1 X73.127 Y86.873 E2.87023
G1 X72.935 Y86.782 E2.88627
G1 X72.756 Y86.668 E2.90232
G1 X72.592 Y86.533 E2.91836
G1 X72.447 Y86.378 E2.93441
G1 X72.322 Y86.206 E2.95045
G1 X72.219 Y86.020 E2.96648
G1 X72.141 Y85.823 E2.98253
G1 X72.088 Y85.617 E2.99857
G1 X72.062 Y85.406 E3.01461
G1 X72.062 Y85.194 E3.03066
G1 X72.088 Y84.983 E3.04670
G1 X72.141 Y84.777 E3.06274
G1 X72.219 Y84.580 E3.07879
G1 X72.322 Y84.394 E3.09482
G1 X72.447 Y84.222 E3.11086
G1 X72.592 Y84.067 E3.12691
G1 X72.756 Y83.932 E3.14295
G1 X72.935 Y83.818 E3.15900
G1 X73.127 Y83.727 E3.17504
G1 X73.329 Y83.662 E3.19108
G1 X73.538 Y83.622 E3.20712
G1 X73.750 Y83.608 E3.22316 F600.000
G1 X73.962 Y83.622 E3.23921
G1 X74.171 Y83.662 E3.25525
G1 X74.373 Y83.727 E3.27129
G1 X74.565 Y83.818 E3.28733
G1 X74.744 Y83.932 E3.30338
G1 X74.908 Y84.067 E3.31942
G1 X75.053 Y84.222 E3.33546
G1 X75.178 Y84.394 E3.35150
G1 X75.281 Y84.580 E3.36754
G1 X75.359 Y84.777 E3.38359
G1 X75.412 Y84.983 E3.39963
G1 X75.438 Y85.194 E3.41567
G1 X75.438 Y85.406 E3.43171
G1 X75.412 Y85.617 E3.44775
G1 X75.359 Y85.823 E3.46380
G1 X75.281 Y86.020 E3.47984
G1 X75.157 Y86.236 E3.49865
G1 X75.607 Y86.564 F3000.000
G1 X75.483 Y86.734 E3.50342 F600.000
G1 X75.290 Y86.940 E3.50982
G1 X75.072 Y87.120 E3.51621
G1 X74.834 Y87.271 E3.52261
G1 X74.578 Y87.392 E3.52902
G1 X74.309 Y87.479 E3.53541
G1 X74.032 Y87.532 E3.54181
G1 X73.750 Y87.550 E3.54821
G1 X73.468 Y87.532 E3.55461
G1 X73.191 Y87.479 E3.56101
G1 X72.922 Y87.392 E3.56741
G1 X72.666 Y87.271 E3.57381
G1 X72.428 Y87.120 E3.58021
G1 X72.210 Y86.940 E3.58661
G1 X72.017 Y86.734 E3.59301
G1 X71.851 Y86.505 E3.59941
G1 X71.714 Y86.258 E3.60581
G1 X71.610 Y85.995 E3.61221
G1 X71.540 Y85.722 E3.61861
G1 X71.505 Y85.441 E3.62501
G1 X71.505 Y85.159 E3.63141
G1 X71.540 Y84.878 E3.63781
G1 X71.610 Y84.605 E3.64421
G1 X71.714 Y84.342 E3.65061
G1 X71.851 Y84.095 E3.65701
G1 X72.017 Y83.866 E3.66341
G1 X72.210 Y83.660 E3.66981
G1 X72.428 Y83.480 E3.67621
G1 X72.666 Y83.329 E3.68261
G1 X72.922 Y83.208 E3.68901
G1 X73.191 Y83.121 E3.69541
G1 X73.468 Y83.068 E3.70181
G1 X73.750 Y83.050 E3.70821
G1 X74.032 Y83.068 E3.71461
G1 X74.309 Y83.121 E3.72101 F600.000
G1 X74.578 Y83.208 E3.72740
G1 X74.834 Y83.329 E3.73381
G1 X75.072 Y83.480 E3.74021
G1 X75.290 Y83.660 E3.74660
G1 X75.483 Y83.866 E3.75300
G1 X75.649 Y84.095 E3.75940
G1 X75.786 Y84.342 E3.76580
G1 X75.890 Y84.605 E3.77220
G1 X75.960 Y84.878 E3.77860
G1 X75.995 Y85.159 E3.78500
G1 X75.995 Y85.441 E3.79140
G1 X75.960 Y85.722 E3.79780
G1 X75.890 Y85.995 E3.80420
G1 X75.786 Y86.258 E3.81060
G1 X75.634 Y86.527 E3.81761
G1 X74.420 Y84.331 F3000.000
G1 X74.716 Y84.628 E3.83452 F600.000
G1 X74.913 Y85.480 E3.86975
G1 X73.569 Y84.136 E3.94630
G1 X73.098 Y84.320 E3.96668
G1 X74.730 Y85.953 E4.05967
G1 X74.402 Y86.280 E4.07833
G1 X72.770 Y84.647 E4.17132
G1 X72.587 Y85.120 E4.19172
G1 X73.931 Y86.464 E4.26827
G1 X73.080 Y86.269 E4.30340
G1 X72.784 Y85.972 E4.32031
M106 S255
G1 F2400.000 E1.62031
G92 E0
G1 Z2.950 F3000.000
G1 X72.370 Y86.273 F3000.000
G1 E2.70000 F2400.000
G1 X72.219 Y86.020 E2.72218 F600.000
G1 X72.141 Y85.823 E2.73823
G1 X72.088 Y85.617 E2.75427
G1 X72.062 Y85.406 E2.77031
G1 X72.062 Y85.194 E2.78636
G1 X72.088 Y84.983 E2.80240
G1 X72.141 Y84.777 E2.81844
G1 X72.219 Y84.580 E2.83449
G1 X72.322 Y84.394 E2.85052
G1 X72.447 Y84.222 E2.86656
G1 X72.592 Y84.067 E2.88261
G1 X72.756 Y83.932 E2.89865
G1 X72.935 Y83.818 E2.91470
G1 X73.127 Y83.727 E2.93074
G1 X73.329 Y83.662 E2.94678
G1 X73.538 Y83.622 E2.96282
G1 X73.750 Y83.608 E2.97886 F600.000
G1 X73.962 Y83.622 E2.99491
G1 X74.171 Y83.662 E3.01095
G1 X74.373 Y83.727 E3.02699
G1 X74.565 Y83.818 E3.04303
G1 X74.744 Y83.932 E3.05908
G1 X74.908 Y84.067 E3.07512
G1 X75.053 Y84.222 E3.09116
G1 X75.178 Y84.394 E3.10720
G1 X75.281 Y84.580 E3.12324
G1 X75.359 Y84.777 E3.13929
G1 X75.412 Y84.983 E3.15533
G1 X75.438 Y85.194 E3.17137
G1 X75.438 Y85.406 E3.18741
G1 X75.412 Y85.617 E3.20345
G1 X75.359 Y85.823 E3.21949
G1 X75.281 Y86.020 E3.23554
G1 X75.178 Y86.206 E3.25158
G1 X75.053 Y86.378 E3.26762
G1 X74.908 Y86.533 E3.28366
G1 X74.744 Y86.668 E3.29971
G1 X74.565 Y86.782 E3.31575
G1 X74.373 Y86.873 E3.33180
G1 X74.171 Y86.938 E3.34783
G1 X73.962 Y86.978 E3.36388
G1 X73.750 Y86.992 E3.37992
G1 X73.538 Y86.978 E3.39596
G1 X73.329 Y86.938 E3.41201
G1 X73.127 Y86.873 E3.42804
G1 X72.935 Y86.782 E3.44408
G1 X72.756 Y86.668 E3.46013
G1 X72.592 Y86.533 E3.47618
G1 X72.396 Y86.309 E3.49864
G1 X71.946 Y86.636 F3000.000
G1 X71.850 Y86.505 E3.50231 F600.000
G1 X71.714 Y86.258 E3.50871
G1 X71.610 Y85.995 E3.51511
G1 X71.540 Y85.722 E3.52151
G1 X71.505 Y85.441 E3.52791
G1 X71.505 Y85.159 E3.53431
G1 X71.540 Y84.878 E3.54071
G1 X71.610 Y84.605 E3.54711
G1 X71.714 Y84.342 E3.55351
G1 X71.850 Y84.095 E3.55991
G1 X72.017 Y83.866 E3.56631
G1 X72.210 Y83.660 E3.57271
G1 X72.428 Y83.480 E3.57911
G1 X72.666 Y83.329 E3.58551
G1 X72.922 Y83.208 E3.59191
G1 X73.191 Y83.121 E3.59830
G1 X73.468 Y83.068 E3.60470
G1 X73.802 Y83.054 E3.61227
G1 X74.032 Y83.068 E3.61750 F600.000
G1 X74.309 Y83.121 E3.62390
G1 X74.578 Y83.208 E3.63030
G1 X74.834 Y83.329 E3.63670
G1 X75.072 Y83.480 E3.64310
G1 X75.290 Y83.660 E3.64950
G1 X75.483 Y83.866 E3.65589
G1 X75.649 Y84.095 E3.66229
G1 X75.786 Y84.342 E3.66869
G1 X75.890 Y84.605 E3.67509
G1 X75.960 Y84.878 E3.68149
G1 X75.995 Y85.159 E3.68789
G1 X75.995 Y85.441 E3.69429
G1 X75.960 Y85.722 E3.70069
G1 X75.890 Y85.995 E3.70709
G1 X75.786 Y86.258 E3.71349
G1 X75.649 Y86.505 E3.71989
G1 X75.483 Y86.734 E3.72629
G1 X75.290 Y86.940 E3.73269
G1 X75.072 Y87.120 E3.73909
G1 X74.834 Y87.271 E3.74549
G1 X74.578 Y87.392 E3.75189
G1 X74.309 Y87.479 E3.75829
G1 X74.032 Y87.532 E3.76469
G1 X73.750 Y87.550 E3.77109
G1 X73.468 Y87.532 E3.77749
G1 X73.191 Y87.479 E3.78389
G1 X72.922 Y87.392 E3.79029
G1 X72.666 Y87.271 E3.79669
G1 X72.428 Y87.120 E3.80309
G1 X72.210 Y86.940 E3.80949
G1 X71.972 Y86.673 E3.81759
G1 X73.487 Y84.277 F3000.000
G1 X73.618 Y84.252 E3.82293 F600.000
G1 X73.882 Y84.252 E3.83359
G1 X74.139 Y84.318 E3.84425
G1 X74.259 Y84.375 E3.84959
G1 X74.371 Y84.446 E3.85494
G1 X74.564 Y84.627 E3.86560
G1 X74.706 Y84.850 E3.87626
G1 X74.754 Y84.974 E3.88160
G1 X74.787 Y85.102 E3.88694
G1 X74.804 Y85.366 E3.89760
G1 X74.787 Y85.498 E3.90294
G1 X74.706 Y85.750 E3.91361
G1 X74.642 Y85.866 E3.91894
G1 X74.473 Y86.070 E3.92961
G1 X74.371 Y86.154 E3.93495
G1 X74.139 Y86.282 E3.94561
G1 X73.882 Y86.348 E3.95627
G1 X73.750 Y86.356 E3.96161
G1 X73.618 Y86.348 E3.96695
G1 X73.361 Y86.282 E3.97761
G1 X73.129 Y86.154 E3.98828
G1 X72.936 Y85.973 E3.99894
G1 X72.794 Y85.750 E4.00960
G1 X72.746 Y85.626 E4.01494
G1 X72.713 Y85.498 E4.02028
G1 X72.696 Y85.234 E4.03094
G1 X72.713 Y85.102 E4.03629
G1 X72.794 Y84.850 E4.04695
G1 X72.936 Y84.627 E4.05761
G1 X73.027 Y84.530 E4.06295
G1 X73.241 Y84.375 E4.07362
G1 X73.445 Y84.291 E4.08246
G1 F2400.000 E1.38246
G92 E0
G1 Z3.150 F3000.000
G1 X73.249 Y83.688 F3000.000
G1 E2.70000 F2400.000
G1 X73.538 Y83.622 E2.72241 F600.000
G1 X73.714 Y83.611 E2.73577
G1 X73.962 Y83.622 E2.75448 F600.000
G1 X74.171 Y83.662 E2.77052
G1 X74.373 Y83.727 E2.78656
G1 X74.565 Y83.818 E2.80260
G1 X74.744 Y83.932 E2.81865
G1 X74.908 Y84.067 E2.83469
G1 X75.053 Y84.222 E2.85074
G1 X75.178 Y84.394 E2.86678
G1 X75.281 Y84.580 E2.88281
G1 X75.359 Y84.777 E2.89886
G1 X75.412 Y84.983 E2.91490
G1 X75.438 Y85.194 E2.93095
G1 X75.438 Y85.406 E2.94699
G1 X75.412 Y85.617 E2.96303
G1 X75.359 Y85.823 E2.97907
G1 X75.281 Y86.020 E2.99512
G1 X75.178 Y86.206 E3.01116
G1 X75.053 Y86.378 E3.02719
G1 X74.908 Y86.533 E3.04324
G1 X74.744 Y86.668 E3.05928
G1 X74.565 Y86.782 E3.07533
G1 X74.373 Y86.873 E3.09137
G1 X74.171 Y86.938 E3.10741
G1 X73.962 Y86.978 E3.12345
G1 X73.750 Y86.992 E3.13949
G1 X73.538 Y86.978 E3.15554
G1 X73.329 Y86.938 E3.17158
G1 X73.127 Y86.873 E3.18762
G1 X72.935 Y86.782 E3.20366
G1 X72.756 Y86.668 E3.21971
G1 X72.592 Y86.533 E3.23575
G1 X72.447 Y86.378 E3.25179
G1 X72.322 Y86.206 E3.26783
G1 X72.219 Y86.020 E3.28387
G1 X72.141 Y85.823 E3.29992
G1 X72.088 Y85.617 E3.31596
G1 X72.062 Y85.406 E3.33200
G1 X72.062 Y85.194 E3.34804
G1 X72.088 Y84.983 E3.36408
G1 X72.141 Y84.777 E3.38013
G1 X72.219 Y84.580 E3.39617
G1 X72.322 Y84.394 E3.41221
G1 X72.447 Y84.222 E3.42825
G1 X72.592 Y84.067 E3.44429
G1 X72.756 Y83.932 E3.46034
G1 X72.935 Y83.818 E3.47639
G1 X73.206 Y83.702 E3.49862
G1 X73.034 Y83.172 F3000.000
G1 X73.191 Y83.121 E3.50236 F600.000
G1 X73.468 Y83.068 E3.50876
G1 X73.820 Y83.055 E3.51675
G1 X74.032 Y83.068 E3.52155 F600.000
G1 X74.309 Y83.121 E3.52795
G1 X74.578 Y83.208 E3.53435
G1 X74.834 Y83.329 E3.54075
G1 X75.072 Y83.480 E3.54715
G1 X75.290 Y83.660 E3.55355
G1 X75.483 Y83.866 E3.55995
G1 X75.649 Y84.095 E3.56634
G1 X75.786 Y84.342 E3.57274
G1 X75.890 Y84.605 E3.57914
