; generated by Slic3r 1.2.0 on 2014-09-22 at 14:45:54

; external perimeters extrusion width = 0.30mm
; perimeters extrusion width = 0.90mm
; infill extrusion width = 0.50mm
; solid infill extrusion width = 0.50mm
; top infill extrusion width = 0.60mm

G21 ; set units to millimeters
M107
M104 S210 ; set temperature
G21           ;metric is good!
G90           ;absolute positioning
G28           ;go home
G92 E0        ;reset extruder
M109 S210 ; wait for temperature to be reached
G90 ; use absolute coordinates
G92 E0
M82 ; use absolute distances for extrusion
G1 F2400.000 E-2.70000
G92 E0
G1 Z0.350 F3000.000
G1 X35.708 Y27.627 F3000.000
G1 E2.70000 F2400.000
G1 X36.797 Y26.426 E2.77155 F600.000
G1 X38.650 Y25.864 E2.85699
G1 X101.350 Y25.864 E5.62408
G1 X102.923 Y26.258 E5.69563
G1 X104.124 Y27.347 E5.76718 F600.000
G1 X104.686 Y29.200 E5.85262
G1 X104.686 Y110.800 E9.45382
G1 X104.292 Y112.373 E9.52537
G1 X103.203 Y113.574 E9.59692
G1 X101.350 Y114.136 E9.68236
G1 X38.650 Y114.136 E12.44945
G1 X37.077 Y113.742 E12.52100
G1 X35.876 Y112.653 E12.59255
G1 X35.314 Y110.800 E12.67799
G1 X35.314 Y29.200 E16.27918
G1 X35.697 Y27.671 E16.34875
G1 X36.360 Y27.858 F3000.000
G1 X36.375 Y27.807 E16.35107 F600.000
G1 X37.437 Y26.824 E16.41494
G1 X38.650 Y26.532 E16.47001
G1 X101.350 Y26.532 E19.23711
G1 X102.743 Y26.925 E19.30097
G1 X103.726 Y27.987 E19.36484 F600.000
G1 X104.018 Y29.200 E19.41991
G1 X104.018 Y110.800 E23.02110
G1 X103.625 Y112.193 E23.08497
G1 X102.563 Y113.176 E23.14884
G1 X101.350 Y113.468 E23.20391
G1 X38.650 Y113.468 E25.97100
G1 X37.257 Y113.075 E26.03487
G1 X36.274 Y112.013 E26.09873
G1 X35.982 Y110.800 E26.15381
G1 X35.982 Y29.200 E29.75500
G1 X36.348 Y27.901 E29.81456
G1 F2400.000 E27.11456
G92 E0
G1 X39.000 Y29.550 F3000.000
G1 E2.70000 F2400.000
G1 X101.000 Y29.550 E5.43620 F600.000
G1 X101.000 Y110.450 E9.00650
G1 X39.000 Y110.450 E11.74270
G1 X39.000 Y29.595 E15.31102
G1 X100.496 Y30.014 F3000.000
G1 X100.536 Y30.054 E15.31351 F600.000
G1 X100.536 Y31.000 E15.35527
G1 X99.550 Y30.014 E15.41681
G1 X98.604 Y30.014 E15.45856
G1 X100.536 Y31.946 E15.57915
G1 X100.536 Y32.892 E15.62090
G1 X97.658 Y30.014 E15.80054
G1 X96.712 Y30.014 E15.84229
G1 X100.536 Y33.838 E16.08097
G1 X100.536 Y34.784 E16.12272
G1 X95.766 Y30.014 E16.42045
G1 X94.819 Y30.014 E16.46220
G1 X100.536 Y35.731 E16.81897
G1 X100.536 Y36.677 E16.86073
G1 X93.873 Y30.014 E17.27655
G1 X92.927 Y30.014 E17.31830
G1 X100.536 Y37.623 E17.79316
G1 X100.536 Y38.569 E17.83492
G1 X91.981 Y30.014 E18.36883
G1 X91.035 Y30.014 E18.41058
G1 X100.536 Y39.515 E19.00354
G1 X100.536 Y40.461 E19.04529
G1 X90.089 Y30.014 E19.69729
G1 X89.143 Y30.014 E19.73904
G1 X100.536 Y41.407 E20.45010
G1 X100.536 Y42.353 E20.49185
G1 X88.197 Y30.014 E21.26194
G1 X87.251 Y30.014 E21.30370
G1 X100.536 Y43.299 E22.13284
G1 X100.536 Y44.245 E22.17459
G1 X86.305 Y30.014 E23.06278
G1 X85.359 Y30.014 E23.10453
G1 X100.536 Y45.191 E24.05177
G1 X100.536 Y46.137 E24.09352
G1 X84.413 Y30.014 E25.09980
G1 X83.467 Y30.014 E25.14155
G1 X100.536 Y47.083 E26.20688
G1 X100.536 Y48.029 E26.24863
G1 X82.521 Y30.014 E27.37300
G1 X81.575 Y30.014 E27.41475
G1 X100.536 Y48.975 E28.59817
G1 X100.536 Y49.921 E28.63993
G1 X80.629 Y30.014 E29.88239
G1 X79.682 Y30.014 E29.92414
G1 X100.536 Y50.868 E31.22565
G1 X100.536 Y51.814 E31.26741
G1 X78.736 Y30.014 E32.62796
G1 X77.790 Y30.014 E32.66972
G1 X100.536 Y52.760 E34.08932
G1 X100.536 Y53.706 E34.13107
G1 X76.844 Y30.014 E35.60972
G1 X75.898 Y30.014 E35.65147
G1 X100.536 Y54.652 E37.18917
G1 X100.536 Y55.598 E37.23092
G1 X74.952 Y30.014 E38.82766
G1 X74.006 Y30.014 E38.86942
G1 X100.536 Y56.544 E40.52520
G1 X100.536 Y57.490 E40.56696
G1 X73.060 Y30.014 E42.28179
G1 X72.114 Y30.014 E42.32354
G1 X100.536 Y58.436 E44.09742
G1 X100.536 Y59.382 E44.13918
G1 X71.168 Y30.014 E45.97210
G1 X70.222 Y30.014 E46.01385
G1 X100.536 Y60.328 E47.90583
G1 X100.536 Y61.274 E47.94758
G1 X69.276 Y30.014 E49.89860
G1 X68.330 Y30.014 E49.94035
G1 X100.536 Y62.220 E51.95041
G1 X100.536 Y63.166 E51.99217
G1 X67.384 Y30.014 E54.06128
G1 X66.438 Y30.014 E54.10303
G1 X100.536 Y64.112 E56.23119
G1 X100.536 Y65.058 E56.27294
G1 X65.492 Y30.014 E58.46014
G1 X64.545 Y30.014 E58.50189
G1 X100.536 Y66.005 E60.74814
G1 X100.536 Y66.951 E60.78990
G1 X63.599 Y30.014 E63.09519
G1 X62.653 Y30.014 E63.13694
G1 X100.536 Y67.897 E65.50129
G1 X100.536 Y68.843 E65.54304
G1 X61.707 Y30.014 E67.96643
G1 X60.761 Y30.014 E68.00818
G1 X100.536 Y69.789 E70.49061
G1 X100.536 Y70.735 E70.53236
G1 X59.815 Y30.014 E73.07385
G1 X58.869 Y30.014 E73.11560
G1 X100.536 Y71.681 E75.71612
G1 X100.536 Y72.627 E75.75788
G1 X57.923 Y30.014 E78.41745
G1 X56.977 Y30.014 E78.45920
G1 X100.536 Y73.573 E81.17782
G1 X100.536 Y74.519 E81.21957
G1 X56.031 Y30.014 E83.99724
G1 X55.085 Y30.014 E84.03899
G1 X100.536 Y75.465 E86.87570
G1 X100.536 Y76.411 E86.91745
G1 X54.139 Y30.014 E89.81321
G1 X53.193 Y30.014 E89.85496
G1 X100.536 Y77.357 E92.80976
G1 X100.536 Y78.303 E92.85152
G1 X52.247 Y30.014 E95.86536
G1 X51.301 Y30.014 E95.90712
G1 X100.536 Y79.249 E98.98001
G1 X100.536 Y80.195 E99.02176
G1 X50.355 Y30.014 E102.15371
G1 X49.408 Y30.014 E102.19546
G1 X100.536 Y81.142 E105.38645
G1 X100.536 Y82.088 E105.42820
G1 X48.462 Y30.014 E108.67823
G1 X47.516 Y30.014 E108.71998
G1 X100.536 Y83.034 E112.02906
G1 X100.536 Y83.980 E112.07082
G1 X46.570 Y30.014 E115.43894
G1 X45.624 Y30.014 E115.48069
G1 X100.536 Y84.926 E118.90787
G1 X100.536 Y85.872 E118.94962
G1 X44.678 Y30.014 E122.43584
G1 X43.732 Y30.014 E122.47759
G1 X100.536 Y86.818 E126.02285
G1 X100.536 Y87.764 E126.06461
G1 X42.786 Y30.014 E129.66892
G1 X41.840 Y30.014 E129.71067
G1 X100.536 Y88.710 E133.37403
G1 X100.536 Y89.656 E133.41578
G1 X40.894 Y30.014 E137.13818
G1 X39.948 Y30.014 E137.17993
G1 X100.536 Y90.602 E140.96138
G1 X100.536 Y91.548 E141.00313
G1 X39.464 Y30.477 E144.81477
G1 X39.464 Y31.423 E144.85652
G1 X100.536 Y92.494 E148.66816
G1 X100.536 Y93.440 E148.70991
G1 X39.464 Y32.369 E152.52155
G1 X39.464 Y33.315 E152.56330
G1 X100.536 Y94.386 E156.37493
G1 X100.536 Y95.333 E156.41669
G1 X39.464 Y34.261 E160.22832
G1 X39.464 Y35.207 E160.27007
G1 X100.536 Y96.279 E164.08171
G1 X100.536 Y97.225 E164.12346
G1 X39.464 Y36.153 E167.93510
G1 X39.464 Y37.099 E167.97685
G1 X100.536 Y98.171 E171.78849
G1 X100.536 Y99.117 E171.83024
G1 X39.464 Y38.045 E175.64187
G1 X39.464 Y38.991 E175.68363
G1 X100.536 Y100.063 E179.49526
G1 X100.536 Y101.009 E179.53701
G1 X39.464 Y39.937 E183.34865
G1 X39.464 Y40.883 E183.39040
G1 X100.536 Y101.955 E187.20204
G1 X100.536 Y102.901 E187.24379
G1 X39.464 Y41.829 E191.05543
G1 X39.464 Y42.775 E191.09718
G1 X100.536 Y103.847 E194.90881
G1 X100.536 Y104.793 E194.95057
G1 X39.464 Y43.721 E198.76220
G1 X39.464 Y44.667 E198.80395
G1 X100.536 Y105.739 E202.61559
G1 X100.536 Y106.685 E202.65734
G1 X39.464 Y45.614 E206.46898
G1 X39.464 Y46.560 E206.51073
G1 X100.536 Y107.631 E210.32237
G1 X100.536 Y108.577 E210.36412
G1 X39.464 Y47.506 E214.17575
G1 X39.464 Y48.452 E214.21751
G1 X100.536 Y109.523 E218.02914
G1 X100.052 Y109.986 E218.05867
G1 X39.464 Y49.398 E221.84012
G1 X39.464 Y50.344 E221.88187
G1 X99.106 Y109.986 E225.60428
G1 X98.160 Y109.986 E225.64603
G1 X39.464 Y51.290 E229.30938
G1 X39.464 Y52.236 E229.35114
G1 X97.214 Y109.986 E232.95545
G1 X96.268 Y109.986 E232.99720
G1 X39.464 Y53.182 E236.54246
G1 X39.464 Y54.128 E236.58422
G1 X95.322 Y109.986 E240.07044
G1 X94.376 Y109.986 E240.11219
G1 X39.464 Y55.074 E243.53936
G1 X39.464 Y56.020 E243.58111
G1 X93.430 Y109.986 E246.94924
G1 X92.484 Y109.986 E246.99099
G1 X39.464 Y56.966 E250.30007
G1 X39.464 Y57.912 E250.34182
G1 X91.538 Y109.986 E253.59186
G1 X90.592 Y109.986 E253.63361
G1 X39.464 Y58.858 E256.82460
G1 X39.464 Y59.804 E256.86635
G1 X89.645 Y109.986 E259.99829
G1 X88.699 Y109.986 E260.04004
G1 X39.464 Y60.751 E263.11294
G1 X39.464 Y61.697 E263.15469
G1 X87.753 Y109.986 E266.16854
G1 X86.807 Y109.986 E266.21029
G1 X39.464 Y62.643 E269.16509
G1 X39.464 Y63.589 E269.20685
G1 X85.861 Y109.986 E272.10260
G1 X84.915 Y109.986 E272.14435
G1 X39.464 Y64.535 E274.98107
G1 X39.464 Y65.481 E275.02282
G1 X83.969 Y109.986 E277.80048
G1 X83.023 Y109.986 E277.84223
G1 X39.464 Y66.427 E280.56085
G1 X39.464 Y67.373 E280.60261
G1 X82.077 Y109.986 E283.26218
G1 X81.131 Y109.986 E283.30393
G1 X39.464 Y68.319 E285.90446
G1 X39.464 Y69.265 E285.94621
G1 X80.185 Y109.986 E288.48769
G1 X79.239 Y109.986 E288.52944
G1 X39.464 Y70.211 E291.01188
G1 X39.464 Y71.157 E291.05363
G1 X78.293 Y109.986 E293.47702
G1 X77.347 Y109.986 E293.51877
G1 X39.464 Y72.103 E295.88311
G1 X39.464 Y73.049 E295.92486
G1 X76.401 Y109.986 E298.23016
G1 X75.455 Y109.986 E298.27191
G1 X39.464 Y73.995 E300.51816
G1 X39.464 Y74.942 E300.55991
G1 X74.508 Y109.986 E302.74711
G1 X73.562 Y109.986 E302.78887
G1 X39.464 Y75.888 E304.91702
G1 X39.464 Y76.834 E304.95878
G1 X72.616 Y109.986 E307.02789
G1 X71.670 Y109.986 E307.06964
G1 X39.464 Y77.780 E309.07970
G1 X39.464 Y78.726 E309.12146
G1 X70.724 Y109.986 E311.07248
G1 X69.778 Y109.986 E311.11423
G1 X39.464 Y79.672 E313.00620
G1 X39.464 Y80.618 E313.04795
G1 X68.832 Y109.986 E314.88088
G1 X67.886 Y109.986 E314.92263
G1 X39.464 Y81.564 E316.69651
G1 X39.464 Y82.510 E316.73826
G1 X66.940 Y109.986 E318.45310
G1 X65.994 Y109.986 E318.49485
G1 X39.464 Y83.456 E320.15064
G1 X39.464 Y84.402 E320.19239
G1 X65.048 Y109.986 E321.78913
G1 X64.102 Y109.986 E321.83088
G1 X39.464 Y85.348 E323.36858
G1 X39.464 Y86.294 E323.41033
G1 X63.156 Y109.986 E324.88898
G1 X62.210 Y109.986 E324.93073
G1 X39.464 Y87.240 E326.35034
G1 X39.464 Y88.186 E326.39209
G1 X61.264 Y109.986 E327.75265
G1 X60.318 Y109.986 E327.79440
G1 X39.464 Y89.132 E329.09591
G1 X39.464 Y90.079 E329.13766
G1 X59.371 Y109.986 E330.38013
G1 X58.425 Y109.986 E330.42188
G1 X39.464 Y91.025 E331.60530
G1 X39.464 Y91.971 E331.64705
G1 X57.479 Y109.986 E332.77142
G1 X56.533 Y109.986 E332.81318
G1 X39.464 Y92.917 E333.87850
G1 X39.464 Y93.863 E333.92025
G1 X55.587 Y109.986 E334.92654
G1 X54.641 Y109.986 E334.96829
G1 X39.464 Y94.809 E335.91552
G1 X39.464 Y95.755 E335.95727
G1 X53.695 Y109.986 E336.84546
G1 X52.749 Y109.986 E336.88721
G1 X39.464 Y96.701 E337.71636
G1 X39.464 Y97.647 E337.75811
G1 X51.803 Y109.986 E338.52820
G1 X50.857 Y109.986 E338.56996
G1 X39.464 Y98.593 E339.28101
G1 X39.464 Y99.539 E339.32276
G1 X49.911 Y109.986 E339.97476
G1 X48.965 Y109.986 E340.01651
G1 X39.464 Y100.485 E340.60947
G1 X39.464 Y101.431 E340.65122
G1 X48.019 Y109.986 E341.18514
G1 X47.073 Y109.986 E341.22689
G1 X39.464 Y102.377 E341.70175
G1 X39.464 Y103.323 E341.74351
G1 X46.127 Y109.986 E342.15933
G1 X45.181 Y109.986 E342.20108
G1 X39.464 Y104.269 E342.55785
G1 X39.464 Y105.216 E342.59960
G1 X44.234 Y109.986 E342.89733
G1 X43.288 Y109.986 E342.93908
G1 X39.464 Y106.162 E343.17776
G1 X39.464 Y107.108 E343.21951
G1 X42.342 Y109.986 E343.39915
G1 X41.396 Y109.986 E343.44090
G1 X39.464 Y108.054 E343.56149
G1 X39.464 Y109.000 E343.60324
G1 X40.450 Y109.986 E343.66478
G1 X39.504 Y109.986 E343.70654
G1 X39.464 Y109.946 E343.70903
M104 S197 ; set temperature
G1 F2400.000 E341.00903
G92 E0
G1 Z0.550 F3000.000
G1 X38.800 Y110.650 F3000.000
G1 E2.70000 F2400.000
G1 X38.800 Y29.350 E4.54162 F1200.000
G1 X101.200 Y29.350 E5.95512
G1 X101.200 Y110.650 E7.79674
G1 X38.845 Y110.650 E9.20922
G1 X100.689 Y110.099 F3000.000
G1 X100.649 Y110.139 E9.21149 F1200.000
G1 X100.002 Y110.139 E9.23753
G1 X100.689 Y109.452 E9.27663
G1 X100.689 Y108.806 E9.30267
G1 X99.356 Y110.139 E9.37859
G1 X98.709 Y110.139 E9.40462
G1 X100.689 Y108.159 E9.51736
G1 X100.689 Y107.513 E9.54340
G1 X98.063 Y110.139 E9.69296
G1 X97.416 Y110.139 E9.71899
G1 X100.689 Y106.866 E9.90538
G1 X100.689 Y106.220 E9.93141
G1 X96.770 Y110.139 E10.15461
G1 X96.123 Y110.139 E10.18065
G1 X100.689 Y105.573 E10.44067
G1 X100.689 Y104.927 E10.46671
G1 X95.477 Y110.139 E10.76355
G1 X94.831 Y110.139 E10.78959
G1 X100.689 Y104.281 E11.12325
G1 X100.689 Y103.634 E11.14929
G1 X94.184 Y110.139 E11.51977
G1 X93.538 Y110.139 E11.54580
G1 X100.689 Y102.988 E11.95311
G1 X100.689 Y102.341 E11.97915
G1 X92.891 Y110.139 E12.42327
G1 X92.245 Y110.139 E12.44931
G1 X100.689 Y101.695 E12.93025
G1 X100.689 Y101.048 E12.95629
G1 X91.598 Y110.139 E13.47405
G1 X90.952 Y110.139 E13.50009
G1 X100.689 Y100.402 E14.05468
G1 X100.689 Y99.755 E14.08071
G1 X90.305 Y110.139 E14.67212
G1 X89.659 Y110.139 E14.69816
G1 X100.689 Y99.109 E15.32638
G1 X100.689 Y98.462 E15.35242
G1 X89.012 Y110.139 E16.01747
G1 X88.366 Y110.139 E16.04350
G1 X100.689 Y97.816 E16.74537
G1 X100.689 Y97.169 E16.77141
G1 X87.719 Y110.139 E17.51010
G1 X87.073 Y110.139 E17.53613
G1 X100.689 Y96.523 E18.31164
G1 X100.689 Y95.877 E18.33768
G1 X86.427 Y110.139 E19.15001
G1 X85.780 Y110.139 E19.17605
G1 X100.689 Y95.230 E20.02520
G1 X100.689 Y94.584 E20.05123
G1 X85.134 Y110.139 E20.93720
G1 X84.487 Y110.139 E20.96324
G1 X100.689 Y93.937 E21.88603
G1 X100.689 Y93.291 E21.91207
G1 X83.841 Y110.139 E22.87168
G1 X83.194 Y110.139 E22.89772
G1 X100.689 Y92.644 E23.89415
G1 X100.689 Y91.998 E23.92019
G1 X82.548 Y110.139 E24.95344
G1 X81.901 Y110.139 E24.97948
G1 X100.689 Y91.351 E26.04955
G1 X100.689 Y90.705 E26.07559
G1 X81.255 Y110.139 E27.18248
G1 X80.608 Y110.139 E27.20852
G1 X100.689 Y90.058 E28.35223
G1 X100.689 Y89.412 E28.37827
G1 X79.962 Y110.139 E29.55880
G1 X79.315 Y110.139 E29.58484
G1 X100.689 Y88.765 E30.80220
G1 X100.689 Y88.119 E30.82823
G1 X78.669 Y110.139 E32.08241
G1 X78.023 Y110.139 E32.10845
G1 X100.689 Y87.473 E33.39944
G1 X100.689 Y86.826 E33.42548
G1 X77.376 Y110.139 E34.75330
G1 X76.730 Y110.139 E34.77933
G1 X100.689 Y86.180 E36.14397
G1 X100.689 Y85.533 E36.17001
G1 X76.083 Y110.139 E37.57147
G1 X75.437 Y110.139 E37.59750
G1 X100.689 Y84.887 E39.03578
G1 X100.689 Y84.240 E39.06182
G1 X74.790 Y110.139 E40.53692
G1 X74.144 Y110.139 E40.56295
G1 X100.689 Y83.594 E42.07488
G1 X100.689 Y82.947 E42.10091
G1 X73.497 Y110.139 E43.64965
G1 X72.851 Y110.139 E43.67569
G1 X100.689 Y82.301 E45.26125
G1 X100.689 Y81.654 E45.28729
G1 X72.204 Y110.139 E46.90967
G1 X71.558 Y110.139 E46.93571
G1 X100.689 Y81.008 E48.59491
G1 X100.689 Y80.362 E48.62094
G1 X70.912 Y110.139 E50.31697
G1 X70.265 Y110.139 E50.34300
G1 X100.689 Y79.715 E52.07585
G1 X100.689 Y79.069 E52.10188
G1 X69.619 Y110.139 E53.87155
G1 X68.972 Y110.139 E53.89758
G1 X100.689 Y78.422 E55.70407
G1 X100.689 Y77.776 E55.73011
G1 X68.326 Y110.139 E57.57341
G1 X67.679 Y110.139 E57.59945
G1 X100.689 Y77.129 E59.47957
G1 X100.689 Y76.483 E59.50561
G1 X67.033 Y110.139 E61.42256
G1 X66.386 Y110.139 E61.44859
G1 X100.689 Y75.836 E63.40236
G1 X100.689 Y75.190 E63.42840
G1 X65.740 Y110.139 E65.41898
G1 X65.093 Y110.139 E65.44502
G1 X100.689 Y74.543 E67.47243
G1 X100.689 Y73.897 E67.49846
G1 X64.447 Y110.139 E69.56269
G1 X63.800 Y110.139 E69.58873
G1 X100.689 Y73.250 E71.68978
G1 X100.689 Y72.604 E71.71581
G1 X63.154 Y110.139 E73.85368
G1 X62.508 Y110.139 E73.87972
G1 X100.689 Y71.958 E76.05441
G1 X100.689 Y71.311 E76.08045
G1 X61.861 Y110.139 E78.29196
G1 X61.215 Y110.139 E78.31799
G1 X100.689 Y70.665 E80.56633
G1 X100.689 Y70.018 E80.59236
G1 X60.568 Y110.139 E82.87751
G1 X59.922 Y110.139 E82.90355
G1 X100.689 Y69.372 E85.22552
G1 X100.689 Y68.725 E85.25156
G1 X59.275 Y110.139 E87.61035
G1 X58.629 Y110.139 E87.63639
G1 X100.689 Y68.079 E90.03200
G1 X100.689 Y67.432 E90.05804
G1 X57.982 Y110.139 E92.49047
G1 X57.336 Y110.139 E92.51651
G1 X100.689 Y66.786 E94.98576
G1 X100.689 Y66.139 E95.01180
G1 X56.689 Y110.139 E97.51788
G1 X56.043 Y110.139 E97.54391
G1 X100.689 Y65.493 E100.08681
G1 X100.689 Y64.846 E100.11284
G1 X55.396 Y110.139 E102.69256
G1 X54.750 Y110.139 E102.71860
G1 X100.689 Y64.200 E105.33513
G1 X100.689 Y63.554 E105.36117
G1 X54.104 Y110.139 E108.01453
G1 X53.457 Y110.139 E108.04056
G1 X100.689 Y62.907 E110.73074
G1 X100.689 Y62.261 E110.75678
G1 X52.811 Y110.139 E113.48378
G1 X52.164 Y110.139 E113.50981
G1 X100.689 Y61.614 E116.27363
G1 X100.689 Y60.968 E116.29967
G1 X51.518 Y110.139 E119.10031
G1 X50.871 Y110.139 E119.12634
G1 X100.689 Y60.321 E121.96380
G1 X100.689 Y59.675 E121.98984
