; generated by Slic3r 1.2.0 on 2015-01-13 at 12:13:39

; external perimeters extrusion width = 0.30mm
; perimeters extrusion width = 0.90mm
; infill extrusion width = 0.50mm
; solid infill extrusion width = 0.50mm
; top infill extrusion width = 0.60mm

G21 ; set units to millimeters
M107
M104 S210 ; set temperature
G21           ;metric is good!
G90           ;absolute positioning
G28           ;go home
G92 E0        ;reset extruder
M109 S210 ; wait for temperature to be reached
G90 ; use absolute coordinates
G92 E0
M82 ; use absolute distances for extrusion
G1 F2400.000 E-2.70000
G92 E0
G1 Z0.050 F4800.000
G1 X39.066 Y45.066 F4800.000
G1 E2.70000 F2400.000
G1 X40.457 Y44.233 E2.77427 F900.000
G1 X41.425 Y44.089 E2.81910
G1 X117.075 Y44.089 E6.28471
G1 X118.648 Y44.483 E6.35898
G1 X119.849 Y45.572 E6.43326 F900.000
G1 X120.411 Y47.425 E6.52195
G1 X120.411 Y91.000 E8.51816
G1 X120.017 Y92.573 E8.59244
G1 X119.434 Y93.359 E8.63727
G1 X119.359 Y93.434 E8.64212
G1 X117.968 Y94.267 E8.71640
G1 X117.000 Y94.411 E8.76123
G1 X21.425 Y94.411 E13.13962
G1 X19.852 Y94.017 E13.21389
G1 X18.651 Y92.928 E13.28816
G1 X18.089 Y91.075 E13.37685
G1 X18.089 Y67.425 E14.46029
G1 X18.483 Y65.852 E14.53456
G1 X19.066 Y65.066 E14.57939
G1 X39.035 Y45.098 E15.87306
G1 X39.507 Y45.570 F4800.000
G1 X39.539 Y45.539 E15.87512 F900.000
G1 X41.425 Y44.757 E15.96866
G1 X117.075 Y44.757 E19.43427
G1 X118.468 Y45.150 E19.50057
G1 X119.451 Y46.212 E19.56686 F900.000
G1 X119.743 Y47.425 E19.62403
G1 X119.743 Y91.000 E21.62025
G1 X118.961 Y92.886 E21.71379
G1 X118.886 Y92.961 E21.71865
G1 X117.000 Y93.743 E21.81219
G1 X21.425 Y93.743 E26.19058
G1 X20.032 Y93.350 E26.25688
G1 X19.049 Y92.288 E26.32317
G1 X18.757 Y91.075 E26.38034
G1 X18.757 Y67.425 E27.46377
G1 X19.539 Y65.539 E27.55731
G1 X39.475 Y45.602 E28.84892
G1 F2400.000 E26.14892
G92 E0
G1 X31.835 Y76.883 F4800.000
G1 E2.70000 F2400.000
G1 X32.613 Y77.206 E2.73859 F900.000
G1 X33.282 Y77.718 E2.77718
G1 X33.794 Y78.387 E2.81577
G1 X34.117 Y79.165 E2.85435
G1 X34.227 Y80.000 E2.89294
G1 X34.117 Y80.835 E2.93153
G1 X33.794 Y81.613 E2.97011
G1 X33.282 Y82.282 E3.00870
G1 X32.613 Y82.794 E3.04729
G1 X31.835 Y83.117 E3.08588
G1 X31.000 Y83.227 E3.12446
G1 X30.165 Y83.117 E3.16305
G1 X29.387 Y82.794 E3.20164
G1 X28.718 Y82.282 E3.24022
G1 X28.206 Y81.613 E3.27881
G1 X27.883 Y80.835 E3.31740
G1 X27.773 Y80.000 E3.35599
G1 X27.883 Y79.165 E3.39458
G1 X28.206 Y78.387 E3.43316
G1 X28.718 Y77.718 E3.47175
G1 X29.387 Y77.206 E3.51034
G1 X30.165 Y76.883 E3.54892
G1 X31.000 Y76.773 E3.58751
G1 X31.688 Y76.864 E3.61930
G1 X31.790 Y76.877 E3.62403 F900.000
G1 X31.661 Y77.534 F4800.000
G1 X32.276 Y77.789 E3.65457 F900.000
G1 X32.805 Y78.195 E3.68510
G1 X33.211 Y78.724 E3.71563
G1 X33.466 Y79.339 E3.74616
G1 X33.553 Y80.000 E3.77669
G1 X33.466 Y80.661 E3.80723
G1 X33.211 Y81.277 E3.83776
G1 X32.805 Y81.805 E3.86829
G1 X32.276 Y82.211 E3.89882
G1 X31.661 Y82.466 E3.92936
G1 X31.000 Y82.553 E3.95988
G1 X30.339 Y82.466 E3.99042
G1 X30.283 Y82.443 E3.99319
G1 X29.723 Y82.211 E4.02095
G1 X29.195 Y81.805 E4.05148
G1 X28.789 Y81.277 E4.08201
G1 X28.534 Y80.661 E4.11254
G1 X28.447 Y80.000 E4.14308
G1 X28.534 Y79.339 E4.17361
G1 X28.789 Y78.723 E4.20414
G1 X29.195 Y78.195 E4.23467
G1 X29.724 Y77.789 E4.26521
G1 X30.339 Y77.534 E4.29573
G1 X30.940 Y77.455 E4.32350
G1 X31.000 Y77.447 E4.32627 F900.000
G1 X31.616 Y77.528 E4.35474
G1 X51.718 Y59.282 F4800.000
G1 X51.206 Y58.613 E4.39332 F900.000
G1 X50.883 Y57.835 E4.43191
G1 X50.773 Y57.000 E4.47050
G1 X50.883 Y56.165 E4.50909
G1 X51.206 Y55.387 E4.54768
G1 X51.718 Y54.718 E4.58626
G1 X52.387 Y54.206 E4.62485
G1 X53.165 Y53.883 E4.66344
G1 X54.000 Y53.773 E4.70203
G1 X54.688 Y53.864 E4.73381
G1 X54.835 Y53.883 E4.74061 F900.000
G1 X55.613 Y54.206 E4.77920
G1 X56.282 Y54.718 E4.81778
G1 X56.794 Y55.387 E4.85638
G1 X57.117 Y56.165 E4.89496
G1 X57.227 Y57.000 E4.93355
G1 X57.117 Y57.835 E4.97213
G1 X56.794 Y58.613 E5.01072
G1 X56.282 Y59.282 E5.04931
G1 X55.613 Y59.794 E5.08790
G1 X54.835 Y60.117 E5.12649
G1 X54.000 Y60.227 E5.16507
G1 X53.165 Y60.117 E5.20366
G1 X52.387 Y59.794 E5.24224
G1 X51.754 Y59.309 E5.27877
G1 X52.195 Y58.805 F4800.000
G1 X51.789 Y58.277 E5.30930 F900.000
G1 X51.534 Y57.661 E5.33983
G1 X51.447 Y57.000 E5.37037
G1 X51.534 Y56.339 E5.40090
G1 X51.789 Y55.724 E5.43143
G1 X52.195 Y55.195 E5.46196
G1 X52.724 Y54.789 E5.49250
G1 X53.339 Y54.534 E5.52302
G1 X53.940 Y54.455 E5.55079
G1 X54.000 Y54.447 E5.55356 F900.000
G1 X54.661 Y54.534 E5.58409
G1 X55.276 Y54.789 E5.61462
G1 X55.805 Y55.195 E5.64515
G1 X56.211 Y55.724 E5.67569
G1 X56.466 Y56.339 E5.70622
G1 X56.553 Y57.000 E5.73675
G1 X56.466 Y57.661 E5.76728
G1 X56.211 Y58.277 E5.79781
G1 X55.805 Y58.805 E5.82834
G1 X55.276 Y59.211 E5.85888
G1 X54.661 Y59.466 E5.88941
G1 X54.000 Y59.553 E5.91994
G1 X53.339 Y59.466 E5.95047
G1 X52.724 Y59.211 E5.98100
G1 X52.230 Y58.833 E6.00947
G1 X54.000 Y76.373 F4800.000
G1 X54.789 Y76.477 E6.04593 F900.000
G1 X54.939 Y76.497 E6.05284 F900.000
G1 X55.813 Y76.859 E6.09621
G1 X56.564 Y77.436 E6.13958
G1 X57.141 Y78.187 E6.18296
G1 X57.503 Y79.061 E6.22632
G1 X57.627 Y80.000 E6.26970
G1 X57.503 Y80.939 E6.31306
G1 X57.141 Y81.813 E6.35643
G1 X56.564 Y82.564 E6.39981
G1 X55.813 Y83.141 E6.44318
G1 X54.939 Y83.503 E6.48655
G1 X54.000 Y83.627 E6.52992
G1 X53.061 Y83.503 E6.57329
G1 X52.187 Y83.141 E6.61666
G1 X51.436 Y82.564 E6.66003
G1 X50.859 Y81.813 E6.70340
G1 X50.497 Y80.939 E6.74678
G1 X50.373 Y80.000 E6.79014
G1 X50.497 Y79.061 E6.83351
G1 X50.859 Y78.187 E6.87689
G1 X51.436 Y77.436 E6.92026
G1 X52.187 Y76.859 E6.96363
G1 X53.061 Y76.497 E7.00700
G1 X53.955 Y76.379 E7.04831
G1 X54.000 Y77.047 F4800.000
G1 X54.764 Y77.148 E7.08362 F900.000
G1 X55.476 Y77.443 E7.11894
G1 X56.088 Y77.912 E7.15426
G1 X56.557 Y78.524 E7.18957
G1 X56.852 Y79.236 E7.22488
G1 X56.953 Y80.000 E7.26020
G1 X56.852 Y80.764 E7.29552
G1 X56.557 Y81.476 E7.33083
G1 X56.088 Y82.088 E7.36615
G1 X55.476 Y82.557 E7.40147
G1 X54.764 Y82.852 E7.43678
G1 X54.000 Y82.953 E7.47209
G1 X53.236 Y82.852 E7.50741
G1 X52.523 Y82.557 E7.54273
G1 X51.912 Y82.088 E7.57804
G1 X51.443 Y81.477 E7.61336
G1 X51.148 Y80.764 E7.64867
G1 X51.047 Y80.000 E7.68399
G1 X51.148 Y79.236 E7.71930
G1 X51.443 Y78.524 E7.75462
G1 X51.912 Y77.912 E7.78993
G1 X52.523 Y77.443 E7.82525
G1 X53.236 Y77.148 E7.86056
G1 X53.938 Y77.055 E7.89299
G1 X53.955 Y77.053 E7.89382 F900.000
G1 F2400.000 E5.19382
G92 E0
G1 X55.533 Y90.057 F4800.000
G1 E2.70000 F2400.000
G1 X22.443 Y90.057 E4.21590 F900.000
G1 X22.443 Y68.443 E5.20608
G1 X31.598 Y68.443 E5.62547
G1 X42.443 Y57.598 E6.32809
G1 X42.443 Y48.443 E6.74749
G1 X61.400 Y48.443 E7.61594
G1 X64.057 Y48.443 E7.73767 F900.000
G1 X64.057 Y90.057 E9.64407
G1 X55.578 Y90.057 E10.03250
G1 X55.578 Y90.725 F4800.000
G1 X21.775 Y90.725 E11.58106 F900.000
G1 X21.775 Y67.775 E12.63242
G1 X31.321 Y67.775 E13.06973
G1 X41.775 Y57.321 E13.74701
G1 X41.775 Y47.775 E14.18433
G1 X64.725 Y47.775 E15.23569
G1 X64.725 Y49.131 E15.29782
G1 X64.725 Y90.725 E17.20328 F900.000
G1 X55.623 Y90.725 E17.62024
G1 F2400.000 E14.92024
G92 E0
G1 X43.077 Y49.077 F4800.000
G1 E2.70000 F2400.000
G1 X63.423 Y49.077 E3.63205 F900.000
G1 X63.423 Y89.423 E5.48033
G1 X23.077 Y89.423 E7.32860
G1 X23.077 Y69.077 E8.26065
G1 X31.860 Y69.077 E8.66302
G1 X43.077 Y57.860 E9.38972
G1 X43.077 Y49.122 E9.79003
G1 X43.755 Y49.755 F4800.000
G1 X62.745 Y49.755 E10.66001 F900.000
G1 X62.745 Y88.745 E12.44622
G1 X23.755 Y88.745 E14.23243
G1 X23.755 Y69.755 E15.10241
G1 X32.141 Y69.755 E15.48659
G1 X43.755 Y58.141 E16.23901
G1 X43.755 Y49.800 E16.62113
G1 X44.432 Y50.432 F4800.000
G1 X62.068 Y50.432 E17.42905 F900.000
G1 X62.068 Y88.068 E19.15319
G1 X24.432 Y88.068 E20.87733
G1 X24.432 Y70.432 E21.68524
G1 X32.422 Y70.432 E22.05125
G1 X44.432 Y58.422 E22.82937
G1 X44.432 Y50.477 E23.19332
G1 X33.616 Y75.468 F4800.000
G1 X34.700 Y76.300 E23.25590 F900.000
G1 X35.532 Y77.384 E23.31849
G1 X36.055 Y78.646 E23.38107
G1 X36.233 Y80.000 E23.44365
G1 X36.055 Y81.354 E23.50623
G1 X35.532 Y82.616 E23.56881
G1 X34.700 Y83.700 E23.63140
G1 X33.616 Y84.532 E23.69399
G1 X32.354 Y85.055 E23.75657
G1 X31.000 Y85.233 E23.81914
G1 X29.646 Y85.055 E23.88172
G1 X28.383 Y84.532 E23.94431
G1 X27.300 Y83.700 E24.00689
G1 X26.468 Y82.617 E24.06946
G1 X25.945 Y81.355 E24.13205
G1 X25.767 Y80.000 E24.19464
G1 X25.945 Y78.645 E24.25723
G1 X26.468 Y77.383 E24.31981
G1 X27.300 Y76.300 E24.38239
G1 X28.384 Y75.468 E24.44497
G1 X29.645 Y74.945 E24.50754
G1 X31.000 Y74.767 E24.57014
G1 X32.354 Y74.945 E24.63271
G1 X33.575 Y75.451 E24.69323
G1 X33.275 Y76.060 F4800.000
G1 X34.217 Y76.783 E24.74764 F900.000
G1 X34.940 Y77.725 E24.80206
G1 X35.395 Y78.823 E24.85647
G1 X35.550 Y80.000 E24.91088
G1 X35.395 Y81.178 E24.96528
G1 X34.940 Y82.275 E25.01969
G1 X34.217 Y83.217 E25.07411
G1 X33.275 Y83.940 E25.12853
G1 X32.177 Y84.395 E25.18294
G1 X31.000 Y84.550 E25.23734
G1 X29.822 Y84.395 E25.29175
G1 X28.725 Y83.940 E25.34616
G1 X27.783 Y83.217 E25.40057
G1 X27.060 Y82.275 E25.45498
G1 X26.605 Y81.178 E25.50939
G1 X26.450 Y80.000 E25.56381
G1 X26.605 Y78.822 E25.61822
G1 X27.060 Y77.725 E25.67264
G1 X27.783 Y76.783 E25.72704
G1 X28.725 Y76.060 E25.78146
G1 X29.822 Y75.605 E25.83586
G1 X31.000 Y75.450 E25.89028
G1 X32.177 Y75.605 E25.94468
G1 X33.233 Y76.043 E25.99703
G1 X32.933 Y76.652 F4800.000
G1 X33.734 Y77.266 E26.04327 F900.000
G1 X34.349 Y78.067 E26.08952
G1 X34.735 Y78.999 E26.13576
G1 X34.866 Y80.000 E26.18199
G1 X34.735 Y81.001 E26.22823
G1 X34.349 Y81.933 E26.27447
G1 X33.734 Y82.734 E26.32071
G1 X32.933 Y83.349 E26.36696
G1 X32.001 Y83.735 E26.41320
G1 X31.000 Y83.866 E26.45943
G1 X29.999 Y83.735 E26.50567
G1 X29.067 Y83.348 E26.55191
G1 X28.266 Y82.734 E26.59815
G1 X27.652 Y81.933 E26.64438
G1 X27.265 Y81.001 E26.69062
G1 X27.133 Y80.000 E26.73687
G1 X27.265 Y78.999 E26.78311
G1 X27.652 Y78.067 E26.82935
G1 X28.266 Y77.266 E26.87559
G1 X29.067 Y76.652 E26.92183
G1 X29.999 Y76.265 E26.96806
G1 X31.000 Y76.134 E27.01431
G1 X32.001 Y76.265 E27.06054
G1 X32.892 Y76.634 E27.10472
G1 X50.300 Y60.700 F4800.000
G1 X49.468 Y59.617 E27.16730 F900.000
G1 X48.945 Y58.355 E27.22988
G1 X48.767 Y57.000 E27.29247
G1 X48.945 Y55.646 E27.35506
G1 X49.468 Y54.383 E27.41764
G1 X50.300 Y53.300 E27.48022
G1 X51.384 Y52.468 E27.54280
G1 X52.646 Y51.945 E27.60538
G1 X54.000 Y51.767 E27.66797
G1 X55.354 Y51.945 E27.73054
G1 X56.616 Y52.468 E27.79312
G1 X57.700 Y53.300 E27.85571
G1 X58.532 Y54.384 E27.91831
G1 X59.055 Y55.646 E27.98089
G1 X59.233 Y57.000 E28.04346
G1 X59.055 Y58.354 E28.10603
G1 X58.532 Y59.616 E28.16862
G1 X57.700 Y60.700 E28.23121
G1 X56.616 Y61.532 E28.29380
G1 X55.354 Y62.055 E28.35637
G1 X54.000 Y62.233 E28.41895
G1 X52.645 Y62.055 E28.48154
G1 X51.383 Y61.532 E28.54412
G1 X50.335 Y60.728 E28.60464
G1 X50.783 Y60.217 F4800.000
G1 X50.060 Y59.275 E28.65904 F900.000
G1 X49.605 Y58.178 E28.71346
G1 X49.450 Y57.000 E28.76787
G1 X49.605 Y55.822 E28.82229
G1 X50.060 Y54.725 E28.87670
G1 X50.783 Y53.783 E28.93111
G1 X51.725 Y53.060 E28.98552
G1 X52.822 Y52.605 E29.03993
G1 X54.000 Y52.450 E29.09434
G1 X55.177 Y52.605 E29.14874
G1 X56.275 Y53.060 E29.20315
G1 X57.217 Y53.783 E29.25757
G1 X57.940 Y54.725 E29.31199
G1 X58.395 Y55.823 E29.36640
G1 X58.550 Y57.000 E29.42080
G1 X58.395 Y58.177 E29.47521
G1 X57.940 Y59.275 E29.52962
G1 X57.217 Y60.217 E29.58404
G1 X56.275 Y60.940 E29.63845
G1 X55.177 Y61.395 E29.69286
G1 X54.000 Y61.550 E29.74727
G1 X52.822 Y61.395 E29.80168
G1 X51.725 Y60.940 E29.85609
G1 X50.819 Y60.245 E29.90844
G1 X51.266 Y59.734 F4800.000
G1 X50.652 Y58.933 E29.95467 F900.000
G1 X50.265 Y58.001 E30.00092
G1 X50.133 Y57.000 E30.04716
G1 X50.265 Y55.999 E30.09340
G1 X50.652 Y55.067 E30.13964
G1 X51.266 Y54.266 E30.18588
G1 X52.067 Y53.652 E30.23212
G1 X52.999 Y53.265 E30.27836
G1 X54.000 Y53.134 E30.32460
G1 X55.001 Y53.265 E30.37083
G1 X55.933 Y53.652 E30.41707
G1 X56.734 Y54.266 E30.46331
G1 X57.349 Y55.067 E30.50956
G1 X57.735 Y55.999 E30.55580
G1 X57.866 Y57.000 E30.60203
G1 X57.735 Y58.001 E30.64827
G1 X57.349 Y58.933 E30.69451
G1 X56.734 Y59.734 E30.74075
G1 X55.933 Y60.349 E30.78700
G1 X55.001 Y60.735 E30.83323
G1 X54.000 Y60.866 E30.87947
G1 X52.999 Y60.735 E30.92571
G1 X52.067 Y60.348 E30.97195
G1 X51.302 Y59.761 E31.01613
G1 X49.817 Y61.184 F4800.000
G1 X51.042 Y62.124 E31.08688 F900.000
G1 X52.469 Y62.715 E31.15762
G1 X54.000 Y62.916 E31.22839
G1 X55.531 Y62.715 E31.29913
G1 X56.958 Y62.124 E31.36988
G1 X58.183 Y61.184 E31.44064
G1 X59.124 Y59.958 E31.51141
G1 X59.715 Y58.531 E31.58216
G1 X59.916 Y57.000 E31.65291
G1 X59.715 Y55.469 E31.72365
G1 X59.124 Y54.042 E31.79440
G1 X58.183 Y52.816 E31.86517
G1 X56.958 Y51.876 E31.93593
G1 X56.405 Y51.647 E31.96337
G1 X56.512 Y51.110 E31.98848
G1 X61.390 Y51.110 E32.21199
G1 X61.390 Y87.391 E33.87406
G1 X25.110 Y87.390 E35.53613
G1 X25.110 Y82.512 E35.75964
G1 X25.647 Y82.405 E35.78474
G1 X25.876 Y82.958 E35.81220
G1 X26.817 Y84.184 E35.88294
G1 X28.042 Y85.124 E35.95369
G1 X29.469 Y85.715 E36.02445
G1 X31.000 Y85.916 E36.09521
G1 X32.531 Y85.715 E36.16595
G1 X33.958 Y85.124 E36.23670
G1 X35.183 Y84.184 E36.30746
G1 X36.124 Y82.958 E36.37822
G1 X36.715 Y81.531 E36.44898
G1 X36.916 Y80.000 E36.51972
G1 X36.715 Y78.469 E36.59047
G1 X36.124 Y77.042 E36.66122
G1 X35.183 Y75.816 E36.73199
G1 X33.958 Y74.876 E36.80274
G1 X32.531 Y74.285 E36.87350
G1 X31.000 Y74.084 E36.94424
G1 X29.469 Y74.285 E37.01501
G1 X28.042 Y74.876 E37.08575
G1 X26.817 Y75.816 E37.15650
G1 X25.876 Y77.042 E37.22725
G1 X25.647 Y77.595 E37.25471
G1 X25.110 Y77.488 E37.27981
G1 X25.110 Y71.110 E37.57204
G1 X32.702 Y71.110 E37.91987
G1 X45.110 Y58.702 E38.72370
G1 X45.110 Y51.110 E39.07153
G1 X51.489 Y51.110 E39.36375
G1 X51.595 Y51.647 E39.38886
G1 X51.042 Y51.876 E39.41631
G1 X49.817 Y52.816 E39.48706
G1 X48.876 Y54.042 E39.55781
G1 X48.285 Y55.469 E39.62857
G1 X48.084 Y57.000 E39.69933
G1 X48.285 Y58.531 E39.77009
G1 X48.876 Y59.958 E39.84084
G1 X49.789 Y61.148 E39.90953
G1 X28.811 Y86.176 F4800.000
G1 X28.704 Y86.713 E39.93464 F900.000
G1 X25.787 Y86.713 E40.06827
G1 X25.787 Y84.247 E40.18123
G1 X27.700 Y85.715 E40.29170
G1 X28.769 Y86.158 E40.34472
G1 X33.189 Y86.176 F4800.000
G1 X34.299 Y85.716 E40.39978 F900.000
G1 X35.667 Y84.667 E40.47872
G1 X36.716 Y83.300 E40.55766
G1 X37.375 Y81.708 E40.63658
G1 X37.600 Y80.000 E40.71550
G1 X37.375 Y78.292 E40.79441
G1 X36.716 Y76.700 E40.87334
G1 X35.667 Y75.333 E40.95228
G1 X34.300 Y74.285 E41.03120
G1 X32.708 Y73.625 E41.11013
G1 X31.000 Y73.400 E41.18904
G1 X29.292 Y73.625 E41.26798
G1 X27.700 Y74.285 E41.34690
G1 X25.787 Y75.753 E41.45737
G1 X25.787 Y71.787 E41.63904
G1 X32.983 Y71.787 E41.96869
G1 X45.787 Y58.983 E42.79823
G1 X45.787 Y51.787 E43.12788
G1 X49.753 Y51.787 E43.30955
G1 X48.285 Y53.700 E43.42002
G1 X47.625 Y55.292 E43.49895
G1 X47.400 Y57.000 E43.57788
G1 X47.625 Y58.708 E43.65681
G1 X48.285 Y60.300 E43.73574
G1 X49.333 Y61.667 E43.81466
G1 X50.700 Y62.715 E43.89358
G1 X52.292 Y63.375 E43.97250
G1 X54.000 Y63.600 E44.05144
G1 X55.708 Y63.375 E44.13035
G1 X57.300 Y62.716 E44.20927
G1 X58.667 Y61.667 E44.28820
G1 X59.716 Y60.300 E44.36714
G1 X60.175 Y59.189 E44.42222
G1 X60.713 Y59.296 E44.44732
G1 X60.713 Y76.668 E45.24316
G1 X60.176 Y76.775 E45.26826
G1 X60.062 Y76.500 E45.28187
G1 X58.949 Y75.050 E45.36559
G1 X57.500 Y73.938 E45.44930
G1 X55.812 Y73.239 E45.53300
G1 X54.000 Y73.000 E45.61670
G1 X52.188 Y73.239 E45.70042
G1 X50.500 Y73.938 E45.78413
G1 X49.051 Y75.051 E45.86784
G1 X47.938 Y76.500 E45.95154
G1 X47.239 Y78.189 E46.03527
G1 X47.001 Y80.000 E46.11897
G1 X47.239 Y81.811 E46.20266
G1 X47.938 Y83.500 E46.28639
G1 X49.051 Y84.949 E46.37009
G1 X50.500 Y86.062 E46.45380
G1 X50.775 Y86.176 E46.46741
G1 X50.668 Y86.713 E46.49252
G1 X33.296 Y86.713 E47.28834
G1 X33.198 Y86.220 E47.31139
G1 F2400.000 E44.61139
G92 E0
G1 X26.464 Y74.379 F4800.000
G1 E2.70000 F2400.000
G1 X26.464 Y72.464 E2.78771 F900.000
G1 X28.920 Y72.464 E2.90018
G1 X29.026 Y73.002 E2.92529
G1 X27.359 Y73.693 E3.00799
G1 X26.500 Y74.352 E3.05756
G1 X46.464 Y54.919 F4800.000
