; generated by Slic3r 1.2.0 on 2015-01-15 at 13:48:43

; external perimeters extrusion width = 0.30mm
; perimeters extrusion width = 0.90mm
; infill extrusion width = 0.50mm
; solid infill extrusion width = 0.50mm
; top infill extrusion width = 0.60mm

G21 ; set units to millimeters
M107
M104 S210 ; set temperature
G21           ;metric is good!
G90           ;absolute positioning
G28           ;go home
G92 E0        ;reset extruder
M109 S210 ; wait for temperature to be reached
G90 ; use absolute coordinates
G92 E0
M82 ; use absolute distances for extrusion
G1 F2400.000 E-2.70000
G92 E0
G1 Z-0.050 F4800.000
G1 X55.066 Y55.066 F4800.000
G1 E2.70000 F2400.000
G1 X65.066 Y45.066 E3.37066 F900.000
G1 X66.457 Y44.233 E3.44755
G1 X67.425 Y44.089 E3.49395
G1 X91.075 Y44.089 E4.61551
G1 X92.648 Y44.483 E4.69239
G1 X93.849 Y45.572 E4.76928 F900.000
G1 X94.411 Y47.425 E4.86109
G1 X94.411 Y91.000 E6.92755
G1 X94.017 Y92.573 E7.00444
G1 X93.434 Y93.359 E7.05085
G1 X93.359 Y93.434 E7.05587
G1 X91.968 Y94.267 E7.13276
G1 X91.000 Y94.411 E7.17917
G1 X47.425 Y94.411 E9.24563
G1 X45.852 Y94.017 E9.32251
G1 X44.651 Y92.928 E9.39940
G1 X44.089 Y91.075 E9.49121
G1 X44.089 Y67.425 E10.61276
G1 X44.483 Y65.852 E10.68965
G1 X45.066 Y65.066 E10.73606
G1 X55.035 Y55.098 E11.40459
G1 X55.507 Y55.570 F4800.000
G1 X65.539 Y45.539 E12.07738 F900.000
G1 X67.425 Y44.757 E12.17421
G1 X91.075 Y44.757 E13.29577
G1 X92.468 Y45.150 E13.36440
G1 X93.451 Y46.212 E13.43303 F900.000
G1 X93.743 Y47.425 E13.49221
G1 X93.743 Y91.000 E15.55867
G1 X92.961 Y92.886 E15.65550
G1 X92.886 Y92.961 E15.66053
G1 X91.000 Y93.743 E15.75736
G1 X47.425 Y93.743 E17.82382
G1 X46.032 Y93.350 E17.89245
G1 X45.049 Y92.288 E17.96108
G1 X44.757 Y91.075 E18.02026
G1 X44.757 Y67.425 E19.14181
G1 X45.539 Y65.539 E19.23864
G1 X55.475 Y55.602 E19.90504
G1 F2400.000 E17.20504
G92 E0
G1 X57.000 Y76.773 F4800.000
G1 E2.70000 F2400.000
G1 X57.688 Y76.864 E2.73291 F900.000
G1 X57.835 Y76.883 E2.73994 F900.000
G1 X58.613 Y77.206 E2.77989
G1 X59.282 Y77.718 E2.81983
G1 X59.794 Y78.387 E2.85978
G1 X60.117 Y79.165 E2.89972
G1 X60.227 Y80.000 E2.93967
G1 X60.117 Y80.835 E2.97961
G1 X59.794 Y81.613 E3.01956
G1 X59.282 Y82.282 E3.05950
G1 X58.613 Y82.794 E3.09945
G1 X57.835 Y83.117 E3.13940
G1 X57.000 Y83.227 E3.17933
G1 X56.165 Y83.117 E3.21928
G1 X56.028 Y83.060 E3.22632
G1 X55.387 Y82.794 E3.25923
G1 X54.718 Y82.282 E3.29917
G1 X54.206 Y81.613 E3.33912
G1 X53.883 Y80.835 E3.37906
G1 X53.773 Y80.000 E3.41901
G1 X53.883 Y79.165 E3.45896
G1 X54.206 Y78.387 E3.49890
G1 X54.718 Y77.718 E3.53884
G1 X55.387 Y77.206 E3.57879
G1 X56.165 Y76.883 E3.61873
G1 X56.955 Y76.779 E3.65655
G1 X57.000 Y77.447 F4800.000
G1 X57.661 Y77.534 E3.68815 F900.000
G1 X58.221 Y77.766 E3.71689
G1 X58.276 Y77.789 E3.71976
G1 X58.805 Y78.195 E3.75137
G1 X59.211 Y78.724 E3.78297
G1 X59.466 Y79.339 E3.81458
G1 X59.553 Y80.000 E3.84618
G1 X59.466 Y80.661 E3.87779
G1 X59.211 Y81.277 E3.90939
G1 X58.805 Y81.805 E3.94100
G1 X58.276 Y82.211 E3.97261
G1 X57.661 Y82.466 E4.00422
G1 X57.000 Y82.553 E4.03582
G1 X56.339 Y82.466 E4.06743
G1 X56.283 Y82.443 E4.07029
G1 X55.723 Y82.211 E4.09903
G1 X55.195 Y81.805 E4.13064
G1 X54.789 Y81.277 E4.16224
G1 X54.534 Y80.661 E4.19385
G1 X54.447 Y80.000 E4.22546
G1 X54.534 Y79.339 E4.25707
G1 X54.789 Y78.723 E4.28867
G1 X55.195 Y78.195 E4.32028
G1 X55.724 Y77.789 E4.35189
G1 X56.339 Y77.534 E4.38349
G1 X56.940 Y77.455 E4.41223
G1 X56.955 Y77.453 E4.41296 F900.000
G1 X77.718 Y59.282 F4800.000
G1 X77.206 Y58.613 E4.45291 F900.000
G1 X76.883 Y57.835 E4.49285
G1 X76.773 Y57.000 E4.53280
G1 X76.883 Y56.165 E4.57275
G1 X77.206 Y55.387 E4.61269
G1 X77.718 Y54.718 E4.65264
G1 X78.387 Y54.206 E4.69258
G1 X79.165 Y53.883 E4.73252
G1 X80.000 Y53.773 E4.77247
G1 X80.688 Y53.864 E4.80538
G1 X80.835 Y53.883 E4.81241 F900.000
G1 X81.613 Y54.206 E4.85236
G1 X82.282 Y54.718 E4.89230
G1 X82.794 Y55.387 E4.93226
G1 X83.117 Y56.165 E4.97220
G1 X83.227 Y57.000 E5.01214
G1 X83.117 Y57.835 E5.05208
G1 X82.794 Y58.613 E5.09203
G1 X82.282 Y59.282 E5.13198
G1 X81.613 Y59.794 E5.17192
G1 X80.835 Y60.117 E5.21187
G1 X80.000 Y60.227 E5.25181
G1 X79.165 Y60.117 E5.29176
G1 X78.387 Y59.794 E5.33170
G1 X77.754 Y59.309 E5.36951
G1 X78.195 Y58.805 F4800.000
G1 X77.789 Y58.277 E5.40112 F900.000
G1 X77.534 Y57.661 E5.43272
G1 X77.447 Y57.000 E5.46433
G1 X77.534 Y56.339 E5.49594
G1 X77.789 Y55.724 E5.52754
G1 X78.195 Y55.195 E5.55915
G1 X78.724 Y54.789 E5.59076
G1 X79.339 Y54.534 E5.62236
G1 X79.940 Y54.455 E5.65110
G1 X80.000 Y54.447 E5.65397 F900.000
G1 X80.661 Y54.534 E5.68557
G1 X81.276 Y54.789 E5.71718
G1 X81.805 Y55.195 E5.74879
G1 X82.211 Y55.724 E5.78040
G1 X82.466 Y56.339 E5.81200
G1 X82.553 Y57.000 E5.84361
G1 X82.466 Y57.661 E5.87521
G1 X82.211 Y58.277 E5.90682
G1 X81.805 Y58.805 E5.93842
G1 X81.276 Y59.211 E5.97003
G1 X80.661 Y59.466 E6.00164
G1 X80.000 Y59.553 E6.03324
G1 X79.339 Y59.466 E6.06485
G1 X78.724 Y59.211 E6.09645
G1 X78.230 Y58.833 E6.12593
G1 X80.000 Y76.373 F4800.000
G1 X80.789 Y76.477 E6.16366 F900.000
G1 X80.939 Y76.497 E6.17082 F900.000
G1 X81.813 Y76.859 E6.21571
G1 X82.564 Y77.436 E6.26061
G1 X83.141 Y78.187 E6.30552
G1 X83.503 Y79.061 E6.35040
G1 X83.627 Y80.000 E6.39531
G1 X83.503 Y80.939 E6.44020
G1 X83.141 Y81.813 E6.48509
G1 X82.564 Y82.564 E6.53000
G1 X81.813 Y83.141 E6.57490
G1 X80.939 Y83.503 E6.61979
G1 X80.000 Y83.627 E6.66469
G1 X79.061 Y83.503 E6.70958
G1 X78.187 Y83.141 E6.75448
G1 X77.436 Y82.564 E6.79938
G1 X76.859 Y81.813 E6.84427
G1 X76.497 Y80.939 E6.88917
G1 X76.373 Y80.000 E6.93407
G1 X76.497 Y79.061 E6.97896
G1 X76.859 Y78.187 E7.02386
G1 X77.436 Y77.436 E7.06876
G1 X78.187 Y76.859 E7.11366
G1 X79.061 Y76.497 E7.15855
G1 X79.955 Y76.379 E7.20132
G1 X80.000 Y77.047 F4800.000
G1 X80.764 Y77.148 E7.23787 F900.000
G1 X81.476 Y77.443 E7.27443
G1 X82.088 Y77.912 E7.31099
G1 X82.557 Y78.524 E7.34755
G1 X82.852 Y79.236 E7.38411
G1 X82.953 Y80.000 E7.42067
G1 X82.852 Y80.764 E7.45722
G1 X82.557 Y81.477 E7.49378
G1 X82.088 Y82.088 E7.53034
G1 X81.476 Y82.557 E7.56690
G1 X80.764 Y82.852 E7.60346
G1 X80.000 Y82.953 E7.64001
G1 X79.236 Y82.852 E7.67657
G1 X78.523 Y82.557 E7.71313
G1 X77.912 Y82.088 E7.74969
G1 X77.443 Y81.477 E7.78625
G1 X77.148 Y80.764 E7.82281
G1 X77.047 Y80.000 E7.85936
G1 X77.148 Y79.236 E7.89592
G1 X77.443 Y78.524 E7.93248
G1 X77.912 Y77.912 E7.96904
G1 X78.523 Y77.443 E8.00560
G1 X79.236 Y77.148 E8.04215
G1 X79.938 Y77.055 E8.07573
G1 X79.955 Y77.053 E8.07658 F900.000
G1 X90.057 Y70.147 F4800.000
G1 X90.057 Y90.057 E9.02076 F900.000
G1 X48.443 Y90.057 E10.99424
G1 X48.443 Y68.443 E12.01926
G1 X57.598 Y68.443 E12.45341
G1 X68.443 Y57.598 E13.18076
G1 X68.443 Y48.443 E13.61491
G1 X87.400 Y48.443 E14.51392
G1 X90.057 Y48.443 E14.63993 F900.000
G1 X90.057 Y70.102 E15.66710
G1 X90.725 Y70.102 F4800.000
G1 X90.725 Y90.725 E16.64508 F900.000
G1 X47.775 Y90.725 E18.68190
G1 X47.775 Y67.775 E19.77026
G1 X57.321 Y67.775 E20.22296
G1 X67.775 Y57.321 E20.92407
G1 X67.775 Y47.775 E21.37677
G1 X90.725 Y47.775 E22.46513
G1 X90.725 Y49.131 E22.52945
G1 X90.725 Y70.057 E23.52184 F900.000
G1 X89.593 Y72.578 F4800.000
G1 X68.907 Y51.892 E24.90918 F900.000
G1 X68.907 Y52.838 E24.95400
G1 X89.593 Y73.524 E26.34135
G1 X89.593 Y74.469 E26.38617
G1 X68.907 Y53.783 E27.77351
G1 X68.907 Y54.728 E27.81834
G1 X89.593 Y75.414 E29.20568
G1 X89.593 Y76.359 E29.25051
G1 X68.907 Y55.673 E30.63785
G1 X68.907 Y56.619 E30.68268
G1 X89.593 Y77.305 E32.07002
G1 X89.593 Y78.250 E32.11484
G1 X68.907 Y57.564 E33.50218
G1 X68.547 Y58.150 E33.53477
G1 X89.593 Y79.195 E34.94623
G1 X89.593 Y80.140 E34.99106
G1 X68.075 Y58.622 E36.43422
G1 X67.602 Y59.095 E36.46591
G1 X89.593 Y81.086 E37.94077
G1 X89.593 Y82.031 E37.98559
G1 X67.129 Y59.567 E39.49214
G1 X66.657 Y60.040 E39.52384
G1 X89.593 Y82.976 E41.06209
G1 X89.593 Y83.922 E41.10692
G1 X66.184 Y60.513 E42.67686
G1 X65.712 Y60.985 E42.70856
G1 X80.727 Y76.001 E43.71561
G1 X79.723 Y75.942 E43.76333
G1 X65.239 Y61.458 E44.73471
G1 X64.766 Y61.931 E44.76641
G1 X78.898 Y76.062 E45.71417
G1 X78.230 Y76.339 E45.74848
G1 X64.294 Y62.403 E46.68312
G1 X63.821 Y62.876 E46.71481
G1 X77.639 Y76.694 E47.64156
G1 X77.105 Y77.105 E47.67353
G1 X63.348 Y63.348 E48.59611
G1 X62.876 Y63.821 E48.62781
G1 X76.694 Y77.639 E49.55456
G1 X76.339 Y78.230 E49.58722
G1 X62.403 Y64.294 E50.52185
G1 X61.931 Y64.766 E50.55355
G1 X76.062 Y78.898 E51.50131
G1 X75.942 Y79.723 E51.54084
G1 X61.458 Y65.239 E52.51222
G1 X60.985 Y65.712 E52.54392
G1 X76.001 Y80.727 E53.55096
G1 X76.711 Y82.383 F4800.000
G1 X60.513 Y66.184 E54.63733 F900.000
G1 X60.040 Y66.657 E54.66903
G1 X82.976 Y89.593 E56.20728
G1 X83.922 Y89.593 E56.25211
G1 X77.617 Y83.289 E56.67489
G1 X79.273 Y83.999 F4800.000
G1 X84.867 Y89.593 E57.05007 F900.000
G1 X85.812 Y89.593 E57.09489
G1 X80.277 Y84.058 E57.46609
G1 X81.102 Y83.938 E57.50562
G1 X86.757 Y89.593 E57.88490
G1 X87.703 Y89.593 E57.92973
G1 X81.770 Y83.661 E58.32758
G1 X82.361 Y83.306 E58.36024
G1 X88.648 Y89.593 E58.78191
G1 X89.573 Y89.573 E58.82579
G1 X82.895 Y82.895 E59.27364
G1 X83.306 Y82.361 E59.30561
G1 X89.593 Y88.648 E59.72727
G1 X89.593 Y87.703 E59.77210
G1 X83.661 Y81.770 E60.16994
G1 X83.938 Y81.102 E60.20425
G1 X89.593 Y86.757 E60.58354
G1 X89.593 Y85.812 E60.62836
G1 X84.058 Y80.277 E60.99956
G1 X83.999 Y79.273 E61.04728
G1 X89.593 Y84.867 E61.42246
G1 X82.031 Y89.593 F4800.000
G1 X59.567 Y67.129 E62.92901 F900.000
G1 X59.095 Y67.602 E62.96071
G1 X81.086 Y89.593 E64.43557
G1 X80.140 Y89.593 E64.48040
G1 X58.622 Y68.075 E65.92355
G1 X58.149 Y68.547 E65.95525
G1 X79.195 Y89.593 E67.36671
G1 X78.250 Y89.593 E67.41154
G1 X57.564 Y68.907 E68.79888
G1 X56.619 Y68.907 E68.84370
G1 X77.305 Y89.593 E70.23104
G1 X76.359 Y89.593 E70.27587
G1 X55.673 Y68.907 E71.66321
G1 X54.728 Y68.907 E71.70804
G1 X75.414 Y89.593 E73.09538
G1 X74.469 Y89.593 E73.14020
G1 X53.783 Y68.907 E74.52754
G1 X52.838 Y68.907 E74.57237
G1 X73.524 Y89.593 E75.95971
G1 X72.578 Y89.593 E76.00454
G1 X51.892 Y68.907 E77.39187
G1 X50.947 Y68.907 E77.43670
G1 X58.835 Y76.795 E77.96575
G1 X57.461 Y76.366 E78.03405
G1 X50.002 Y68.907 E78.53429
G1 X49.057 Y68.907 E78.57912
G1 X56.518 Y76.369 E79.07955
G1 X55.755 Y76.551 E79.11676
G1 X48.907 Y69.703 E79.57603
G1 X48.907 Y70.648 E79.62086
G1 X55.100 Y76.841 E80.03619
G1 X54.565 Y77.251 E80.06817
G1 X48.907 Y71.593 E80.44763
G1 X48.907 Y72.538 E80.49246
G1 X54.113 Y77.745 E80.84162
G1 X53.735 Y78.311 E80.87394
G1 X48.907 Y73.484 E81.19771
G1 X48.907 Y74.429 E81.24254
G1 X53.458 Y78.980 E81.54773
G1 X53.332 Y79.799 E81.58704
G1 X48.907 Y75.374 E81.88379
G1 X48.907 Y76.319 E81.92862
G1 X53.414 Y80.826 E82.23089
G1 X56.173 Y83.586 F4800.000
G1 X62.181 Y89.593 E82.63376 F900.000
G1 X63.126 Y89.593 E82.67859
G1 X57.201 Y83.668 E83.07594
G1 X58.020 Y83.542 E83.11525
G1 X64.071 Y89.593 E83.52106
G1 X65.016 Y89.593 E83.56588
G1 X58.689 Y83.265 E83.99025
G1 X59.255 Y82.887 E84.02257
G1 X65.962 Y89.593 E84.47234
G1 X66.907 Y89.593 E84.51716
G1 X59.749 Y82.435 E84.99723
G1 X60.159 Y81.900 E85.02920
G1 X67.852 Y89.593 E85.54513
G1 X68.797 Y89.593 E85.58996
G1 X60.449 Y81.245 E86.14984
G1 X60.631 Y80.482 E86.18705
G1 X69.743 Y89.593 E86.79811
G1 X70.688 Y89.593 E86.84294
G1 X60.634 Y79.539 E87.51722
G1 X60.205 Y78.165 E87.58551
G1 X71.633 Y89.593 E88.35197
G1 X61.235 Y89.593 F4800.000
G1 X48.907 Y77.265 E89.17879 F900.000
G1 X48.907 Y78.210 E89.22361
G1 X60.290 Y89.593 E89.98704
G1 X59.345 Y89.593 E90.03186
G1 X48.907 Y79.155 E90.73189
G1 X48.907 Y80.100 E90.77672
G1 X58.400 Y89.593 E91.41335
G1 X57.454 Y89.593 E91.45818
G1 X48.907 Y81.046 E92.03142
G1 X48.907 Y81.991 E92.07624
G1 X56.509 Y89.593 E92.58609
G1 X55.564 Y89.593 E92.63092
G1 X48.907 Y82.936 E93.07736
G1 X48.907 Y83.882 E93.12219
G1 X54.619 Y89.593 E93.50524
G1 X53.673 Y89.593 E93.55007
G1 X48.907 Y84.827 E93.86973
G1 X48.907 Y85.772 E93.91455
G1 X52.728 Y89.593 E94.17082
G1 X51.783 Y89.593 E94.21564
G1 X48.907 Y86.717 E94.40851
G1 X48.907 Y87.663 E94.45334
G1 X50.837 Y89.593 E94.58281
G1 X49.892 Y89.593 E94.62764
G1 X48.907 Y88.608 E94.69372
G1 X48.907 Y89.553 E94.73854
G1 X48.947 Y89.593 E94.74123
G1 F2400.000 E92.04123
G92 E0
G1 X78.165 Y60.205 F4800.000
G1 E2.70000 F2400.000
G1 X89.593 Y71.633 E3.46647 F900.000
G1 X89.593 Y70.688 E3.51129
G1 X79.539 Y60.634 E4.18556
G1 X80.482 Y60.631 E4.23026
G1 X89.593 Y69.743 E4.84132
G1 X89.593 Y68.797 E4.88615
G1 X81.245 Y60.449 E5.44603
G1 X81.900 Y60.159 E5.48001
G1 X89.593 Y67.852 E5.99594
G1 X89.593 Y66.907 E6.04077
G1 X82.435 Y59.749 E6.52083
G1 X82.887 Y59.255 E6.55256
G1 X89.593 Y65.962 E7.00232
G1 X89.593 Y65.016 E7.04715
G1 X83.265 Y58.689 E7.47152
G1 X83.542 Y58.020 E7.50583
G1 X89.593 Y64.071 E7.91163
G1 X89.593 Y63.126 E7.95646
G1 X83.668 Y57.201 E8.35382
G1 X83.586 Y56.173 E8.40271
G1 X89.593 Y62.181 E8.80558
G1 X76.795 Y58.835 F4800.000
G1 X68.907 Y50.947 E9.33463 F900.000
G1 X68.907 Y50.002 E9.37945
G1 X76.366 Y57.461 E9.87969
G1 X76.369 Y56.518 E9.92439
G1 X68.907 Y49.057 E10.42482
G1 X69.703 Y48.907 E10.46321
G1 X76.551 Y55.755 E10.92248
G1 X76.841 Y55.100 E10.95646
G1 X70.648 Y48.907 E11.37180
G1 X71.593 Y48.907 E11.41662
G1 X77.251 Y54.565 E11.79609
G1 X77.745 Y54.113 E11.82781
G1 X72.538 Y48.907 E12.17698
G1 X73.484 Y48.907 E12.22181
G1 X78.311 Y53.735 E12.54558
G1 X78.980 Y53.458 E12.57989
G1 X74.429 Y48.907 E12.88509
G1 X75.374 Y48.907 E12.92992
G1 X79.799 Y53.332 E13.22667
G1 X80.827 Y53.414 E13.27556
G1 X76.319 Y48.907 E13.57783
G1 X77.265 Y48.907 E13.62266
G1 X89.593 Y61.235 E14.44948
G1 X89.593 Y60.290 E14.49431
G1 X78.210 Y48.907 E15.25773
G1 X79.155 Y48.907 E15.30256
G1 X89.593 Y59.345 E16.00258
G1 X89.593 Y58.400 E16.04741
G1 X80.100 Y48.907 E16.68404
G1 X81.046 Y48.907 E16.72887
G1 X89.593 Y57.454 E17.30211
G1 X89.593 Y56.509 E17.34693
G1 X81.991 Y48.907 E17.85678
G1 X82.936 Y48.907 E17.90160
G1 X89.593 Y55.564 E18.34805
G1 X89.593 Y54.619 E18.39288
G1 X83.882 Y48.907 E18.77593
G1 X84.827 Y48.907 E18.82076
G1 X89.593 Y53.673 E19.14042
G1 X89.593 Y52.728 E19.18524
G1 X85.772 Y48.907 E19.44151
G1 X86.717 Y48.907 E19.48633
G1 X89.593 Y51.783 E19.67920
G1 X89.593 Y50.838 E19.72403
G1 X87.663 Y48.907 E19.85350
G1 X88.608 Y48.907 E19.89833
G1 X89.593 Y49.892 E19.96440
G1 X89.593 Y48.947 E20.00923
G1 X89.553 Y48.907 E20.01191
M104 S197 ; set temperature
G1 F2400.000 E17.31191
G92 E0
G1 Z0.150 F4800.000
G1 X82.060 Y54.940 F4800.000
G1 E2.70000 F2400.000
G1 X82.523 Y55.543 E2.76172 F3000.000
G1 X82.814 Y56.246 E2.82343
G1 X82.913 Y57.000 E2.88514
G1 X82.814 Y57.754 E2.94686
G1 X82.523 Y58.457 E3.00857
G1 X82.060 Y59.060 E3.07029
G1 X81.457 Y59.523 E3.13201
G1 X80.754 Y59.814 E3.19372
G1 X80.000 Y59.913 E3.25543
G1 X79.246 Y59.814 E3.31716
G1 X78.543 Y59.523 E3.37886
G1 X77.940 Y59.060 E3.44058
G1 X77.477 Y58.457 E3.50229
G1 X77.186 Y57.754 E3.56401
G1 X77.087 Y57.000 E3.62573
G1 X77.186 Y56.246 E3.68745
G1 X77.477 Y55.543 E3.74916
G1 X77.940 Y54.940 E3.81088
G1 X78.543 Y54.477 E3.87259
G1 X79.246 Y54.186 E3.93430
G1 X80.000 Y54.087 E3.99602
G1 X80.614 Y54.168 E4.04630
G1 X80.754 Y54.186 E4.05773 F3000.000
G1 X81.457 Y54.477 E4.11945
G1 X82.024 Y54.913 E4.17752
G1 X81.663 Y55.337 F4800.000
G1 X82.036 Y55.824 E4.19246 F2700.000
G1 X82.271 Y56.391 E4.20740
G1 X82.351 Y57.000 E4.22234
G1 X82.342 Y57.067 E4.22399
G1 X82.271 Y57.609 E4.23728
G1 X82.036 Y58.176 E4.25222
G1 X81.663 Y58.663 E4.26716
G1 X81.176 Y59.036 E4.28210
G1 X80.608 Y59.271 E4.29705
G1 X80.000 Y59.351 E4.31198
G1 X79.391 Y59.271 E4.32693
G1 X78.824 Y59.036 E4.34187
G1 X78.337 Y58.663 E4.35681
G1 X77.964 Y58.176 E4.37175
G1 X77.729 Y57.609 E4.38669
G1 X77.649 Y57.000 E4.40163
G1 X77.729 Y56.391 E4.41657
G1 X77.964 Y55.824 E4.43151
G1 X78.337 Y55.337 E4.44646
G1 X78.824 Y54.964 E4.46140
G1 X79.391 Y54.729 E4.47634
G1 X79.933 Y54.658 E4.48963
G1 X80.000 Y54.649 E4.49128 F2700.000
G1 X80.608 Y54.729 E4.50622
G1 X81.176 Y54.964 E4.52116
G1 X81.627 Y55.310 E4.53501
G1 F2400.000 E1.83501
G92 E0
G1 X80.000 Y76.687 F4800.000
G1 E2.70000 F2400.000
G1 X80.709 Y76.780 E2.75804 F3000.000
G1 X80.857 Y76.800 E2.77018 F3000.000
G1 X81.656 Y77.131 E2.84037
