; generated by Slic3r 1.2.0 on 2014-12-10 at 18:45:58

; external perimeters extrusion width = 0.30mm
; perimeters extrusion width = 0.90mm
; infill extrusion width = 0.50mm
; solid infill extrusion width = 0.50mm
; top infill extrusion width = 0.60mm

G21 ; set units to millimeters
M107
M104 S210 ; set temperature
G21           ;metric is good!
G90           ;absolute positioning
G28           ;go home
G92 E0        ;reset extruder
M109 S210 ; wait for temperature to be reached
G90 ; use absolute coordinates
G92 E0
M82 ; use absolute distances for extrusion
G1 F2400.000 E-2.70000
G92 E0
G1 Z0.300 F3000.000
G1 X37.832 Y37.369 F3000.000
G1 E2.70000 F2400.000
G1 X38.671 Y36.866 E2.74481 F600.000
G1 X68.724 Y24.418 E4.23497
G1 X70.327 Y24.180 E4.30924
G1 X71.276 Y24.418 E4.35407
G1 X101.329 Y36.866 E5.84423 F600.000
G1 X102.631 Y37.832 E5.91851
G1 X103.134 Y38.671 E5.96331
G1 X115.582 Y68.724 E7.45347
G1 X115.820 Y70.327 E7.52774
G1 X115.582 Y71.276 E7.57257
G1 X103.134 Y101.329 E9.06272
G1 X102.168 Y102.631 E9.13699
G1 X101.329 Y103.134 E9.18179
G1 X71.276 Y115.582 E10.67197
G1 X69.673 Y115.820 E10.74624
G1 X68.724 Y115.582 E10.79106
G1 X66.956 Y114.850 E10.87872
G1 X38.671 Y103.134 E12.28122
G1 X37.369 Y102.168 E12.35549
G1 X36.866 Y101.329 E12.40030
G1 X24.418 Y71.276 E13.89046
G1 X24.180 Y69.673 E13.96474
G1 X24.418 Y68.724 E14.00956
G1 X36.866 Y38.671 E15.49972
G1 X37.805 Y37.405 E15.57193
G1 X38.405 Y38.005 F3000.000
G1 X38.927 Y37.483 E15.60573 F600.000
G1 X68.979 Y25.035 E17.09589
G1 X71.021 Y25.035 E17.18942
G1 X72.770 Y25.760 E17.27614
G1 X101.073 Y37.483 E18.67959 F600.000
G1 X102.517 Y38.927 E18.77311
G1 X114.965 Y68.979 E20.26326
G1 X114.965 Y71.021 E20.35680
G1 X102.517 Y101.073 E21.84695
G1 X101.073 Y102.517 E21.94047
G1 X71.021 Y114.965 E23.43064
G1 X68.979 Y114.965 E23.52417
G1 X67.211 Y114.233 E23.61183
G1 X38.927 Y102.517 E25.01433
G1 X37.483 Y101.073 E25.10785
G1 X25.035 Y71.021 E26.59801
G1 X25.035 Y68.979 E26.69155
G1 X37.483 Y38.927 E28.18170
G1 X38.373 Y38.037 E28.23936
G1 F2400.000 E25.53936
G92 E0
G1 X67.180 Y68.642 F3000.000
G1 E2.70000 F2400.000
G1 X69.304 Y66.949 E2.82442 F600.000
G1 X71.951 Y67.553 E2.94883
G1 X73.130 Y70.000 E3.07325 F600.000
G1 X71.951 Y72.447 E3.19766
G1 X69.304 Y73.051 E3.32208
G1 X67.180 Y71.358 E3.44649
G1 X67.180 Y68.687 E3.56885
G1 X67.848 Y68.964 F3000.000
G1 X69.469 Y67.671 E3.66380 F600.000
G1 X71.489 Y68.133 E3.75875
G1 X72.388 Y70.000 E3.85370
G1 X71.489 Y71.867 E3.94865
G1 X69.469 Y72.329 E4.04360
G1 X67.883 Y71.064 E4.13648
G1 X55.643 Y82.260 F3000.000
G1 X54.648 Y81.154 E4.20467 F600.000
G1 X52.664 Y77.718 E4.38641
G1 X51.438 Y73.945 E4.56815
G1 X51.179 Y71.482 E4.68162
G1 X30.202 Y71.482 E5.64259
G1 X29.011 Y70.989 E5.70166
G1 X28.602 Y70.000 E5.75069
G1 X29.011 Y69.011 E5.79972
G1 X30.202 Y68.518 E5.85879
G1 X51.179 Y68.518 E6.81976
G1 X51.438 Y66.055 E6.93323
G1 X52.664 Y62.282 E7.11497
G1 X54.648 Y58.846 E7.29671
G1 X55.643 Y57.740 E7.36490
G1 X40.811 Y42.907 E8.32585
G1 X40.317 Y41.716 E8.38492
G1 X40.727 Y40.727 E8.43395
G1 X41.716 Y40.317 E8.48298
G1 X42.907 Y40.811 E8.54205
G1 X57.703 Y55.607 E9.50062
G1 X60.512 Y53.566 E9.65967
G1 X64.136 Y51.952 E9.84141
G1 X68.518 Y51.021 E10.04664
G1 X68.518 Y30.202 E11.00035
G1 X69.011 Y29.011 E11.05942
G1 X70.000 Y28.602 E11.10845
G1 X70.989 Y29.011 E11.15747
G1 X71.482 Y30.202 E11.21654
G1 X71.482 Y51.021 E12.17025
G1 X75.864 Y51.952 E12.37548
G1 X79.488 Y53.566 E12.55722
G1 X82.297 Y55.607 E12.71628
G1 X97.093 Y40.811 E13.67485
G1 X98.284 Y40.317 E13.73391
G1 X99.273 Y40.727 E13.78294
G1 X99.683 Y41.716 E13.83197
G1 X99.189 Y42.907 E13.89104
G1 X84.357 Y57.740 E14.85200
G1 X85.352 Y58.846 E14.92018
G1 X87.336 Y62.282 E15.10193
G1 X88.562 Y66.055 E15.28367
G1 X88.821 Y68.518 E15.39713
G1 X109.798 Y68.518 E16.35810
G1 X110.989 Y69.011 E16.41717
G1 X111.398 Y70.000 E16.46620
G1 X110.989 Y70.989 E16.51523
G1 X109.798 Y71.482 E16.57430
G1 X88.821 Y71.482 E17.53527
G1 X88.562 Y73.945 E17.64874
G1 X87.336 Y77.718 E17.83048
G1 X85.352 Y81.154 E18.01222
G1 X84.357 Y82.260 E18.08041
G1 X99.189 Y97.093 E19.04136
G1 X99.683 Y98.284 E19.10043
G1 X99.273 Y99.273 E19.14946
G1 X98.284 Y99.683 E19.19849
G1 X97.093 Y99.189 E19.25756
G1 X82.297 Y84.393 E20.21613
G1 X79.488 Y86.434 E20.37518
G1 X75.864 Y88.048 E20.55692
G1 X71.482 Y88.979 E20.76215
G1 X71.482 Y109.798 E21.71586
G1 X70.989 Y110.989 E21.77493
G1 X70.000 Y111.398 E21.82396
G1 X69.011 Y110.989 E21.87299
G1 X68.518 Y109.798 E21.93205
G1 X68.518 Y88.979 E22.88577
G1 X64.136 Y88.048 E23.09099
G1 X60.512 Y86.434 E23.27273
G1 X57.703 Y84.393 E23.43179
G1 X42.907 Y99.189 E24.39036
G1 X41.716 Y99.683 E24.44942
G1 X40.727 Y99.273 E24.49845
G1 X40.317 Y98.284 E24.54748
G1 X40.811 Y97.093 E24.60655
G1 X55.612 Y82.292 E25.56544
G1 X54.723 Y82.236 F3000.000
G1 X54.104 Y81.549 E25.60782 F600.000
G1 X52.051 Y77.992 E25.79599
G1 X50.781 Y74.085 E25.98416
G1 X50.578 Y72.150 E26.07330
G1 X30.070 Y72.150 E27.01281
G1 X28.500 Y71.500 E27.09063
G1 X27.879 Y70.000 E27.16500
G1 X28.500 Y68.500 E27.23938
G1 X30.070 Y67.850 E27.31720
G1 X50.578 Y67.850 E28.25671
G1 X50.781 Y65.915 E28.34585
G1 X52.051 Y62.008 E28.53402
G1 X54.104 Y58.451 E28.72219
G1 X54.723 Y57.764 E28.76456
G1 X40.245 Y43.285 E29.70258
G1 X39.595 Y41.716 E29.78041
G1 X40.216 Y40.216 E29.85478
G1 X41.716 Y39.595 E29.92915
G1 X43.285 Y40.245 E30.00698
G1 X57.772 Y54.731 E30.94550
G1 X60.176 Y52.984 E31.08164
G1 X63.928 Y51.314 E31.26982
G1 X67.850 Y50.480 E31.45348
G1 X67.850 Y30.070 E32.38851
G1 X68.500 Y28.500 E32.46633
G1 X70.000 Y27.879 E32.54070
G1 X71.500 Y28.500 E32.61508
G1 X72.150 Y30.070 E32.69290
G1 X72.150 Y50.480 E33.62793
G1 X76.072 Y51.314 E33.81159
G1 X79.824 Y52.984 E33.99976
G1 X82.228 Y54.731 E34.13591
G1 X96.715 Y40.245 E35.07443
G1 X98.284 Y39.595 E35.15226
G1 X99.784 Y40.216 E35.22663
G1 X100.405 Y41.716 E35.30100
G1 X99.755 Y43.285 E35.37883
G1 X85.277 Y57.764 E36.31684
G1 X85.896 Y58.451 E36.35921
G1 X87.949 Y62.008 E36.54739
G1 X89.219 Y65.915 E36.73556
G1 X89.422 Y67.850 E36.82469
G1 X109.930 Y67.850 E37.76420
G1 X111.500 Y68.500 E37.84203
G1 X112.121 Y70.000 E37.91640
G1 X111.500 Y71.500 E37.99078
G1 X109.930 Y72.150 E38.06860
G1 X89.422 Y72.150 E39.00811
G1 X89.219 Y74.085 E39.09725
G1 X87.949 Y77.992 E39.28542
G1 X85.896 Y81.549 E39.47359
G1 X85.277 Y82.236 E39.51596
G1 X99.755 Y96.715 E40.45398
G1 X100.405 Y98.284 E40.53180
G1 X99.784 Y99.784 E40.60618
G1 X98.284 Y100.405 E40.68055
G1 X96.715 Y99.755 E40.75837
G1 X82.228 Y85.269 E41.69690
G1 X79.824 Y87.016 E41.83304
G1 X76.072 Y88.686 E42.02121
G1 X72.150 Y89.520 E42.20488
G1 X72.150 Y109.930 E43.13990
G1 X71.500 Y111.500 E43.21773
G1 X70.000 Y112.121 E43.29210
G1 X68.500 Y111.500 E43.36647
G1 X67.850 Y109.930 E43.44430
G1 X67.850 Y89.520 E44.37932
G1 X63.928 Y88.686 E44.56299
G1 X60.176 Y87.016 E44.75116
G1 X57.772 Y85.269 E44.88730
G1 X43.285 Y99.755 E45.82583
G1 X41.716 Y100.405 E45.90366
G1 X40.216 Y99.784 E45.97803
G1 X39.595 Y98.284 E46.05240
G1 X40.245 Y96.715 E46.13023
G1 X54.691 Y82.268 E47.06618
G1 F2400.000 E44.36618
G92 E0
G1 X41.213 Y41.213 F3000.000
G1 E2.70000 F2400.000
G1 X41.716 Y41.004 E2.72495 F600.000
G1 X42.548 Y41.349 E2.76620
G1 X57.637 Y56.438 E3.74381
G1 X60.831 Y54.118 E3.92463
G1 X64.333 Y52.559 E4.10027
G1 X69.152 Y51.535 E4.32597
G1 X69.152 Y30.329 E5.29744
G1 X69.497 Y29.497 E5.33868
G1 X70.000 Y29.288 E5.36364
G1 X70.503 Y29.497 E5.38859
G1 X70.848 Y30.329 E5.42984
G1 X70.848 Y51.535 E6.40130
G1 X75.667 Y52.559 E6.62701
G1 X79.169 Y54.118 E6.80264
G1 X82.363 Y56.438 E6.98346
G1 X97.452 Y41.349 E7.96107
G1 X98.284 Y41.004 E8.00232
G1 X98.787 Y41.213 E8.02727
G1 X98.996 Y41.716 E8.05223
G1 X98.651 Y42.548 E8.09347
G1 X83.482 Y57.717 E9.07623
G1 X84.836 Y59.221 E9.16894
G1 X86.753 Y62.541 E9.34457
G1 X87.938 Y66.187 E9.52020
G1 X88.249 Y69.152 E9.65678
G1 X109.671 Y69.152 E10.63815
G1 X110.503 Y69.497 E10.67939
G1 X110.712 Y70.000 E10.70435
G1 X110.503 Y70.503 E10.72930
G1 X109.671 Y70.848 E10.77055
G1 X88.249 Y70.848 E11.75191
G1 X87.938 Y73.813 E11.88849
G1 X86.753 Y77.459 E12.06412
G1 X84.836 Y80.779 E12.23976
G1 X83.482 Y82.283 E12.33247
G1 X98.651 Y97.452 E13.31522
G1 X98.996 Y98.284 E13.35647
G1 X98.787 Y98.787 E13.38142
G1 X98.284 Y98.996 E13.40637
G1 X97.452 Y98.651 E13.44762
G1 X82.363 Y83.562 E14.42523
G1 X79.169 Y85.882 E14.60605
G1 X75.667 Y87.441 E14.78169
G1 X70.848 Y88.465 E15.00739
G1 X70.848 Y109.671 E15.97885
G1 X70.503 Y110.503 E16.02010
G1 X70.000 Y110.712 E16.04506
G1 X69.497 Y110.503 E16.07001
G1 X69.152 Y109.671 E16.11126
G1 X69.152 Y88.465 E17.08272
G1 X64.333 Y87.441 E17.30843
G1 X60.831 Y85.882 E17.48406
G1 X57.637 Y83.562 E17.66488
G1 X42.548 Y98.651 E18.64249
G1 X41.716 Y98.996 E18.68374
G1 X41.213 Y98.787 E18.70869
G1 X41.004 Y98.284 E18.73364
G1 X41.349 Y97.452 E18.77489
G1 X56.518 Y82.283 E19.75765
G1 X55.164 Y80.779 E19.85035
G1 X53.247 Y77.459 E20.02599
G1 X52.062 Y73.813 E20.20162
G1 X51.751 Y70.848 E20.33820
G1 X30.329 Y70.848 E21.31956
G1 X29.497 Y70.503 E21.36081
G1 X29.288 Y70.000 E21.38576
G1 X29.497 Y69.497 E21.41072
G1 X30.329 Y69.152 E21.45197
G1 X51.751 Y69.152 E22.43333
G1 X52.062 Y66.187 E22.56991
G1 X53.247 Y62.541 E22.74554
G1 X55.164 Y59.221 E22.92117
G1 X56.518 Y57.717 E23.01388
G1 X41.349 Y42.548 E23.99664
G1 X41.004 Y41.716 E24.03789
G1 X41.195 Y41.254 E24.06078
G1 X57.277 Y57.528 F3000.000
G1 X61.168 Y54.702 E24.28108 F600.000
G1 X64.541 Y53.200 E24.45026
G1 X70.000 Y52.039 E24.70592
G1 X75.459 Y53.200 E24.96157
G1 X78.832 Y54.702 E25.13075
G1 X82.723 Y57.528 E25.35106
G1 X82.559 Y57.692 E25.36169
G1 X84.291 Y59.617 E25.48030
G1 X86.138 Y62.815 E25.64948
G1 X87.279 Y66.327 E25.81866
G1 X87.665 Y70.000 E25.98784
G1 X87.279 Y73.673 E26.15702
G1 X86.138 Y77.185 E26.32620
G1 X84.291 Y80.383 E26.49539
G1 X82.559 Y82.308 E26.61400
G1 X82.723 Y82.472 E26.62463
G1 X78.832 Y85.298 E26.84493
G1 X75.459 Y86.800 E27.01411
G1 X70.000 Y87.961 E27.26977
G1 X64.541 Y86.800 E27.52543
G1 X61.168 Y85.298 E27.69461
G1 X57.277 Y82.472 E27.91491
G1 X57.441 Y82.308 E27.92554
G1 X55.709 Y80.383 E28.04415
G1 X53.862 Y77.185 E28.21333
G1 X52.721 Y73.673 E28.38251
G1 X52.335 Y70.000 E28.55169
G1 X52.721 Y66.327 E28.72087
G1 X53.862 Y62.815 E28.89005
G1 X55.709 Y59.617 E29.05924
G1 X57.441 Y57.692 E29.17785
G1 X57.309 Y57.560 E29.18642
G1 X58.306 Y57.609 F3000.000
G1 X61.504 Y55.285 E29.36755 F600.000
G1 X64.749 Y53.840 E29.53028
G1 X70.000 Y52.724 E29.77619
G1 X75.251 Y53.840 E30.02209
G1 X78.496 Y55.285 E30.18482
G1 X81.694 Y57.609 E30.36595
G1 X81.635 Y57.668 E30.36977
G1 X83.746 Y60.013 E30.51428
G1 X85.522 Y63.089 E30.67702
G1 X86.620 Y66.467 E30.83974
G1 X86.991 Y70.000 E31.00247
G1 X86.620 Y73.533 E31.16520
G1 X85.522 Y76.911 E31.32792
G1 X83.746 Y79.987 E31.49066
G1 X81.636 Y82.332 E31.63517
G1 X81.694 Y82.391 E31.63899
G1 X78.496 Y84.715 E31.82012
G1 X75.251 Y86.160 E31.98285
G1 X70.000 Y87.276 E32.22875
G1 X64.749 Y86.160 E32.47466
G1 X61.504 Y84.715 E32.63739
G1 X58.306 Y82.391 E32.81852
G1 X58.364 Y82.332 E32.82234
G1 X56.254 Y79.987 E32.96685
G1 X54.478 Y76.911 E33.12959
G1 X53.380 Y73.533 E33.29231
G1 X53.009 Y70.000 E33.45504
G1 X53.380 Y66.467 E33.61777
G1 X54.478 Y63.089 E33.78049
G1 X56.254 Y60.013 E33.94323
G1 X58.364 Y57.668 E34.08774
G1 X58.337 Y57.641 E34.08949
G1 X59.080 Y57.875 F3000.000
G1 X61.841 Y55.869 E34.24585 F600.000
G1 X64.958 Y54.481 E34.40213
G1 X70.000 Y53.409 E34.63828
G1 X75.042 Y54.481 E34.87444
G1 X78.159 Y55.869 E35.03072
G1 X80.920 Y57.875 E35.18708
G1 X83.201 Y60.409 E35.34325
G1 X84.907 Y63.363 E35.49954
G1 X85.961 Y66.607 E35.65581
G1 X86.317 Y70.000 E35.81209
G1 X85.961 Y73.393 E35.96836
G1 X84.907 Y76.637 E36.12463
G1 X83.201 Y79.591 E36.28092
G1 X80.920 Y82.125 E36.43709
G1 X78.159 Y84.131 E36.59346
G1 X75.042 Y85.519 E36.74973
G1 X70.000 Y86.591 E36.98589
G1 X64.958 Y85.519 E37.22204
G1 X61.841 Y84.131 E37.37832
G1 X59.080 Y82.125 E37.53468
G1 X56.799 Y79.591 E37.69086
G1 X55.093 Y76.637 E37.84714
G1 X54.039 Y73.393 E38.00341
G1 X53.683 Y70.000 E38.15969
G1 X54.039 Y66.607 E38.31596
G1 X55.093 Y63.363 E38.47223
G1 X56.799 Y60.409 E38.62852
G1 X59.050 Y57.908 E38.78264
G1 X59.531 Y58.376 F3000.000
G1 X62.178 Y56.452 E38.93254 F600.000
G1 X65.166 Y55.122 E39.08236
G1 X70.000 Y54.094 E39.30877
G1 X74.834 Y55.122 E39.53517
G1 X77.822 Y56.452 E39.68500
G1 X80.469 Y58.376 E39.83490
G1 X82.656 Y60.805 E39.98463
G1 X84.291 Y63.637 E40.13446
G1 X85.302 Y66.747 E40.28428
G1 X85.643 Y70.000 E40.43410
G1 X85.302 Y73.253 E40.58393
G1 X84.291 Y76.363 E40.73374
G1 X82.656 Y79.195 E40.88358
G1 X80.469 Y81.624 E41.03330
G1 X77.822 Y83.548 E41.18321
G1 X74.834 Y84.878 E41.33303
G1 X70.000 Y85.906 E41.55944
G1 X65.166 Y84.878 E41.78584
G1 X62.178 Y83.548 E41.93566
G1 X59.531 Y81.624 E42.08557
G1 X57.344 Y79.195 E42.23529
G1 X55.709 Y76.363 E42.38513
G1 X54.698 Y73.253 E42.53495
G1 X54.356 Y70.000 E42.68477
G1 X54.698 Y66.747 E42.83459
G1 X55.709 Y63.637 E42.98441
G1 X57.344 Y60.805 E43.13424
G1 X59.501 Y58.409 E43.28191
G1 X59.982 Y58.876 F3000.000
G1 X62.515 Y57.036 E43.42536 F600.000
G1 X65.374 Y55.763 E43.56873
G1 X70.000 Y54.780 E43.78538
G1 X74.626 Y55.763 E44.00204
G1 X77.485 Y57.036 E44.14541
G1 X80.018 Y58.876 E44.28886
G1 X82.111 Y61.201 E44.43213
G1 X83.676 Y63.911 E44.57552
G1 X84.643 Y66.887 E44.71888
G1 X84.970 Y70.000 E44.86225
G1 X84.643 Y73.112 E45.00562
G1 X83.676 Y76.089 E45.14898
G1 X82.111 Y78.799 E45.29237
G1 X80.018 Y81.124 E45.43564
G1 X77.485 Y82.964 E45.57909
G1 X74.626 Y84.237 E45.72246
G1 X70.000 Y85.220 E45.93912
G1 X65.374 Y84.237 E46.15577
G1 X62.515 Y82.964 E46.29914
G1 X59.982 Y81.124 E46.44259
G1 X57.889 Y78.799 E46.58586
G1 X56.324 Y76.089 E46.72925
G1 X55.357 Y73.112 E46.87261
G1 X55.030 Y70.000 E47.01598
G1 X55.357 Y66.887 E47.15935
G1 X56.324 Y63.911 E47.30272
G1 X57.889 Y61.201 E47.44610
G1 X59.952 Y58.910 E47.58731
G1 X60.433 Y59.377 F3000.000
G1 X62.852 Y57.619 E47.72431 F600.000
G1 X65.582 Y56.404 E47.86123
G1 X70.000 Y55.465 E48.06813
G1 X74.418 Y56.404 E48.27503
G1 X77.148 Y57.619 E48.41195
G1 X79.567 Y59.377 E48.54894
G1 X81.566 Y61.597 E48.68577
G1 X83.060 Y64.185 E48.82270
G1 X83.984 Y67.028 E48.95961
G1 X84.296 Y70.000 E49.09653
G1 X83.984 Y72.972 E49.23345
G1 X83.060 Y75.815 E49.37036
G1 X81.566 Y78.403 E49.50729
G1 X79.568 Y80.623 E49.64410
G1 X77.148 Y82.381 E49.78111
G1 X74.418 Y83.596 E49.91802
G1 X70.000 Y84.535 E50.12493
G1 X65.582 Y83.596 E50.33183
G1 X62.852 Y82.381 E50.46875
G1 X60.433 Y80.623 E50.60575
G1 X58.434 Y78.403 E50.74256
G1 X56.940 Y75.815 E50.87950
G1 X56.016 Y72.972 E51.01641
G1 X55.704 Y70.000 E51.15333
G1 X56.016 Y67.028 E51.29025
G1 X56.940 Y64.185 E51.42715
G1 X58.434 Y61.597 E51.56409
G1 X60.402 Y59.410 E51.69885
G1 X60.883 Y59.878 F3000.000
G1 X63.189 Y58.203 E51.82939 F600.000
G1 X65.790 Y57.044 E51.95985
G1 X70.000 Y56.150 E52.15701
G1 X74.210 Y57.044 E52.35416
G1 X76.811 Y58.203 E52.48462
G1 X79.117 Y59.878 E52.61516
G1 X81.020 Y61.993 E52.74553
G1 X82.445 Y64.459 E52.87601
G1 X83.325 Y67.168 E53.00647
G1 X83.622 Y70.000 E53.13694
G1 X83.325 Y72.832 E53.26740
G1 X82.445 Y75.541 E53.39786
G1 X81.020 Y78.007 E53.52834
G1 X79.117 Y80.122 E53.65870
G1 X76.811 Y81.797 E53.78925
G1 X74.210 Y82.956 E53.91972
G1 X70.000 Y83.850 E54.11687
G1 X65.790 Y82.956 E54.31402
G1 X63.189 Y81.797 E54.44449
G1 X60.883 Y80.122 E54.57503
G1 X58.979 Y78.007 E54.70539
G1 X57.555 Y75.541 E54.83588
G1 X56.675 Y72.832 E54.96633
G1 X56.378 Y70.000 E55.09680
G1 X56.675 Y67.168 E55.22727
G1 X57.555 Y64.459 E55.35772
G1 X58.979 Y61.993 E55.48821
G1 X60.853 Y59.911 E55.61651
G1 X61.334 Y60.378 F3000.000
G1 X63.526 Y58.786 E55.74060 F600.000
G1 X65.999 Y57.685 E55.86461
G1 X70.000 Y56.835 E56.05201
G1 X74.001 Y57.685 E56.23941
G1 X76.474 Y58.786 E56.36343
G1 X78.666 Y60.378 E56.48751
G1 X80.475 Y62.389 E56.61143
G1 X81.829 Y64.733 E56.73546
G1 X82.666 Y67.308 E56.85946
G1 X82.948 Y70.000 E56.98348
G1 X82.666 Y72.692 E57.10749
G1 X81.829 Y75.267 E57.23149
G1 X80.475 Y77.611 E57.35553
G1 X78.666 Y79.622 E57.47944
G1 X76.474 Y81.214 E57.60353
G1 X74.001 Y82.315 E57.72754
